( pcb2gcode 2.5.0 )
( Software-independent Gcode )

G94 ( Inches per minute feed rate. )
G20 ( Units == INCHES. )

G90 ( Absolute coordinates. )
G00 S12000 ( RPM spindle speed. )
G64 P0.00040 ( set maximum deviation from commanded toolpath )
G01 F360.00000 ( Feedrate. )


G00 Z1.00000 (Retract to tool change height)
T1
M5      (Spindle stop.)
G04 P1.00000 (Wait for spindle to stop)
(MSG, Change tool bit to mill diameter 0.05512in)
M6      (Tool change.)
M0      (Temporary machine stop.)
M3 ( Spindle on clockwise. )
G04 P1.00000 (Wait for spindle to get up to speed)
G04 P0 ( dwell for no time -- G64 should not smooth over this point )
G00 Z0.08000 ( retract )

G00 X-4.10720 Y-2.72814 ( rapid move to begin. )
G01 F180.00000
( Mill infeed pass 1/1 )
G01 Z-0.04000
G04 P0 ( dwell for no time -- G64 should not smooth over this point )
G01 F360.00000
G01 X-4.10720 Y-2.72814
G01 X-4.11332 Y-2.71748
G01 X-4.11664 Y-2.71233
G01 X-4.11833 Y-2.71022
G01 X-4.11799 Y-2.70989
G01 X-4.11833 Y-2.71022
G01 X-4.12039 Y-2.70847
G01 X-4.12276 Y-2.70716
G01 X-4.12267 Y-2.70700
G01 X-4.12276 Y-2.70716
G01 X-4.13040 Y-2.70393
G01 X-4.13937 Y-2.70062
G01 X-4.14922 Y-2.69776
G01 X-4.27801 Y-2.66728
G01 X-4.27799 Y-2.66709
G01 X-4.27801 Y-2.66728
G01 X-4.28190 Y-2.66693
G01 X-4.29567 Y-2.66754
G01 X-4.30559 Y-2.66752
G01 X-4.31957 Y-2.66681
G01 X-4.32359 Y-2.66646
G01 X-4.33769 Y-2.66473
G01 X-4.34851 Y-2.66285
G01 X-4.35290 Y-2.66196
G01 X-4.36463 Y-2.65919
G01 X-4.37499 Y-2.65633
G01 X-4.37875 Y-2.65580
G01 X-4.37873 Y-2.65562
G01 X-4.37875 Y-2.65580
G01 X-4.62129 Y-2.65581
G01 X-4.62132 Y-2.65562
G01 X-4.62129 Y-2.65581
G01 X-4.62523 Y-2.65638
G01 X-4.63395 Y-2.65885
G01 X-4.64381 Y-2.66126
G01 X-4.67714 Y-2.66804
G01 X-4.69756 Y-2.67255
G01 X-4.71730 Y-2.67722
G01 X-4.75032 Y-2.68561
G01 X-4.76784 Y-2.68943
G01 X-4.78686 Y-2.69264
G01 X-4.80883 Y-2.69527
G01 X-4.83323 Y-2.69701
G01 X-4.85508 Y-2.69764
G01 X-4.87953 Y-2.69733
G01 X-4.88507 Y-2.69033
G01 X-4.89139 Y-2.68155
G01 X-4.89584 Y-2.67487
G01 X-4.90000 Y-2.66803
G01 X-4.89584 Y-2.67487
G01 X-4.89139 Y-2.68155
G01 X-4.88507 Y-2.69033
G01 X-4.87953 Y-2.69733
G01 X-4.89045 Y-2.69704
G01 X-4.90000 Y-2.69643
G01 X-4.90000 Y-2.38418
G01 X-4.89196 Y-2.37493
G01 X-4.88452 Y-2.36709
G01 X-4.87408 Y-2.35714
G01 X-4.86585 Y-2.35000
G01 X-4.81808 Y-2.35000
G01 X-4.82655 Y-2.35528
G01 X-4.83216 Y-2.35900
G01 X-4.83764 Y-2.36293
G01 X-4.84396 Y-2.36777
G01 X-4.84890 Y-2.37175
G01 X-4.85430 Y-2.37641
G01 X-4.86501 Y-2.38656
G01 X-4.86946 Y-2.39116
G01 X-4.87375 Y-2.39592
G01 X-4.87971 Y-2.40288
G01 X-4.88415 Y-2.40846
G01 X-4.88770 Y-2.41324
G01 X-4.89320 Y-2.42110
G01 X-4.89691 Y-2.42683
G01 X-4.90000 Y-2.43197
G01 X-4.90000 Y-2.35000
G01 X-3.67219 Y-2.35000
G01 X-3.61838 Y-2.40380
G01 X-3.61888 Y-2.40466
G01 X-3.61838 Y-2.40380
G01 X-3.60945 Y-2.40602
G01 X-3.60268 Y-2.40813
G01 X-3.59264 Y-2.41185
G01 X-3.58363 Y-2.41596
G01 X-3.57700 Y-2.41946
G01 X-3.56937 Y-2.42401
G01 X-3.56962 Y-2.42496
G01 X-3.56937 Y-2.42401
G01 X-3.33064 Y-2.42401
G01 X-3.33042 Y-2.42487
G01 X-3.33064 Y-2.42401
G01 X-3.32673 Y-2.42161
G01 X-3.31654 Y-2.41607
G01 X-3.31007 Y-2.41301
G01 X-3.30267 Y-2.41000
G01 X-3.29701 Y-2.40801
G01 X-3.28944 Y-2.40571
G01 X-3.28212 Y-2.40391
G01 X-3.27663 Y-2.40281
G01 X-3.26866 Y-2.40158
G01 X-3.26339 Y-2.40103
G01 X-3.25540 Y-2.40051
G01 X-3.24778 Y-2.40044
G01 X-3.24249 Y-2.40061
G01 X-3.23448 Y-2.40123
G01 X-3.22823 Y-2.40202
G01 X-3.22002 Y-2.40347
G01 X-3.21462 Y-2.40466
G01 X-3.20621 Y-2.40698
G01 X-3.20022 Y-2.40895
G01 X-3.19208 Y-2.41210
G01 X-3.18667 Y-2.41449
G01 X-3.17853 Y-2.41860
G01 X-3.17239 Y-2.42216
G01 X-3.16537 Y-2.42666
G01 X-3.15994 Y-2.43059
G01 X-3.15282 Y-2.43628
G01 X-3.14581 Y-2.44272
G01 X-3.14046 Y-2.44813
G01 X-3.13469 Y-2.45475
G01 X-3.13076 Y-2.45969
G01 X-3.12659 Y-2.46551
G01 X-3.12159 Y-2.47332
G01 X-3.11824 Y-2.47919
G01 X-3.11572 Y-2.48411
G01 X-3.11090 Y-2.49497
G01 X-3.10696 Y-2.50625
G01 X-3.10562 Y-2.51090
G01 X-3.10391 Y-2.51789
G01 X-3.10237 Y-2.52603
G01 X-3.10143 Y-2.53272
G01 X-3.10094 Y-2.53743
G01 X-3.10051 Y-2.54536
G01 X-3.10041 Y-2.55020
G01 X-3.07286 Y-2.55039
G01 X-3.05000 Y-2.59352
G01 X-3.05285 Y-2.60511
G01 X-3.05644 Y-2.61652
G01 X-3.05972 Y-2.62549
G01 X-3.06424 Y-2.63597
G01 X-3.07430 Y-2.63748
G01 X-3.09793 Y-2.64021
G01 X-3.09754 Y-2.64017
G01 X-3.09394 Y-2.63374
G01 X-3.08924 Y-2.62437
G01 X-3.08473 Y-2.61377
G01 X-3.08085 Y-2.60255
G01 X-3.07847 Y-2.59421
G01 X-3.07596 Y-2.58301
G01 X-3.07421 Y-2.57167
G01 X-3.07334 Y-2.56304
G01 X-3.07286 Y-2.55079
G01 X-3.07318 Y-2.53970
G01 X-3.07390 Y-2.53086
G01 X-3.07547 Y-2.51971
G01 X-3.07722 Y-2.51101
G01 X-3.08021 Y-2.49949
G01 X-3.08386 Y-2.48855
G01 X-3.08732 Y-2.47995
G01 X-3.09083 Y-2.47228
G01 X-3.09376 Y-2.46653
G01 X-3.09852 Y-2.45819
G01 X-3.10209 Y-2.45252
G01 X-3.10733 Y-2.44502
G01 X-3.11124 Y-2.43988
G01 X-3.11772 Y-2.43222
G01 X-3.12177 Y-2.42778
G01 X-3.12658 Y-2.42297
G01 X-3.13365 Y-2.41642
G01 X-3.13861 Y-2.41228
G01 X-3.14594 Y-2.40665
G01 X-3.15157 Y-2.40274
G01 X-3.15938 Y-2.39780
G01 X-3.16498 Y-2.39459
G01 X-3.17176 Y-2.39110
G01 X-3.18055 Y-2.38705
G01 X-3.19142 Y-2.38283
G01 X-3.19948 Y-2.38023
G01 X-3.20606 Y-2.37840
G01 X-3.21115 Y-2.37717
G01 X-3.22261 Y-2.37500
G01 X-3.23101 Y-2.37389
G01 X-3.24260 Y-2.37301
G01 X-3.25382 Y-2.37290
G01 X-3.25907 Y-2.37309
G01 X-3.26549 Y-2.37355
G01 X-3.27503 Y-2.37465
G01 X-3.28613 Y-2.37658
G01 X-3.29847 Y-2.37962
G01 X-3.30988 Y-2.38328
G01 X-3.32212 Y-2.38820
G01 X-3.32924 Y-2.39162
G01 X-3.33825 Y-2.39645
G01 X-3.33807 Y-2.39719
G01 X-3.33825 Y-2.39645
G01 X-3.56173 Y-2.39645
G01 X-3.56190 Y-2.39717
G01 X-3.56173 Y-2.39645
G01 X-3.56689 Y-2.39356
G01 X-3.57302 Y-2.39048
G01 X-3.58255 Y-2.38620
G01 X-3.59273 Y-2.38241
G01 X-3.59924 Y-2.38028
G01 X-3.60435 Y-2.37886
G01 X-3.60474 Y-2.37949
G01 X-3.60435 Y-2.37886
G01 X-3.63321 Y-2.35000
G01 X-3.59423 Y-2.35000
G01 X-3.58992 Y-2.35431
G01 X-3.59029 Y-2.35489
G01 X-3.58992 Y-2.35431
G01 X-3.58844 Y-2.35478
G01 X-3.57862 Y-2.35817
G01 X-3.57192 Y-2.36077
G01 X-3.56534 Y-2.36365
G01 X-3.55634 Y-2.36798
G01 X-3.55458 Y-2.36890
G01 X-3.55473 Y-2.36955
G01 X-3.55458 Y-2.36890
G01 X-3.34522 Y-2.36890
G01 X-3.34505 Y-2.36962
G01 X-3.34522 Y-2.36890
G01 X-3.33866 Y-2.36551
G01 X-3.33135 Y-2.36216
G01 X-3.32210 Y-2.35842
G01 X-3.31542 Y-2.35604
G01 X-3.30702 Y-2.35340
G01 X-3.30076 Y-2.35170
G01 X-3.29360 Y-2.35000
G01 X-3.20639 Y-2.35000
G01 X-3.19934 Y-2.35168
G01 X-3.19125 Y-2.35393
G01 X-3.18516 Y-2.35584
G01 X-3.17914 Y-2.35798
G01 X-3.17133 Y-2.36104
G01 X-3.16510 Y-2.36373
G01 X-3.15934 Y-2.36650
G01 X-3.15118 Y-2.37073
G01 X-3.14496 Y-2.37432
G01 X-3.13752 Y-2.37900
G01 X-3.13222 Y-2.38257
G01 X-3.12738 Y-2.38610
G01 X-3.12108 Y-2.39101
G01 X-3.11617 Y-2.39510
G01 X-3.11142 Y-2.39938
G01 X-3.10450 Y-2.40602
G01 X-3.09925 Y-2.41153
G01 X-3.09346 Y-2.41816
G01 X-3.08939 Y-2.42308
G01 X-3.08599 Y-2.42752
G01 X-3.08090 Y-2.43467
G01 X-3.07737 Y-2.43998
G01 X-3.07426 Y-2.44508
G01 X-3.06971 Y-2.45306
G01 X-3.06642 Y-2.45945
G01 X-3.06273 Y-2.46742
G01 X-3.06036 Y-2.47293
G01 X-3.05819 Y-2.47851
G01 X-3.05544 Y-2.48643
G01 X-3.05365 Y-2.49213
G01 X-3.05196 Y-2.49827
G01 X-3.05000 Y-2.50642
G01 X-3.05000 Y-2.59352
G01 X-3.07286 Y-2.55039
G01 X-3.18309 Y-2.55000
G01 X-3.15553 Y-2.55019
G01 X-3.10041 Y-2.55020
G01 X-3.10099 Y-2.56306
G01 X-3.10151 Y-2.56788
G01 X-3.10266 Y-2.57583
G01 X-3.10367 Y-2.58098
G01 X-3.10554 Y-2.58880
G01 X-3.10687 Y-2.59345
G01 X-3.10901 Y-2.59993
G01 X-3.11098 Y-2.60522
G01 X-3.11383 Y-2.61186
G01 X-3.11583 Y-2.61615
G01 X-3.11802 Y-2.62035
G01 X-3.12152 Y-2.62658
G01 X-3.12443 Y-2.63128
G01 X-3.12894 Y-2.63785
G01 X-3.13234 Y-2.64236
G01 X-3.13352 Y-2.64382
G01 X-3.16238 Y-2.64709
G01 X-3.17899 Y-2.64922
G01 X-3.17423 Y-2.64563
G01 X-3.16783 Y-2.64022
G01 X-3.16185 Y-2.63436
G01 X-3.15758 Y-2.62963
G01 X-3.15255 Y-2.62344
G01 X-3.14752 Y-2.61624
G01 X-3.14442 Y-2.61112
G01 X-3.13992 Y-2.60265
G01 X-3.13627 Y-2.59423
G01 X-3.13365 Y-2.58669
G01 X-3.13198 Y-2.58096
G01 X-3.13012 Y-2.57279
G01 X-3.12881 Y-2.56412
G01 X-3.12829 Y-2.55857
G01 X-3.12797 Y-2.55020
G01 X-3.12826 Y-2.54182
G01 X-3.12881 Y-2.53586
G01 X-3.13013 Y-2.52717
G01 X-3.13210 Y-2.51861
G01 X-3.13365 Y-2.51326
G01 X-3.13658 Y-2.50497
G01 X-3.14014 Y-2.49694
G01 X-3.14287 Y-2.49161
G01 X-3.14690 Y-2.48472
G01 X-3.15164 Y-2.47781
G01 X-3.15454 Y-2.47400
G01 X-3.16026 Y-2.46732
G01 X-3.16445 Y-2.46302
G01 X-3.17061 Y-2.45733
G01 X-3.17750 Y-2.45186
G01 X-3.18241 Y-2.44843
G01 X-3.19023 Y-2.44361
G01 X-3.19805 Y-2.43960
G01 X-3.20353 Y-2.43720
G01 X-3.21214 Y-2.43399
G01 X-3.22137 Y-2.43138
G01 X-3.23077 Y-2.42952
G01 X-3.23631 Y-2.42875
G01 X-3.24504 Y-2.42807
G01 X-3.25337 Y-2.42802
G01 X-3.26364 Y-2.42874
G01 X-3.27305 Y-2.43017
G01 X-3.28229 Y-2.43232
G01 X-3.29133 Y-2.43519
G01 X-3.29762 Y-2.43766
G01 X-3.30166 Y-2.43946
G01 X-3.31266 Y-2.44531
G01 X-3.31713 Y-2.44811
G01 X-3.32196 Y-2.45157
G01 X-3.32160 Y-2.45275
G01 X-3.32196 Y-2.45157
G01 X-3.57794 Y-2.45157
G01 X-3.57827 Y-2.45268
G01 X-3.57794 Y-2.45157
G01 X-3.58184 Y-2.44879
G01 X-3.58519 Y-2.44663
G01 X-3.59386 Y-2.44166
G01 X-3.60364 Y-2.43712
G01 X-3.61417 Y-2.43335
G01 X-3.62344 Y-2.43091
G01 X-3.63176 Y-2.42939
G01 X-3.63233 Y-2.43043
G01 X-3.63176 Y-2.42939
G01 X-3.71116 Y-2.35000
G01 X-3.08415 Y-2.35000
G01 X-3.07592 Y-2.35714
G01 X-3.06548 Y-2.36709
G01 X-3.05803 Y-2.37493
G01 X-3.05000 Y-2.38418
G01 X-3.05000 Y-2.43197
G01 X-3.05309 Y-2.42683
G01 X-3.05680 Y-2.42110
G01 X-3.06230 Y-2.41324
G01 X-3.06584 Y-2.40846
G01 X-3.07029 Y-2.40288
G01 X-3.07625 Y-2.39592
G01 X-3.08054 Y-2.39116
G01 X-3.08499 Y-2.38656
G01 X-3.09570 Y-2.37641
G01 X-3.10110 Y-2.37175
G01 X-3.10604 Y-2.36777
G01 X-3.11236 Y-2.36293
G01 X-3.11784 Y-2.35900
G01 X-3.12345 Y-2.35528
G01 X-3.13192 Y-2.35000
G01 X-3.05000 Y-2.35000
G01 X-3.05000 Y-2.63362
G01 X-3.06806 Y-2.63660
G01 X-3.07430 Y-2.63748
G01 X-3.09793 Y-2.64021
G01 X-3.14112 Y-2.64462
G01 X-3.16238 Y-2.64709
G01 X-3.18686 Y-2.65028
G01 X-3.22273 Y-2.65558
G01 X-3.23324 Y-2.65659
G01 X-3.24334 Y-2.65711
G01 X-3.25552 Y-2.65714
G01 X-3.26482 Y-2.65673
G01 X-3.27340 Y-2.65601
G01 X-3.27946 Y-2.65531
G01 X-3.28861 Y-2.65395
G01 X-3.29961 Y-2.65182
G01 X-3.30898 Y-2.64959
G01 X-3.32157 Y-2.64601
G01 X-3.32557 Y-2.64542
G01 X-3.32554 Y-2.64522
G01 X-3.32557 Y-2.64542
G01 X-3.52510 Y-2.64542
G01 X-3.57649 Y-2.62415
G01 X-3.57861 Y-2.62347
G01 X-3.57854 Y-2.62321
G01 X-3.57861 Y-2.62347
G01 X-3.58081 Y-2.62313
G01 X-3.59360 Y-2.62206
G01 X-3.60662 Y-2.62028
G01 X-3.61919 Y-2.61779
G01 X-3.62626 Y-2.61601
G01 X-3.63178 Y-2.61438
G01 X-3.63859 Y-2.61592
G01 X-3.64287 Y-2.61653
G01 X-3.64830 Y-2.61689
G01 X-3.65374 Y-2.61680
G01 X-3.65804 Y-2.61641
G01 X-3.66514 Y-2.61515
G01 X-3.66786 Y-2.61360
G01 X-3.66514 Y-2.61515
G01 X-3.65993 Y-2.61616
G01 X-3.65411 Y-2.61678
G01 X-3.64867 Y-2.61689
G01 X-3.64287 Y-2.61653
G01 X-3.63786 Y-2.61580
G01 X-3.63255 Y-2.61459
G01 X-3.62771 Y-2.61308
G01 X-3.62097 Y-2.61027
G01 X-3.61681 Y-2.60810
G01 X-3.61220 Y-2.60521
G01 X-3.60813 Y-2.60219
G01 X-3.60458 Y-2.59912
G01 X-3.60074 Y-2.59527
G01 X-3.59903 Y-2.59331
G01 X-3.30098 Y-2.59331
G01 X-3.29614 Y-2.59844
G01 X-3.29292 Y-2.60133
G01 X-3.28861 Y-2.60465
G01 X-3.28436 Y-2.60741
G01 X-3.28025 Y-2.60967
G01 X-3.27398 Y-2.61245
G01 X-3.27015 Y-2.61380
G01 X-3.26504 Y-2.61520
G01 X-3.26064 Y-2.61606
G01 X-3.25584 Y-2.61665
G01 X-3.24854 Y-2.61688
G01 X-3.24416 Y-2.61665
G01 X-3.23857 Y-2.61592
G01 X-3.23219 Y-2.61449
G01 X-3.22637 Y-2.61260
G01 X-3.22052 Y-2.61006
G01 X-3.21469 Y-2.60683
G01 X-3.20974 Y-2.60344
G01 X-3.20472 Y-2.59925
G01 X-3.20041 Y-2.59491
G01 X-3.19602 Y-2.58951
G01 X-3.19295 Y-2.58495
G01 X-3.18944 Y-2.57841
G01 X-3.18710 Y-2.57276
G01 X-3.18560 Y-2.56814
G01 X-3.18446 Y-2.56341
G01 X-3.18341 Y-2.55653
G01 X-3.18309 Y-2.55042
G01 X-3.18336 Y-2.54400
G01 X-3.18416 Y-2.53816
G01 X-3.18567 Y-2.53161
G01 X-3.18733 Y-2.52660
G01 X-3.18832 Y-2.52413
G01 X-3.19119 Y-2.51812
G01 X-3.19387 Y-2.51358
G01 X-3.19758 Y-2.50843
G01 X-3.20176 Y-2.50364
G01 X-3.20636 Y-2.49928
G01 X-3.21129 Y-2.49542
G01 X-3.21626 Y-2.49223
G01 X-3.22354 Y-2.48856
G01 X-3.22905 Y-2.48645
G01 X-3.23471 Y-2.48486
G01 X-3.24126 Y-2.48366
G01 X-3.24636 Y-2.48321
G01 X-3.25350 Y-2.48319
G01 X-3.25780 Y-2.48355
G01 X-3.26290 Y-2.48435
G01 X-3.26762 Y-2.48545
G01 X-3.27142 Y-2.48662
G01 X-3.27708 Y-2.48882
G01 X-3.28545 Y-2.49325
G01 X-3.29190 Y-2.49789
G01 X-3.29371 Y-2.49934
G01 X-3.29723 Y-2.50261
G01 X-3.30100 Y-2.50669
G01 X-3.59900 Y-2.50669
G01 X-3.60407 Y-2.50137
G01 X-3.60793 Y-2.49797
G01 X-3.61204 Y-2.49492
G01 X-3.61836 Y-2.49105
G01 X-3.62436 Y-2.48820
G01 X-3.63100 Y-2.48585
G01 X-3.63820 Y-2.48416
G01 X-3.64329 Y-2.48343
G01 X-3.64840 Y-2.48313
G01 X-3.65576 Y-2.48334
G01 X-3.76722 Y-2.37193
G01 X-3.77289 Y-2.36749
G01 X-3.77877 Y-2.36427
G01 X-3.78164 Y-2.36311
G01 X-3.78622 Y-2.36173
G01 X-3.79077 Y-2.36085
G01 X-3.79650 Y-2.36044
G01 X-4.15350 Y-2.36044
G01 X-4.15966 Y-2.36089
G01 X-4.16475 Y-2.36194
G01 X-4.16703 Y-2.36263
G01 X-4.17041 Y-2.36392
G01 X-4.17361 Y-2.36545
G01 X-4.17837 Y-2.36835
G01 X-4.18306 Y-2.37219
G01 X-4.29423 Y-2.48334
G01 X-4.30160 Y-2.48313
G01 X-4.30671 Y-2.48343
G01 X-4.31180 Y-2.48416
G01 X-4.31900 Y-2.48585
G01 X-4.32564 Y-2.48820
G01 X-4.33163 Y-2.49105
G01 X-4.33796 Y-2.49492
G01 X-4.34207 Y-2.49797
G01 X-4.34593 Y-2.50137
G01 X-4.35100 Y-2.50669
G01 X-4.64900 Y-2.50669
G01 X-4.65277 Y-2.50261
G01 X-4.65658 Y-2.49909
G01 X-4.66260 Y-2.49457
G01 X-4.66489 Y-2.49305
G01 X-4.67187 Y-2.48930
G01 X-4.67699 Y-2.48718
G01 X-4.68200 Y-2.48556
G01 X-4.68710 Y-2.48435
G01 X-4.69219 Y-2.48355
G01 X-4.69776 Y-2.48313
G01 X-4.70289 Y-2.48316
G01 X-4.70911 Y-2.48372
G01 X-4.71529 Y-2.48486
G01 X-4.72095 Y-2.48645
G01 X-4.72716 Y-2.48885
G01 X-4.73209 Y-2.49130
G01 X-4.73932 Y-2.49587
G01 X-4.74364 Y-2.49928
G01 X-4.74739 Y-2.50279
G01 X-4.74906 Y-2.50452
G01 X-4.75266 Y-2.50873
G01 X-4.75701 Y-2.51501
G01 X-4.75953 Y-2.51946
G01 X-4.76184 Y-2.52448
G01 X-4.76433 Y-2.53161
G01 X-4.76564 Y-2.53704
G01 X-4.76652 Y-2.54287
G01 X-4.76690 Y-2.55084
G01 X-4.76660 Y-2.55637
G01 X-4.76590 Y-2.56146
G01 X-4.76422 Y-2.56879
G01 X-4.76227 Y-2.57447
G01 X-4.76003 Y-2.57951
G01 X-4.75635 Y-2.58607
G01 X-4.75308 Y-2.59073
G01 X-4.74969 Y-2.59478
G01 X-4.74447 Y-2.59999
G01 X-4.73981 Y-2.60378
G01 X-4.73523 Y-2.60686
G01 X-4.73328 Y-2.60804
G01 X-4.72840 Y-2.61058
G01 X-4.72260 Y-2.61298
G01 X-4.71690 Y-2.61474
G01 X-4.71091 Y-2.61601
G01 X-4.70528 Y-2.61669
G01 X-4.69926 Y-2.61690
G01 X-4.69436 Y-2.61667
G01 X-4.68910 Y-2.61601
G01 X-4.68471 Y-2.61513
G01 X-4.67920 Y-2.61359
G01 X-4.67460 Y-2.61190
G01 X-4.66978 Y-2.60970
G01 X-4.66521 Y-2.60715
G01 X-4.66116 Y-2.60448
G01 X-4.65679 Y-2.60109
G01 X-4.65295 Y-2.59757
G01 X-4.64902 Y-2.59331
G01 X-4.35091 Y-2.59331
G01 X-4.34815 Y-2.59646
G01 X-4.34351 Y-2.60082
G01 X-4.33819 Y-2.60491
G01 X-4.33619 Y-2.60627
G01 X-4.32986 Y-2.60988
G01 X-4.32392 Y-2.61246
G01 X-4.32127 Y-2.61342
G01 X-4.31517 Y-2.61517
G01 X-4.30895 Y-2.61629
G01 X-4.30627 Y-2.61659
G01 X-4.30034 Y-2.61691
G01 X-4.29320 Y-2.61656
G01 X-4.28411 Y-2.61499
G01 X-4.27796 Y-2.61317
G01 X-4.27384 Y-2.61150
G01 X-4.09646 Y-2.70019
G01 X-4.09646 Y-2.78844
G01 X-4.12192 Y-2.76298
G01 X-4.12871 Y-2.74689
G01 X-4.13250 Y-2.73934
G01 X-4.13753 Y-2.73080
G01 X-4.14679 Y-2.72725
G01 X-4.15462 Y-2.72485
G01 X-4.18186 Y-2.71829
G01 X-4.65209 Y-2.71834
G01 X-4.65683 Y-2.71868
G01 X-4.66363 Y-2.71969
G01 X-4.66839 Y-2.72082
G01 X-4.67381 Y-2.72256
G01 X-4.67872 Y-2.72455
G01 X-4.68415 Y-2.72732
G01 X-4.68798 Y-2.72957
G01 X-4.69161 Y-2.73213
G01 X-4.69605 Y-2.73567
G01 X-4.69933 Y-2.73869
G01 X-4.82506 Y-2.86441
G01 X-4.82768 Y-2.86727
G01 X-4.83126 Y-2.87162
G01 X-4.83361 Y-2.87491
G01 X-4.83552 Y-2.87801
G01 X-4.83787 Y-2.88226
G01 X-4.83944 Y-2.88553
G01 X-4.84080 Y-2.88890
G01 X-4.84249 Y-2.89389
G01 X-4.84337 Y-2.89700
G01 X-4.84414 Y-2.90055
G01 X-4.84530 Y-2.90929
G01 X-4.84545 Y-2.91325
G01 X-4.84546 Y-2.98710
G01 X-4.84497 Y-2.99418
G01 X-4.84410 Y-2.99967
G01 X-4.84290 Y-3.00474
G01 X-4.84162 Y-3.00891
G01 X-4.83958 Y-3.01413
G01 X-4.83772 Y-3.01807
G01 X-4.83473 Y-3.02332
G01 X-4.83249 Y-3.02672
G01 X-4.83026 Y-3.02964
G01 X-4.82613 Y-3.03447
G01 X-4.63886 Y-3.22175
G01 X-4.63562 Y-3.22474
G01 X-4.63119 Y-3.22823
G01 X-4.62819 Y-3.23035
G01 X-4.62470 Y-3.23245
G01 X-4.61987 Y-3.23499
G01 X-4.60483 Y-3.22417
G01 X-4.59652 Y-3.21798
G01 X-4.59115 Y-3.21427
G01 X-4.59652 Y-3.21798
G01 X-4.61139 Y-3.22893
G01 X-4.62745 Y-3.24041
G01 X-4.66851 Y-3.26905
G01 X-4.67317 Y-3.26513
G01 X-4.67783 Y-3.26073
G01 X-4.86375 Y-3.07484
G01 X-4.86978 Y-3.06831
G01 X-4.87584 Y-3.06081
G01 X-4.88082 Y-3.05358
G01 X-4.88623 Y-3.04425
G01 X-4.89017 Y-3.03602
G01 X-4.89378 Y-3.02673
G01 X-4.89640 Y-3.01799
G01 X-4.89865 Y-3.00787
G01 X-4.89945 Y-3.00278
G01 X-4.90000 Y-2.99771
G01 X-4.90000 Y-3.07445
G01 X-4.89941 Y-3.07528
G01 X-4.89557 Y-3.08035
G01 X-4.89099 Y-3.08591
G01 X-4.88407 Y-3.09349
G01 X-4.69507 Y-3.28242
G01 X-4.72378 Y-3.29273
G01 X-4.90000 Y-3.11654
G01 X-4.90000 Y-3.15551
G01 X-4.75213 Y-3.30336
G01 X-4.78002 Y-3.31444
G01 X-4.90000 Y-3.19449
G01 X-4.90000 Y-2.90211
G01 X-4.89896 Y-2.89423
G01 X-4.89806 Y-2.88906
G01 X-4.89682 Y-2.88354
G01 X-4.89530 Y-2.87809
G01 X-4.89286 Y-2.87080
G01 X-4.89068 Y-2.86515
G01 X-4.88818 Y-2.85963
G01 X-4.88539 Y-2.85426
G01 X-4.88177 Y-2.84794
G01 X-4.87801 Y-2.84219
G01 X-4.87416 Y-2.83700
G01 X-4.86899 Y-2.83077
G01 X-4.86376 Y-2.82516
G01 X-4.75306 Y-2.71447
G01 X-4.86404 Y-2.82545
G01 X-4.86899 Y-2.83077
G01 X-4.87441 Y-2.83732
G01 X-4.87915 Y-2.84386
G01 X-4.88321 Y-2.85037
G01 X-4.88783 Y-2.85891
G01 X-4.89144 Y-2.86702
G01 X-4.89494 Y-2.87694
G01 X-4.89702 Y-2.88433
G01 X-4.89864 Y-2.89224
G01 X-4.90000 Y-2.90211
G01 X-4.90000 Y-2.82555
G01 X-4.89608 Y-2.82030
G01 X-4.89175 Y-2.81500
G01 X-4.88840 Y-2.81112
G01 X-4.88463 Y-2.80708
G01 X-4.79957 Y-2.72200
G01 X-4.77851 Y-2.71927
G01 X-4.75757 Y-2.71549
G01 X-4.74379 Y-2.71238
G01 X-4.71073 Y-2.70399
G01 X-4.69137 Y-2.69940
G01 X-4.67145 Y-2.69500
G01 X-4.65053 Y-2.69075
G01 X-4.34898 Y-2.69074
G01 X-4.65053 Y-2.69075
G01 X-4.67145 Y-2.69500
G01 X-4.68857 Y-2.69876
G01 X-4.69232 Y-2.70051
G01 X-4.69733 Y-2.70311
G01 X-4.70349 Y-2.70679
G01 X-4.70741 Y-2.70953
G01 X-4.71154 Y-2.71274
G01 X-4.71707 Y-2.71751
G01 X-4.84455 Y-2.84493
G01 X-4.84755 Y-2.84813
G01 X-4.85318 Y-2.85492
G01 X-4.85709 Y-2.86045
G01 X-4.86172 Y-2.86842
G01 X-4.86486 Y-2.87487
G01 X-4.86650 Y-2.87894
G01 X-4.86821 Y-2.88388
G01 X-4.87012 Y-2.89038
G01 X-4.87156 Y-2.89741
G01 X-4.87273 Y-2.90651
G01 X-4.87300 Y-2.91284
G01 X-4.87302 Y-2.98631
G01 X-4.87274 Y-2.99310
G01 X-4.87224 Y-2.99829
G01 X-4.87160 Y-3.00260
G01 X-4.87082 Y-3.00649
G01 X-4.86939 Y-3.01233
G01 X-4.86814 Y-3.01651
G01 X-4.86667 Y-3.02061
G01 X-4.86472 Y-3.02544
G01 X-4.86270 Y-3.02975
G01 X-4.85861 Y-3.03708
G01 X-4.85487 Y-3.04280
G01 X-4.85245 Y-3.04601
G01 X-4.84912 Y-3.05006
G01 X-4.84483 Y-3.05479
G01 X-4.65806 Y-3.24153
G01 X-4.65425 Y-3.24507
G01 X-4.65022 Y-3.24837
G01 X-4.64469 Y-3.25246
G01 X-4.64426 Y-3.25217
G01 X-4.68015 Y-3.27700
G01 X-4.74152 Y-3.29916
G01 X-4.79251 Y-3.31940
G01 X-4.83440 Y-3.33775
G01 X-4.86109 Y-3.35030
G01 X-4.90000 Y-3.31140
G01 X-4.90000 Y-3.23346
G01 X-4.80754 Y-3.32591
G01 X-4.83458 Y-3.33784
G01 X-4.90000 Y-3.27243
G01 X-4.90000 Y-2.74448
G01 X-4.88040 Y-2.72488
G01 X-4.85981 Y-2.72523
G01 X-4.84136 Y-2.72482
G01 X-4.90000 Y-2.78345
G01 X-4.90000 Y-2.72405
G01 X-4.88640 Y-2.72478
G01 X-4.86013 Y-2.72523
G01 X-4.85475 Y-2.72520
G01 X-4.83228 Y-2.72456
G01 X-4.82679 Y-2.72428
G01 X-4.80624 Y-2.72271
G01 X-4.80110 Y-2.72220
G01 X-4.78294 Y-2.71992
G01 X-4.76294 Y-2.71655
G01 X-4.75757 Y-2.71548
G01 X-4.74379 Y-2.71238
G01 X-4.71073 Y-2.70399
G01 X-4.69137 Y-2.69940
G01 X-4.67145 Y-2.69500
G01 X-4.63777 Y-2.68816
G01 X-4.62970 Y-2.68622
G01 X-4.61929 Y-2.68337
G01 X-4.38066 Y-2.68336
G01 X-4.37115 Y-2.68597
G01 X-4.35381 Y-2.68993
G01 X-4.34180 Y-2.69198
G01 X-4.32655 Y-2.69388
G01 X-4.31102 Y-2.69494
G01 X-4.30585 Y-2.69508
G01 X-4.29516 Y-2.69510
G01 X-4.28242 Y-2.69455
G01 X-4.16017 Y-2.72341
G01 X-4.15462 Y-2.72485
G01 X-4.14795 Y-2.72686
G01 X-4.14049 Y-2.72957
G01 X-4.13753 Y-2.73080
G01 X-4.13250 Y-2.73934
G01 X-4.12793 Y-2.74861
G01 X-4.12192 Y-2.76298
G01 X-4.09646 Y-2.78844
G01 X-4.09646 Y-2.75244
G01 X-4.10278 Y-2.73733
G01 X-4.10831 Y-2.72613
G01 X-4.11309 Y-2.71791
G01 X-4.11664 Y-2.71233
G01 X-4.11833 Y-2.71022
G01 X-4.12039 Y-2.70847
G01 X-4.12276 Y-2.70716
G01 X-4.13077 Y-2.70378
G01 X-4.13938 Y-2.70067
G01 X-4.14944 Y-2.69770
G01 X-4.27801 Y-2.66728
G01 X-4.28190 Y-2.66693
G01 X-4.29567 Y-2.66754
G01 X-4.30559 Y-2.66752
G01 X-4.31957 Y-2.66681
G01 X-4.32359 Y-2.66646
G01 X-4.33769 Y-2.66473
G01 X-4.34851 Y-2.66285
G01 X-4.35290 Y-2.66196
G01 X-4.36463 Y-2.65919
G01 X-4.37499 Y-2.65633
G01 X-4.37875 Y-2.65580
G01 X-4.62129 Y-2.65581
G01 X-4.62523 Y-2.65638
G01 X-4.63395 Y-2.65885
G01 X-4.64381 Y-2.66126
G01 X-4.67714 Y-2.66804
G01 X-4.69756 Y-2.67255
G01 X-4.71730 Y-2.67722
G01 X-4.75032 Y-2.68561
G01 X-4.76784 Y-2.68943
G01 X-4.78686 Y-2.69264
G01 X-4.80402 Y-2.69478
G01 X-4.82871 Y-2.69678
G01 X-4.84213 Y-2.69727
G01 X-4.84670 Y-2.69276
G01 X-4.85080 Y-2.68843
G01 X-4.85988 Y-2.67783
G01 X-4.86401 Y-2.67247
G01 X-4.86842 Y-2.66630
G01 X-4.87431 Y-2.65731
G01 X-4.88141 Y-2.64483
G01 X-4.88410 Y-2.63947
G01 X-4.88743 Y-2.63221
G01 X-4.88979 Y-2.62670
G01 X-4.89180 Y-2.62149
G01 X-4.89601 Y-2.60902
G01 X-4.89784 Y-2.60250
G01 X-4.90000 Y-2.59358
G01 X-4.90000 Y-2.50642
G01 X-4.89774 Y-2.49711
G01 X-4.89578 Y-2.49022
G01 X-4.89262 Y-2.48076
G01 X-4.89009 Y-2.47404
G01 X-4.88743 Y-2.46779
G01 X-4.88287 Y-2.45802
G01 X-4.87933 Y-2.45131
G01 X-4.87472 Y-2.44337
G01 X-4.87045 Y-2.43665
G01 X-4.86519 Y-2.42913
G01 X-4.86086 Y-2.42339
G01 X-4.85654 Y-2.41816
G01 X-4.85075 Y-2.41153
G01 X-4.84522 Y-2.40574
G01 X-4.83770 Y-2.39856
G01 X-4.83139 Y-2.39303
G01 X-4.82102 Y-2.38491
G01 X-4.81248 Y-2.37900
G01 X-4.80091 Y-2.37190
G01 X-4.79565 Y-2.36904
G01 X-4.78887 Y-2.36561
G01 X-4.77904 Y-2.36119
G01 X-4.76635 Y-2.35635
G01 X-4.76066 Y-2.35450
G01 X-4.75375 Y-2.35251
G01 X-4.74361 Y-2.35000
G01 X-4.65640 Y-2.35000
G01 X-4.64924 Y-2.35170
G01 X-4.64297 Y-2.35340
G01 X-4.63457 Y-2.35604
G01 X-4.62790 Y-2.35842
G01 X-4.61864 Y-2.36216
G01 X-4.61134 Y-2.36551
G01 X-4.60478 Y-2.36890
G01 X-4.60494 Y-2.36962
G01 X-4.60478 Y-2.36890
G01 X-4.39542 Y-2.36890
G01 X-4.39527 Y-2.36955
G01 X-4.39542 Y-2.36890
G01 X-4.39366 Y-2.36798
G01 X-4.38466 Y-2.36365
G01 X-4.37808 Y-2.36077
G01 X-4.37137 Y-2.35817
G01 X-4.36156 Y-2.35478
G01 X-4.36008 Y-2.35431
G01 X-4.35971 Y-2.35489
G01 X-4.36008 Y-2.35431
G01 X-4.35576 Y-2.35000
G01 X-4.31679 Y-2.35000
G01 X-4.34565 Y-2.37886
G01 X-4.34525 Y-2.37949
G01 X-4.34565 Y-2.37886
G01 X-4.35076 Y-2.38028
G01 X-4.35727 Y-2.38241
G01 X-4.36745 Y-2.38620
G01 X-4.37698 Y-2.39048
G01 X-4.38311 Y-2.39356
G01 X-4.38826 Y-2.39645
G01 X-4.38810 Y-2.39717
G01 X-4.38826 Y-2.39645
G01 X-4.61175 Y-2.39645
G01 X-4.61194 Y-2.39724
G01 X-4.61175 Y-2.39645
G01 X-4.62146 Y-2.39126
G01 X-4.62897 Y-2.38772
G01 X-4.63633 Y-2.38471
G01 X-4.64126 Y-2.38288
G01 X-4.64889 Y-2.38040
G01 X-4.65455 Y-2.37879
G01 X-4.66664 Y-2.37602
G01 X-4.67934 Y-2.37406
G01 X-4.69254 Y-2.37301
G01 X-4.70460 Y-2.37292
G01 X-4.71020 Y-2.37316
G01 X-4.71819 Y-2.37381
G01 X-4.72858 Y-2.37521
G01 X-4.73608 Y-2.37658
G01 X-4.74199 Y-2.37791
G01 X-4.75052 Y-2.38023
G01 X-4.75591 Y-2.38191
G01 X-4.76160 Y-2.38394
G01 X-4.76982 Y-2.38720
G01 X-4.77534 Y-2.38968
G01 X-4.78181 Y-2.39291
G01 X-4.79062 Y-2.39780
G01 X-4.79776 Y-2.40230
G01 X-4.80243 Y-2.40547
G01 X-4.81139 Y-2.41228
G01 X-4.81755 Y-2.41749
G01 X-4.82599 Y-2.42549
G01 X-4.83228 Y-2.43222
G01 X-4.83976 Y-2.44115
G01 X-4.84658 Y-2.45057
G01 X-4.85148 Y-2.45819
G01 X-4.85719 Y-2.46831
G01 X-4.86219 Y-2.47884
G01 X-4.86529 Y-2.48629
G01 X-4.86909 Y-2.49723
G01 X-4.87165 Y-2.50634
G01 X-4.87410 Y-2.51733
G01 X-4.87591 Y-2.52926
G01 X-4.87673 Y-2.53809
G01 X-4.87714 Y-2.55000
G01 X-4.87673 Y-2.56191
G01 X-4.87591 Y-2.57074
G01 X-4.87410 Y-2.58267
G01 X-4.87165 Y-2.59366
G01 X-4.86909 Y-2.60277
G01 X-4.86529 Y-2.61371
G01 X-4.86219 Y-2.62116
G01 X-4.85719 Y-2.63169
G01 X-4.85148 Y-2.64181
G01 X-4.84658 Y-2.64943
G01 X-4.83985 Y-2.65873
G01 X-4.83276 Y-2.66725
G01 X-4.82660 Y-2.67389
G01 X-4.81832 Y-2.68184
G01 X-4.80950 Y-2.68922
G01 X-4.80235 Y-2.69457
G01 X-4.78276 Y-2.69203
G01 X-4.76784 Y-2.68943
G01 X-4.75878 Y-2.68751
G01 X-4.76287 Y-2.68573
G01 X-4.76748 Y-2.68348
G01 X-4.77379 Y-2.68011
G01 X-4.77853 Y-2.67730
G01 X-4.78872 Y-2.67044
G01 X-4.79835 Y-2.66270
G01 X-4.80194 Y-2.65945
G01 X-4.80768 Y-2.65383
G01 X-4.81098 Y-2.65028
G01 X-4.81543 Y-2.64511
G01 X-4.82110 Y-2.63776
G01 X-4.82477 Y-2.63250
G01 X-4.82800 Y-2.62738
G01 X-4.83138 Y-2.62150
G01 X-4.83358 Y-2.61731
G01 X-4.83710 Y-2.60975
G01 X-4.83895 Y-2.60540
G01 X-4.84061 Y-2.60097
G01 X-4.84316 Y-2.59336
G01 X-4.84448 Y-2.58870
G01 X-4.84609 Y-2.58211
G01 X-4.84774 Y-2.57319
G01 X-4.84866 Y-2.56650
G01 X-4.84920 Y-2.56061
G01 X-4.84953 Y-2.55343
G01 X-4.84958 Y-2.54859
G01 X-4.84895 Y-2.53625
G01 X-4.84762 Y-2.52603
G01 X-4.84651 Y-2.51982
G01 X-4.84427 Y-2.51051
G01 X-4.84204 Y-2.50318
G01 X-4.83880 Y-2.49424
G01 X-4.83462 Y-2.48482
G01 X-4.83138 Y-2.47850
G01 X-4.82631 Y-2.46987
G01 X-4.82087 Y-2.46191
G01 X-4.81682 Y-2.45657
G01 X-4.81034 Y-2.44902
G01 X-4.80535 Y-2.44383
G01 X-4.79778 Y-2.43680
G01 X-4.79037 Y-2.43083
G01 X-4.78430 Y-2.42644
G01 X-4.77661 Y-2.42154
G01 X-4.76938 Y-2.41750
G01 X-4.76333 Y-2.41449
G01 X-4.75865 Y-2.41240
G01 X-4.74754 Y-2.40817
G01 X-4.73728 Y-2.40515
G01 X-4.72960 Y-2.40339
G01 X-4.71826 Y-2.40153
G01 X-4.70710 Y-2.40059
G01 X-4.69780 Y-2.40044
G01 X-4.69260 Y-2.40060
G01 X-4.68620 Y-2.40107
G01 X-4.67811 Y-2.40205
G01 X-4.67258 Y-2.40295
G01 X-4.66788 Y-2.40391
G01 X-4.66170 Y-2.40540
G01 X-4.65642 Y-2.40692
G01 X-4.64695 Y-2.41015
G01 X-4.64066 Y-2.41269
G01 X-4.63560 Y-2.41500
G01 X-4.62607 Y-2.42003
G01 X-4.62085 Y-2.42307
G01 X-4.61936 Y-2.42401
G01 X-4.61959 Y-2.42491
G01 X-4.61936 Y-2.42401
G01 X-4.38063 Y-2.42401
G01 X-4.38038 Y-2.42496
G01 X-4.38063 Y-2.42401
G01 X-4.37300 Y-2.41946
G01 X-4.36637 Y-2.41596
G01 X-4.35736 Y-2.41185
G01 X-4.34732 Y-2.40813
G01 X-4.34054 Y-2.40602
G01 X-4.33161 Y-2.40380
G01 X-4.33112 Y-2.40466
G01 X-4.33161 Y-2.40380
G01 X-4.27781 Y-2.35000
G01 X-4.23884 Y-2.35000
G01 X-4.31824 Y-2.42939
G01 X-4.31767 Y-2.43043
G01 X-4.31824 Y-2.42939
G01 X-4.32656 Y-2.43091
G01 X-4.33583 Y-2.43335
G01 X-4.34636 Y-2.43712
G01 X-4.35614 Y-2.44166
G01 X-4.36481 Y-2.44663
G01 X-4.36816 Y-2.44879
G01 X-4.37206 Y-2.45157
G01 X-4.37173 Y-2.45268
G01 X-4.37206 Y-2.45157
G01 X-4.62804 Y-2.45157
G01 X-4.62840 Y-2.45277
G01 X-4.62804 Y-2.45157
G01 X-4.63423 Y-2.44722
G01 X-4.63840 Y-2.44470
G01 X-4.64510 Y-2.44108
G01 X-4.65127 Y-2.43813
G01 X-4.65904 Y-2.43505
G01 X-4.66695 Y-2.43253
G01 X-4.67540 Y-2.43048
G01 X-4.68283 Y-2.42920
G01 X-4.68872 Y-2.42851
G01 X-4.69742 Y-2.42801
G01 X-4.70535 Y-2.42809
G01 X-4.71369 Y-2.42875
G01 X-4.71883 Y-2.42946
G01 X-4.72785 Y-2.43119
G01 X-4.73633 Y-2.43352
G01 X-4.74200 Y-2.43546
G01 X-4.75123 Y-2.43925
G01 X-4.75767 Y-2.44247
G01 X-4.76116 Y-2.44441
G01 X-4.77057 Y-2.45045
G01 X-4.77939 Y-2.45733
G01 X-4.78782 Y-2.46528
G01 X-4.79521 Y-2.47369
G01 X-4.79789 Y-2.47716
G01 X-4.80180 Y-2.48272
G01 X-4.80674 Y-2.49091
G01 X-4.81003 Y-2.49730
G01 X-4.81281 Y-2.50350
G01 X-4.81454 Y-2.50796
G01 X-4.81647 Y-2.51363
G01 X-4.81770 Y-2.51784
G01 X-4.81931 Y-2.52443
G01 X-4.82022 Y-2.52914
G01 X-4.82157 Y-2.53944
G01 X-4.82203 Y-2.55060
G01 X-4.82150 Y-2.56136
G01 X-4.81994 Y-2.57243
G01 X-4.81750 Y-2.58293
G01 X-4.81480 Y-2.59128
G01 X-4.81250 Y-2.59724
G01 X-4.80827 Y-2.60628
G01 X-4.80331 Y-2.61494
G01 X-4.79789 Y-2.62283
G01 X-4.79547 Y-2.62599
G01 X-4.79161 Y-2.63057
G01 X-4.78701 Y-2.63553
G01 X-4.78035 Y-2.64184
G01 X-4.77226 Y-2.64833
G01 X-4.76329 Y-2.65433
G01 X-4.75525 Y-2.65878
G01 X-4.74912 Y-2.66168
G01 X-4.74320 Y-2.66411
G01 X-4.73945 Y-2.66547
G01 X-4.73027 Y-2.66821
G01 X-4.72131 Y-2.67014
G01 X-4.71619 Y-2.67093
G01 X-4.70827 Y-2.67175
G01 X-4.70032 Y-2.67202
G01 X-4.69468 Y-2.67189
G01 X-4.67724 Y-2.66806
G01 X-4.65566 Y-2.66368
G01 X-4.65144 Y-2.66194
G01 X-4.64568 Y-2.65926
G01 X-4.63735 Y-2.65472
G01 X-4.63169 Y-2.65110
G01 X-4.62788 Y-2.64843
G01 X-4.62820 Y-2.64734
G01 X-4.62788 Y-2.64843
G01 X-4.37203 Y-2.64843
G01 X-4.37172 Y-2.64734
G01 X-4.37203 Y-2.64843
G01 X-4.36784 Y-2.65143
G01 X-4.36410 Y-2.65380
G01 X-4.35464 Y-2.65911
G01 X-4.34468 Y-2.66352
G01 X-4.33368 Y-2.66530
G01 X-4.32359 Y-2.66646
G01 X-4.30960 Y-2.66739
G01 X-4.29567 Y-2.66754
G01 X-4.28190 Y-2.66693
G01 X-4.27801 Y-2.66728
G01 X-4.17553 Y-2.69147
G01 X-4.27586 Y-2.64130
G01 X-4.27565 Y-2.63977
G01 X-4.27586 Y-2.64130
G01 X-4.27950 Y-2.64221
G01 X-4.28899 Y-2.64382
G01 X-4.29740 Y-2.64440
G01 X-4.30233 Y-2.64443
G01 X-4.31000 Y-2.64393
G01 X-4.31366 Y-2.64345
G01 X-4.32162 Y-2.64196
G01 X-4.32901 Y-2.63987
G01 X-4.33244 Y-2.63872
G01 X-4.34019 Y-2.63547
G01 X-4.34443 Y-2.63334
G01 X-4.35235 Y-2.62863
G01 X-4.35980 Y-2.62312
G01 X-4.36243 Y-2.62087
G01 X-4.36192 Y-2.61939
G01 X-4.36243 Y-2.62087
G01 X-4.63757 Y-2.62087
G01 X-4.63811 Y-2.61932
G01 X-4.63757 Y-2.62087
G01 X-4.63862 Y-2.62181
G01 X-4.64537 Y-2.62707
G01 X-4.65212 Y-2.63143
G01 X-4.65748 Y-2.63436
G01 X-4.66422 Y-2.63743
G01 X-4.67039 Y-2.63971
G01 X-4.67710 Y-2.64165
G01 X-4.68395 Y-2.64309
G01 X-4.69003 Y-2.64393
G01 X-4.69380 Y-2.64425
G01 X-4.69996 Y-2.64446
G01 X-4.70638 Y-2.64425
G01 X-4.71310 Y-2.64354
G01 X-4.71692 Y-2.64292
G01 X-4.72423 Y-2.64131
G01 X-4.73227 Y-2.63878
G01 X-4.74123 Y-2.63499
G01 X-4.74906 Y-2.63072
G01 X-4.75445 Y-2.62718
G01 X-4.75742 Y-2.62500
G01 X-4.76350 Y-2.61994
G01 X-4.76776 Y-2.61581
G01 X-4.77040 Y-2.61297
G01 X-4.77446 Y-2.60814
G01 X-4.77816 Y-2.60302
G01 X-4.78008 Y-2.60010
G01 X-4.78288 Y-2.59530
G01 X-4.78477 Y-2.59167
G01 X-4.78742 Y-2.58578
G01 X-4.79038 Y-2.57746
G01 X-4.79262 Y-2.56860
G01 X-4.79395 Y-2.55979
G01 X-4.79446 Y-2.55058
G01 X-4.79411 Y-2.54184
G01 X-4.79285 Y-2.53261
G01 X-4.79093 Y-2.52440
G01 X-4.78846 Y-2.51689
G01 X-4.78677 Y-2.51272
G01 X-4.78367 Y-2.50614
G01 X-4.77946 Y-2.49891
G01 X-4.77487 Y-2.49239
G01 X-4.76993 Y-2.48652
G01 X-4.76690 Y-2.48332
G01 X-4.76128 Y-2.47811
G01 X-4.75490 Y-2.47312
G01 X-4.74880 Y-2.46915
G01 X-4.74490 Y-2.46690
G01 X-4.73800 Y-2.46351
G01 X-4.73007 Y-2.46044
G01 X-4.72307 Y-2.45840
G01 X-4.71868 Y-2.45743
G01 X-4.71069 Y-2.45614
G01 X-4.70507 Y-2.45568
G01 X-4.70140 Y-2.45556
G01 X-4.69608 Y-2.45561
G01 X-4.68959 Y-2.45611
G01 X-4.68318 Y-2.45705
G01 X-4.67989 Y-2.45771
G01 X-4.67485 Y-2.45894
G01 X-4.66910 Y-2.46073
G01 X-4.66299 Y-2.46309
G01 X-4.65999 Y-2.46443
G01 X-4.65252 Y-2.46838
G01 X-4.64948 Y-2.47018
G01 X-4.64141 Y-2.47596
G01 X-4.63755 Y-2.47913
G01 X-4.63803 Y-2.48057
G01 X-4.63755 Y-2.47913
G01 X-4.36239 Y-2.47913
G01 X-4.36191 Y-2.48056
G01 X-4.36239 Y-2.47913
G01 X-4.35842 Y-2.47576
G01 X-4.35320 Y-2.47195
G01 X-4.35046 Y-2.47016
G01 X-4.34453 Y-2.46669
G01 X-4.33610 Y-2.46270
G01 X-4.32693 Y-2.45945
G01 X-4.31746 Y-2.45716
G01 X-4.31027 Y-2.45610
G01 X-4.30560 Y-2.45574
G01 X-4.30493 Y-2.45710
G01 X-4.30560 Y-2.45574
G01 X-4.20314 Y-2.35328
G01 X-4.19956 Y-2.35000
G01 X-3.75044 Y-2.35000
G01 X-3.74686 Y-2.35328
G01 X-3.64439 Y-2.45574
G01 X-3.64507 Y-2.45710
G01 X-3.64439 Y-2.45574
G01 X-3.63973 Y-2.45610
G01 X-3.63254 Y-2.45716
G01 X-3.62307 Y-2.45945
G01 X-3.61390 Y-2.46270
G01 X-3.60547 Y-2.46669
G01 X-3.59954 Y-2.47016
G01 X-3.59680 Y-2.47195
G01 X-3.59158 Y-2.47576
G01 X-3.58761 Y-2.47913
G01 X-3.58809 Y-2.48056
G01 X-3.58761 Y-2.47913
G01 X-3.31245 Y-2.47913
G01 X-3.31197 Y-2.48057
G01 X-3.31245 Y-2.47913
G01 X-3.30892 Y-2.47620
G01 X-3.30118 Y-2.47060
G01 X-3.29782 Y-2.46857
G01 X-3.29074 Y-2.46479
G01 X-3.28776 Y-2.46341
G01 X-3.28287 Y-2.46144
G01 X-3.27477 Y-2.45884
G01 X-3.26640 Y-2.45698
G01 X-3.26082 Y-2.45615
G01 X-3.25560 Y-2.45572
G01 X-3.25224 Y-2.45556
G01 X-3.24697 Y-2.45558
G01 X-3.23728 Y-2.45639
G01 X-3.23052 Y-2.45758
G01 X-3.22693 Y-2.45840
G01 X-3.22032 Y-2.46031
G01 X-3.21390 Y-2.46273
G01 X-3.21014 Y-2.46436
G01 X-3.20510 Y-2.46690
G01 X-3.20189 Y-2.46872
G01 X-3.19611 Y-2.47241
G01 X-3.18840 Y-2.47838
G01 X-3.18114 Y-2.48533
G01 X-3.17666 Y-2.49047
G01 X-3.17440 Y-2.49338
G01 X-3.17054 Y-2.49891
G01 X-3.16712 Y-2.50470
G01 X-3.16523 Y-2.50833
G01 X-3.16274 Y-2.51384
G01 X-3.16140 Y-2.51727
G01 X-3.15928 Y-2.52366
G01 X-3.15764 Y-2.53020
G01 X-3.15688 Y-2.53422
G01 X-3.15596 Y-2.54102
G01 X-3.15557 Y-2.54787
G01 X-3.15556 Y-2.55174
G01 X-3.15591 Y-2.55844
G01 X-3.15682 Y-2.56547
G01 X-3.15754 Y-2.56928
G01 X-3.15912 Y-2.57579
G01 X-3.16132 Y-2.58254
G01 X-3.16259 Y-2.58579
G01 X-3.16540 Y-2.59204
G01 X-3.16890 Y-2.59842
G01 X-3.17084 Y-2.60154
G01 X-3.17472 Y-2.60707
G01 X-3.17897 Y-2.61225
G01 X-3.18158 Y-2.61512
G01 X-3.18636 Y-2.61982
G01 X-3.19178 Y-2.62438
G01 X-3.19489 Y-2.62670
G01 X-3.20059 Y-2.63051
G01 X-3.20657 Y-2.63387
G01 X-3.21025 Y-2.63568
G01 X-3.21610 Y-2.63817
G01 X-3.22281 Y-2.64045
G01 X-3.22617 Y-2.64140
G01 X-3.23309 Y-2.64294
G01 X-3.23934 Y-2.64384
G01 X-3.24329 Y-2.64422
G01 X-3.24932 Y-2.64446
G01 X-3.25659 Y-2.64424
G01 X-3.26261 Y-2.64360
G01 X-3.26634 Y-2.64303
G01 X-3.27278 Y-2.64167
G01 X-3.27909 Y-2.63988
G01 X-3.28551 Y-2.63754
G01 X-3.29142 Y-2.63490
G01 X-3.29753 Y-2.63164
G01 X-3.30468 Y-2.62703
G01 X-3.31107 Y-2.62207
G01 X-3.31243 Y-2.62087
G01 X-3.31189 Y-2.61932
G01 X-3.31243 Y-2.62087
G01 X-3.58758 Y-2.62087
G01 X-3.58824 Y-2.61912
G01 X-3.58758 Y-2.62087
G01 X-3.58941 Y-2.62246
G01 X-3.59737 Y-2.62162
G01 X-3.60299 Y-2.62086
G01 X-3.61146 Y-2.61942
G01 X-3.62256 Y-2.61698
G01 X-3.63178 Y-2.61438
G01 X-3.63859 Y-2.61592
G01 X-3.64287 Y-2.61653
G01 X-3.64830 Y-2.61689
G01 X-3.65374 Y-2.61680
G01 X-3.65842 Y-2.61637
G01 X-3.66517 Y-2.61514
G01 X-3.63942 Y-2.64086
G01 X-3.62918 Y-2.64373
G01 X-3.61671 Y-2.64648
G01 X-3.60685 Y-2.64814
G01 X-3.60068 Y-2.64898
G01 X-3.59133 Y-2.64996
G01 X-3.54371 Y-2.69753
G01 X-3.54458 Y-2.69963
G01 X-3.54371 Y-2.69753
G01 X-3.21071 Y-2.69753
G01 X-3.20469 Y-2.69781
G01 X-3.20074 Y-2.69824
G01 X-3.19723 Y-2.69887
G01 X-3.19176 Y-2.70012
G01 X-3.18798 Y-2.70131
G01 X-3.18348 Y-2.70300
G01 X-3.17987 Y-2.70464
G01 X-3.17494 Y-2.70729
G01 X-3.17159 Y-2.70936
G01 X-3.16872 Y-2.71142
G01 X-3.16492 Y-2.71440
G01 X-3.16166 Y-2.71736
G01 X-3.11628 Y-2.76281
G01 X-3.11167 Y-2.76832
G01 X-3.10765 Y-2.77433
G01 X-3.10490 Y-2.77933
G01 X-3.10229 Y-2.78529
G01 X-3.10044 Y-2.79069
G01 X-3.09874 Y-2.79773
G01 X-3.09800 Y-2.80279
G01 X-3.09755 Y-2.80914
G01 X-3.09753 Y-3.21802
G01 X-3.09781 Y-3.22364
G01 X-3.09830 Y-3.22798
G01 X-3.09964 Y-3.23466
G01 X-3.10082 Y-3.23890
G01 X-3.10229 Y-3.24309
G01 X-3.10353 Y-3.24609
G01 X-3.10565 Y-3.25047
G01 X-3.10740 Y-3.25362
G01 X-3.11212 Y-3.26061
G01 X-3.11710 Y-3.26641
G01 X-3.29968 Y-3.44902
G01 X-3.30385 Y-3.45280
G01 X-3.30694 Y-3.45528
G01 X-3.31225 Y-3.45887
G01 X-3.31577 Y-3.46093
G01 X-3.31942 Y-3.46273
G01 X-3.32543 Y-3.46524
G01 X-3.32930 Y-3.46651
G01 X-3.33403 Y-3.46770
G01 X-3.33750 Y-3.46842
G01 X-3.34062 Y-3.46887
G01 X-3.34579 Y-3.46930
G01 X-3.34933 Y-3.46942
G01 X-3.82320 Y-3.46933
G01 X-3.82763 Y-3.46915
G01 X-3.83164 Y-3.46868
G01 X-3.83640 Y-3.46782
G01 X-3.83985 Y-3.46701
G01 X-3.84324 Y-3.46598
G01 X-3.84811 Y-3.46423
G01 X-3.85136 Y-3.46282
G01 X-3.85417 Y-3.46140
G01 X-3.85836 Y-3.45907
G01 X-3.86198 Y-3.45670
G01 X-3.86675 Y-3.45306
G01 X-3.87004 Y-3.45015
G01 X-3.90021 Y-3.42003
G01 X-3.90327 Y-3.41666
G01 X-3.90781 Y-3.41091
G01 X-3.91048 Y-3.40680
G01 X-3.91339 Y-3.40149
G01 X-3.91623 Y-3.39484
G01 X-3.91806 Y-3.38911
G01 X-3.91921 Y-3.38438
G01 X-3.91808 Y-3.38367
G01 X-3.91921 Y-3.38438
G01 X-3.92064 Y-3.38334
G01 X-3.92493 Y-3.37974
G01 X-3.92910 Y-3.37541
G01 X-3.93281 Y-3.37062
G01 X-3.93157 Y-3.36799
G01 X-3.93281 Y-3.37062
G01 X-3.96719 Y-3.37062
G01 X-3.96835 Y-3.36810
G01 X-3.96719 Y-3.37062
G01 X-3.96936 Y-3.37356
G01 X-3.97223 Y-3.37690
G01 X-3.97507 Y-3.37974
G01 X-3.97810 Y-3.38236
G01 X-3.98164 Y-3.38497
G01 X-3.98469 Y-3.38690
G01 X-3.98750 Y-3.38844
G01 X-3.99040 Y-3.38982
G01 X-3.99375 Y-3.39116
G01 X-3.99717 Y-3.39229
G01 X-4.00028 Y-3.39309
G01 X-4.00660 Y-3.39416
G01 X-4.01260 Y-3.39449
G01 X-4.08740 Y-3.39449
G01 X-4.09380 Y-3.39412
G01 X-4.09855 Y-3.39335
G01 X-4.10314 Y-3.39219
G01 X-4.10235 Y-3.38320
G01 X-4.10379 Y-3.39968
G01 X-4.10464 Y-3.41167
G01 X-4.10683 Y-3.45062
G01 X-4.10796 Y-3.47562
G01 X-4.09859 Y-3.47671
G01 X-4.08900 Y-3.47716
G01 X-4.01180 Y-3.47716
G01 X-4.00181 Y-3.47674
G01 X-3.99346 Y-3.47583
G01 X-3.98518 Y-3.47441
G01 X-3.97738 Y-3.47259
G01 X-3.96933 Y-3.47020
G01 X-3.96695 Y-3.46938
G01 X-3.96561 Y-3.46481
G01 X-3.96695 Y-3.46938
G01 X-3.96032 Y-3.47681
G01 X-3.92558 Y-3.51140
G01 X-3.92141 Y-3.51512
G01 X-3.91709 Y-3.51866
G01 X-3.91165 Y-3.52280
G01 X-3.90673 Y-3.52626
G01 X-3.89925 Y-3.53093
G01 X-3.89007 Y-3.53592
G01 X-3.88245 Y-3.53948
G01 X-3.87425 Y-3.54272
G01 X-3.86510 Y-3.54578
G01 X-3.85619 Y-3.54812
G01 X-3.84514 Y-3.55025
G01 X-3.83641 Y-3.55137
G01 X-3.83002 Y-3.55184
G01 X-3.82321 Y-3.55201
G01 X-3.34935 Y-3.55209
G01 X-3.33892 Y-3.55170
G01 X-3.33210 Y-3.55111
G01 X-3.32614 Y-3.55033
G01 X-3.31629 Y-3.54846
G01 X-3.30967 Y-3.54685
G01 X-3.30432 Y-3.54534
G01 X-3.29493 Y-3.54210
G01 X-3.28463 Y-3.53774
G01 X-3.27645 Y-3.53366
G01 X-3.26788 Y-3.52863
G01 X-3.25895 Y-3.52262
G01 X-3.25453 Y-3.51926
G01 X-3.25054 Y-3.51599
G01 X-3.24546 Y-3.51153
G01 X-3.24121 Y-3.50747
G01 X-3.05975 Y-3.32602
G01 X-3.05516 Y-3.32119
G01 X-3.05000 Y-3.31528
G01 X-3.05000 Y-3.26059
G01 X-3.06997 Y-3.21762
G01 X-3.12509 Y-3.21762
G01 X-3.06997 Y-3.21762
G01 X-3.05000 Y-3.26059
G01 X-3.05307 Y-3.26827
G01 X-3.05676 Y-3.27592
G01 X-3.06048 Y-3.28256
G01 X-3.06464 Y-3.28897
G01 X-3.06767 Y-3.29321
G01 X-3.07089 Y-3.29730
G01 X-3.07511 Y-3.30217
G01 X-3.07868 Y-3.30596
G01 X-3.26042 Y-3.48771
G01 X-3.26750 Y-3.49424
G01 X-3.27463 Y-3.49994
G01 X-3.28290 Y-3.50552
G01 X-3.28979 Y-3.50955
G01 X-3.29732 Y-3.51323
G01 X-3.30621 Y-3.51690
G01 X-3.31417 Y-3.51951
G01 X-3.32431 Y-3.52200
G01 X-3.33304 Y-3.52347
G01 X-3.34225 Y-3.52431
G01 X-3.34935 Y-3.52454
G01 X-3.82321 Y-3.52445
G01 X-3.82845 Y-3.52432
G01 X-3.83409 Y-3.52391
G01 X-3.84248 Y-3.52275
G01 X-3.84843 Y-3.52161
G01 X-3.85275 Y-3.52061
G01 X-3.86047 Y-3.51834
G01 X-3.86993 Y-3.51485
G01 X-3.87762 Y-3.51133
G01 X-3.88646 Y-3.50649
G01 X-3.89322 Y-3.50211
G01 X-3.90093 Y-3.49630
G01 X-3.90490 Y-3.49295
G01 X-3.90900 Y-3.48915
G01 X-3.93943 Y-3.45875
G01 X-3.94432 Y-3.45347
G01 X-3.94991 Y-3.44663
G01 X-3.95392 Y-3.44115
G01 X-3.95782 Y-3.43503
G01 X-3.95551 Y-3.42616
G01 X-3.95782 Y-3.43503
G01 X-3.95993 Y-3.43621
G01 X-3.96420 Y-3.43841
G01 X-3.96857 Y-3.44043
G01 X-3.97302 Y-3.44225
G01 X-3.97754 Y-3.44388
G01 X-3.98214 Y-3.44531
G01 X-3.98679 Y-3.44654
G01 X-3.99148 Y-3.44756
G01 X-3.99662 Y-3.44844
G01 X-4.00339 Y-3.44922
G01 X-4.01100 Y-3.44959
G01 X-4.08780 Y-3.44961
G01 X-4.09261 Y-3.44948
G01 X-4.09741 Y-3.44915
G01 X-4.10668 Y-3.44791
G01 X-4.10775 Y-3.47009
G01 X-4.10889 Y-3.49971
G01 X-4.10435 Y-3.58682
G01 X-4.09620 Y-3.58724
G01 X-4.08900 Y-3.58740
G01 X-4.00900 Y-3.58738
G01 X-4.00571 Y-3.58731
G01 X-4.00499 Y-3.58544
G01 X-4.00571 Y-3.58731
G01 X-3.99885 Y-3.59378
G01 X-3.99175 Y-3.60000
G01 X-3.94485 Y-3.60000
G01 X-3.95311 Y-3.59470
G01 X-3.96101 Y-3.58914
G01 X-3.96961 Y-3.58252
G01 X-3.97756 Y-3.57585
G01 X-3.98490 Y-3.56909
G01 X-3.99493 Y-3.55913
G01 X-3.99403 Y-3.55680
G01 X-3.99493 Y-3.55913
G01 X-4.00779 Y-3.55979
G01 X-4.08860 Y-3.55984
G01 X-4.09701 Y-3.55963
G01 X-4.10586 Y-3.55907
G01 X-4.10656 Y-3.54631
G01 X-4.10363 Y-3.60000
G01 X-3.09989 Y-3.60000
G01 X-3.05000 Y-3.55011
G01 X-3.05000 Y-3.51114
G01 X-3.13886 Y-3.60000
G01 X-3.17916 Y-3.60000
G01 X-3.17099 Y-3.59280
G01 X-3.16410 Y-3.58626
G01 X-3.05000 Y-3.47216
G01 X-3.05000 Y-3.43319
G01 X-3.18533 Y-3.56847
G01 X-3.19180 Y-3.57446
G01 X-3.20035 Y-3.58179
G01 X-3.20795 Y-3.58773
G01 X-3.21613 Y-3.59355
G01 X-3.22608 Y-3.60000
G01 X-3.29506 Y-3.60000
G01 X-3.28907 Y-3.59831
G01 X-3.28258 Y-3.59624
G01 X-3.27655 Y-3.59408
G01 X-3.27060 Y-3.59172
G01 X-3.26321 Y-3.58854
G01 X-3.25741 Y-3.58583
G01 X-3.25134 Y-3.58274
G01 X-3.24539 Y-3.57944
G01 X-3.23956 Y-3.57593
G01 X-3.23280 Y-3.57156
G01 X-3.22751 Y-3.56789
G01 X-3.22266 Y-3.56430
G01 X-3.21792 Y-3.56056
G01 X-3.21300 Y-3.55640
G01 X-3.20736 Y-3.55137
G01 X-3.20223 Y-3.54645
G01 X-3.05000 Y-3.39421
G01 X-3.05000 Y-3.35524
G01 X-3.22173 Y-3.52697
G01 X-3.22754 Y-3.53248
G01 X-3.23486 Y-3.53881
G01 X-3.23961 Y-3.54257
G01 X-3.24416 Y-3.54592
G01 X-3.25459 Y-3.55282
G01 X-3.26398 Y-3.55825
G01 X-3.27408 Y-3.56321
G01 X-3.28560 Y-3.56803
G01 X-3.29624 Y-3.57168
G01 X-3.30204 Y-3.57334
G01 X-3.30908 Y-3.57508
G01 X-3.31965 Y-3.57720
G01 X-3.32638 Y-3.57818
G01 X-3.33313 Y-3.57889
G01 X-3.34147 Y-3.57947
G01 X-3.34936 Y-3.57965
G01 X-3.82402 Y-3.57957
G01 X-3.83357 Y-3.57924
G01 X-3.84348 Y-3.57832
G01 X-3.85215 Y-3.57701
G01 X-3.86314 Y-3.57480
G01 X-3.87165 Y-3.57258
G01 X-3.88040 Y-3.56977
G01 X-3.88979 Y-3.56628
G01 X-3.89858 Y-3.56243
G01 X-3.90677 Y-3.55828
G01 X-3.91686 Y-3.55251
G01 X-3.92487 Y-3.54724
G01 X-3.93323 Y-3.54102
G01 X-3.94003 Y-3.53545
G01 X-3.94623 Y-3.52982
G01 X-3.97560 Y-3.50053
G01 X-3.97458 Y-3.49725
G01 X-3.97560 Y-3.50053
G01 X-3.97804 Y-3.50107
G01 X-3.98590 Y-3.50256
G01 X-3.99383 Y-3.50366
G01 X-4.00180 Y-3.50437
G01 X-4.00939 Y-3.50469
G01 X-4.08740 Y-3.50472
G01 X-4.09620 Y-3.50449
G01 X-4.10259 Y-3.50402
G01 X-4.10871 Y-3.50335
G01 X-4.10889 Y-3.49971
G01 X-4.10733 Y-3.53125
G01 X-4.09820 Y-3.53198
G01 X-4.08940 Y-3.53227
G01 X-4.00659 Y-3.53219
G01 X-3.99541 Y-3.53152
G01 X-3.98482 Y-3.53027
G01 X-3.98388 Y-3.52751
G01 X-3.98482 Y-3.53027
G01 X-3.96543 Y-3.54959
G01 X-3.95925 Y-3.55526
G01 X-3.95252 Y-3.56090
G01 X-3.94490 Y-3.56677
G01 X-3.93774 Y-3.57183
G01 X-3.93103 Y-3.57615
G01 X-3.92415 Y-3.58018
G01 X-3.91569 Y-3.58473
G01 X-3.90779 Y-3.58854
G01 X-3.90010 Y-3.59184
G01 X-3.89264 Y-3.59467
G01 X-3.88431 Y-3.59753
G01 X-3.87592 Y-3.60000
G01 X-3.13886 Y-3.60000
G01 X-3.05000 Y-3.51114
G01 X-3.05000 Y-2.71305
G01 X-3.05464 Y-2.70772
G01 X-3.05868 Y-2.70340
G01 X-3.09453 Y-2.66756
G01 X-3.13819 Y-2.67202
G01 X-3.13063 Y-2.67123
G01 X-3.12858 Y-2.67295
G01 X-3.12242 Y-2.67865
G01 X-3.07592 Y-2.72527
G01 X-3.07117 Y-2.73070
G01 X-3.06748 Y-2.73537
G01 X-3.06427 Y-2.73991
G01 X-3.06038 Y-2.74598
G01 X-3.05759 Y-2.75082
G01 X-3.05506 Y-2.75580
G01 X-3.05197 Y-2.76277
G01 X-3.05000 Y-2.76773
G01 X-3.05000 Y-2.67310
G01 X-3.05991 Y-2.66319
G01 X-3.05000 Y-2.67310
G01 X-3.05000 Y-2.66155
G01 X-3.06374 Y-2.66382
G01 X-3.07097 Y-2.66483
G01 X-3.09493 Y-2.66761
G01 X-3.13819 Y-2.67202
G01 X-3.15897 Y-2.67444
G01 X-3.18312 Y-2.67759
G01 X-3.21950 Y-2.68295
G01 X-3.23126 Y-2.68408
G01 X-3.24256 Y-2.68466
G01 X-3.25295 Y-2.68477
G01 X-3.26336 Y-2.68442
G01 X-3.27339 Y-2.68372
G01 X-3.28623 Y-2.68220
G01 X-3.29297 Y-2.68118
G01 X-3.30570 Y-2.67870
G01 X-3.31583 Y-2.67629
G01 X-3.32761 Y-2.67298
G01 X-3.52784 Y-2.67298
G01 X-3.53053 Y-2.67271
G01 X-3.53063 Y-2.67323
G01 X-3.53053 Y-2.67271
G01 X-3.53312 Y-2.67193
G01 X-3.58495 Y-2.65047
G01 X-3.60096 Y-2.64895
G01 X-3.60713 Y-2.64810
G01 X-3.61672 Y-2.64652
G01 X-3.62918 Y-2.64373
G01 X-3.63942 Y-2.64086
G01 X-3.66517 Y-2.61513
G01 X-3.67207 Y-2.61103
G01 X-3.68046 Y-2.60524
G01 X-3.68396 Y-2.60251
G01 X-3.69224 Y-2.59540
G01 X-3.69836 Y-2.59049
G01 X-3.70787 Y-2.58358
G01 X-3.71069 Y-2.57814
G01 X-3.71176 Y-2.57566
G01 X-3.71382 Y-2.57009
G01 X-3.71551 Y-2.56356
G01 X-3.71676 Y-2.55443
G01 X-3.71687 Y-2.54805
G01 X-3.71661 Y-2.54429
G01 X-3.81433 Y-2.44656
G01 X-3.90354 Y-2.44656
G01 X-3.90354 Y-2.46605
G01 X-3.89206 Y-2.47752
G01 X-3.88997 Y-2.47924
G01 X-3.89024 Y-2.47964
G01 X-3.88997 Y-2.47924
G01 X-3.88759 Y-2.48051
G01 X-3.84156 Y-2.49958
G01 X-3.83915 Y-2.50198
G01 X-3.84002 Y-2.50408
G01 X-3.83915 Y-2.50198
G01 X-3.83389 Y-2.50198
G01 X-3.83454 Y-2.50171
G01 X-3.83607 Y-2.50156
G01 X-3.83865 Y-2.50078
G01 X-3.83868 Y-2.50088
G01 X-3.83865 Y-2.50078
G01 X-3.84156 Y-2.49958
G01 X-3.83865 Y-2.50078
G01 X-3.83607 Y-2.50156
G01 X-3.83454 Y-2.50171
G01 X-3.76736 Y-2.52954
G01 X-3.83454 Y-2.50171
G01 X-3.83607 Y-2.50156
G01 X-3.83865 Y-2.50078
G01 X-3.88759 Y-2.48051
G01 X-3.88997 Y-2.47924
G01 X-3.89206 Y-2.47752
G01 X-3.90354 Y-2.46604
G01 X-3.90354 Y-2.44656
G01 X-3.90354 Y-2.47659
G01 X-3.85057 Y-2.52954
G01 X-3.74530 Y-2.52955
G01 X-3.74211 Y-2.52983
G01 X-3.73897 Y-2.53048
G01 X-3.73592 Y-2.53149
G01 X-3.73302 Y-2.53284
G01 X-3.73062 Y-2.53430
G01 X-3.72838 Y-2.53599
G01 X-3.72633 Y-2.53790
G01 X-3.72448 Y-2.54001
G01 X-3.72286 Y-2.54229
G01 X-3.72165 Y-2.54437
G01 X-3.72049 Y-2.54692
G01 X-3.71959 Y-2.54958
G01 X-3.71883 Y-2.55310
G01 X-3.71855 Y-2.55630
G01 X-3.71854 Y-2.58298
G01 X-3.71112 Y-2.58313
G01 X-3.70784 Y-2.58360
G01 X-3.70722 Y-2.58404
G01 X-3.70797 Y-2.58341
G01 X-3.71148 Y-2.57638
G01 X-3.71382 Y-2.57009
G01 X-3.71542 Y-2.56396
G01 X-3.71594 Y-2.56119
G01 X-3.71676 Y-2.55443
G01 X-3.71687 Y-2.54805
G01 X-3.71661 Y-2.54429
G01 X-3.75681 Y-2.50408
G01 X-3.82335 Y-2.47652
G01 X-3.82575 Y-2.47412
G01 X-3.82488 Y-2.47202
G01 X-3.82575 Y-2.47412
G01 X-3.83101 Y-2.47412
G01 X-3.83036 Y-2.47438
G01 X-3.82883 Y-2.47453
G01 X-3.82622 Y-2.47522
G01 X-3.82335 Y-2.47652
G01 X-3.82625 Y-2.47532
G01 X-3.82883 Y-2.47453
G01 X-3.83036 Y-2.47438
G01 X-3.87451 Y-2.45610
G01 X-3.88405 Y-2.44656
G01 X-3.90354 Y-2.44656
G01 X-3.91110 Y-2.43900
G01 X-3.91610 Y-2.43462
G01 X-3.92110 Y-2.43150
G01 X-3.92610 Y-2.42962
G01 X-3.93110 Y-2.42900
G01 X-4.06890 Y-2.42900
G01 X-4.07390 Y-2.42962
G01 X-4.07890 Y-2.43150
G01 X-4.08390 Y-2.43462
G01 X-4.08890 Y-2.43900
G01 X-4.09646 Y-2.44656
G01 X-4.09643 Y-2.57800
G01 X-4.09622 Y-2.58040
G01 X-4.09581 Y-2.58276
G01 X-4.09518 Y-2.58509
G01 X-4.09436 Y-2.58735
G01 X-4.09335 Y-2.58953
G01 X-4.09214 Y-2.59161
G01 X-4.08949 Y-2.59512
G01 X-4.08781 Y-2.59685
G01 X-4.08599 Y-2.59842
G01 X-4.08233 Y-2.60086
G01 X-4.07833 Y-2.60270
G01 X-4.07408 Y-2.60387
G01 X-4.07170 Y-2.60422
G01 X-4.06930 Y-2.60436
G01 X-4.03446 Y-2.60436
G01 X-4.00116 Y-2.61222
G01 X-3.93310 Y-2.61219
G01 X-3.93041 Y-2.61248
G01 X-3.93034 Y-2.61219
G01 X-3.93041 Y-2.61248
G01 X-3.92783 Y-2.61327
G01 X-3.92544 Y-2.61454
G01 X-3.92521 Y-2.61417
G01 X-3.92544 Y-2.61454
G01 X-3.92336 Y-2.61626
G01 X-3.92070 Y-2.61890
G01 X-3.91146 Y-2.62952
G01 X-3.92073 Y-2.61893
G01 X-3.92336 Y-2.61626
G01 X-3.92544 Y-2.61454
G01 X-3.92783 Y-2.61327
G01 X-3.93041 Y-2.61248
G01 X-3.93310 Y-2.61222
G01 X-4.00116 Y-2.61222
G01 X-4.03446 Y-2.60436
G01 X-3.92910 Y-2.60429
G01 X-3.92671 Y-2.60401
G01 X-3.92397 Y-2.60342
G01 X-3.92167 Y-2.60270
G01 X-3.91945 Y-2.60178
G01 X-3.91732 Y-2.60067
G01 X-3.91529 Y-2.59938
G01 X-3.91338 Y-2.59791
G01 X-3.91146 Y-2.59613
G01 X-3.91146 Y-2.65677
G01 X-3.91200 Y-2.65533
G01 X-3.91401 Y-2.65358
G01 X-3.91697 Y-2.65154
G01 X-3.92018 Y-2.64989
G01 X-3.92320 Y-2.64880
G01 X-3.92592 Y-2.64813
G01 X-3.92910 Y-2.64771
G01 X-3.93222 Y-2.64764
G01 X-3.93910 Y-2.63978
G01 X-4.00277 Y-2.63978
G01 X-4.00279 Y-2.63995
G01 X-4.00277 Y-2.63978
G01 X-4.00593 Y-2.63941
G01 X-4.04080 Y-2.63118
G01 X-4.11857 Y-2.59229
G01 X-4.12460 Y-2.58406
G01 X-4.15681 Y-2.53196
G01 X-4.15794 Y-2.52961
G01 X-4.15821 Y-2.52970
G01 X-4.15794 Y-2.52961
G01 X-4.15863 Y-2.52710
G01 X-4.15884 Y-2.52450
G01 X-4.15935 Y-2.52450
G01 X-4.15884 Y-2.52450
G01 X-4.15856 Y-2.52192
G01 X-4.15780 Y-2.51943
G01 X-4.15791 Y-2.51939
G01 X-4.15780 Y-2.51943
G01 X-4.13691 Y-2.46901
G01 X-4.13564 Y-2.46662
G01 X-4.13605 Y-2.46635
G01 X-4.13564 Y-2.46662
G01 X-4.13392 Y-2.46454
G01 X-4.11595 Y-2.44656
G01 X-4.13392 Y-2.46454
G01 X-4.13564 Y-2.46662
G01 X-4.13691 Y-2.46901
G01 X-4.14948 Y-2.49935
G01 X-4.18060 Y-2.53047
G01 X-4.19992 Y-2.53360
G01 X-4.18060 Y-2.53047
G01 X-4.14746 Y-2.54704
G01 X-4.12459 Y-2.58404
G01 X-4.11857 Y-2.59229
G01 X-4.12459 Y-2.58404
G01 X-4.15679 Y-2.53194
G01 X-4.15794 Y-2.52961
G01 X-4.15863 Y-2.52710
G01 X-4.15884 Y-2.52450
G01 X-4.15856 Y-2.52192
G01 X-4.15780 Y-2.51943
G01 X-4.13691 Y-2.46901
G01 X-4.13564 Y-2.46662
G01 X-4.13392 Y-2.46454
G01 X-4.11595 Y-2.44656
G01 X-4.09646 Y-2.44656
G01 X-4.09646 Y-2.46604
G01 X-4.11250 Y-2.48208
G01 X-4.12964 Y-2.52346
G01 X-4.10144 Y-2.56908
G01 X-4.09646 Y-2.57585
G01 X-4.10144 Y-2.56908
G01 X-4.12402 Y-2.53255
G01 X-4.12402 Y-2.50990
G01 X-4.11250 Y-2.48208
G01 X-4.09646 Y-2.46604
G01 X-4.09646 Y-2.44656
G01 X-4.13566 Y-2.44656
G01 X-4.22712 Y-2.53802
G01 X-4.00788 Y-2.64764
G01 X-3.93030 Y-2.64765
G01 X-3.92711 Y-2.64793
G01 X-3.92397 Y-2.64858
G01 X-3.92092 Y-2.64959
G01 X-3.91802 Y-2.65094
G01 X-3.91497 Y-2.65286
G01 X-3.91200 Y-2.65533
G01 X-3.90897 Y-2.66340
G01 X-3.90750 Y-2.67520
G01 X-3.90750 Y-2.69490
G01 X-3.90602 Y-2.70670
G01 X-3.90300 Y-2.71476
G01 X-3.90036 Y-2.71700
G01 X-3.89768 Y-2.71877
G01 X-3.89481 Y-2.72020
G01 X-3.89142 Y-2.72141
G01 X-3.88789 Y-2.72217
G01 X-3.88390 Y-2.72246
G01 X-3.74610 Y-2.72246
G01 X-3.74330 Y-2.72232
G01 X-3.74013 Y-2.72180
G01 X-3.73743 Y-2.72106
G01 X-3.73482 Y-2.72004
G01 X-3.73197 Y-2.71856
G01 X-3.72964 Y-2.71700
G01 X-3.72748 Y-2.71522
G01 X-3.72551 Y-2.71322
G01 X-3.72352 Y-2.71071
G01 X-3.72203 Y-2.70833
G01 X-3.72096 Y-2.70618
G01 X-3.72007 Y-2.70395
G01 X-3.71928 Y-2.70126
G01 X-3.71883 Y-2.69889
G01 X-3.71854 Y-2.69530
G01 X-3.71854 Y-2.68345
G01 X-3.60340 Y-2.79860
G01 X-3.59995 Y-2.80168
G01 X-3.59568 Y-2.80471
G01 X-3.59325 Y-2.80611
G01 X-3.58924 Y-2.80801
G01 X-3.58429 Y-2.80969
G01 X-3.57995 Y-2.81062
G01 X-3.57717 Y-2.81099
G01 X-3.57340 Y-2.81120
G01 X-3.56452 Y-2.81121
G01 X-3.56860 Y-2.81386
G01 X-3.57628 Y-2.81939
G01 X-3.58123 Y-2.82138
G01 X-3.58994 Y-2.82439
G01 X-3.59974 Y-2.82708
G01 X-3.61416 Y-2.82989
G01 X-3.63884 Y-2.81860
G01 X-3.65008 Y-2.81392
G01 X-3.65663 Y-2.81148
G01 X-3.66710 Y-2.80788
G01 X-3.67424 Y-2.80571
G01 X-3.71045 Y-2.76950
G01 X-3.70934 Y-2.76447
G01 X-3.71045 Y-2.76950
G01 X-3.71225 Y-2.77033
G01 X-3.71820 Y-2.77273
G01 X-3.72470 Y-2.77476
G01 X-3.73095 Y-2.77618
G01 X-3.73730 Y-2.77711
G01 X-3.74129 Y-2.77744
G01 X-3.74570 Y-2.77758
G01 X-3.82893 Y-2.77758
G01 X-3.85649 Y-2.75002
G01 X-3.74570 Y-2.75002
G01 X-3.74130 Y-2.74981
G01 X-3.73653 Y-2.74918
G01 X-3.73300 Y-2.74844
G01 X-3.72953 Y-2.74747
G01 X-3.72612 Y-2.74627
G01 X-3.72244 Y-2.74468
G01 X-3.71924 Y-2.74303
G01 X-3.71615 Y-2.74117
G01 X-3.71319 Y-2.73911
G01 X-3.71036 Y-2.73686
G01 X-3.70711 Y-2.73386
G01 X-3.70670 Y-2.72398
G01 X-3.70711 Y-2.73386
G01 X-3.62231 Y-2.81865
G01 X-3.61594 Y-2.82417
G01 X-3.61334 Y-2.82605
G01 X-3.60886 Y-2.82895
G01 X-3.59974 Y-2.82708
G01 X-3.59171 Y-2.82493
G01 X-3.58300 Y-2.82204
G01 X-3.57812 Y-2.82015
G01 X-3.57628 Y-2.81939
G01 X-3.56860 Y-2.81386
G01 X-3.56452 Y-2.81121
G01 X-3.53469 Y-2.81121
G01 X-3.53140 Y-2.80996
G01 X-3.53479 Y-2.81127
G01 X-3.53915 Y-2.81585
G01 X-3.54355 Y-2.82191
G01 X-3.54639 Y-2.82713
G01 X-3.54762 Y-2.82998
G01 X-3.54958 Y-2.83558
G01 X-3.55089 Y-2.84157
G01 X-3.60760 Y-2.89828
G01 X-3.60954 Y-2.89671
G01 X-3.61349 Y-2.89394
G01 X-3.61795 Y-2.89128
G01 X-3.62031 Y-2.89006
G01 X-3.62656 Y-2.88734
G01 X-3.63350 Y-2.88516
G01 X-3.64027 Y-2.88382
G01 X-3.64319 Y-2.88347
G01 X-3.65041 Y-2.88310
G01 X-3.65835 Y-2.88362
G01 X-3.66465 Y-2.88471
G01 X-3.66898 Y-2.88584
G01 X-3.67321 Y-2.88726
G01 X-3.67851 Y-2.88947
G01 X-3.68625 Y-2.89377
G01 X-3.69111 Y-2.89721
G01 X-3.69549 Y-2.90094
G01 X-3.70121 Y-2.90694
G01 X-3.97796 Y-2.90694
G01 X-4.04434 Y-2.84056
G01 X-4.01889 Y-2.86602
G01 X-3.96949 Y-2.88648
G01 X-3.96690 Y-2.88726
G01 X-3.96700 Y-2.88776
G01 X-3.96690 Y-2.88726
G01 X-3.96421 Y-2.88753
G01 X-3.93110 Y-2.88754
G01 X-3.91527 Y-2.88663
G01 X-3.89864 Y-2.88365
G01 X-3.88071 Y-2.87814
G01 X-3.86451 Y-2.87107
G01 X-3.84849 Y-2.86211
G01 X-3.83337 Y-2.85182
G01 X-3.72242 Y-2.85182
G01 X-3.72205 Y-2.85304
G01 X-3.72242 Y-2.85182
G01 X-3.71913 Y-2.84945
G01 X-3.71372 Y-2.84597
G01 X-3.70498 Y-2.84108
G01 X-3.70028 Y-2.83882
G01 X-3.69369 Y-2.83606
G01 X-3.68657 Y-2.83359
G01 X-3.68180 Y-2.83221
G01 X-3.67588 Y-2.83400
G01 X-3.66578 Y-2.83748
G01 X-3.66042 Y-2.83949
G01 X-3.65001 Y-2.84380
G01 X-3.62176 Y-2.85670
G01 X-3.62180 Y-2.85681
G01 X-3.62176 Y-2.85670
G01 X-3.61928 Y-2.85753
G01 X-3.61669 Y-2.85789
G01 X-3.61672 Y-2.85831
G01 X-3.61669 Y-2.85789
G01 X-3.61408 Y-2.85775
G01 X-3.60447 Y-2.85618
G01 X-3.61191 Y-2.86361
G01 X-3.61080 Y-2.86856
G01 X-3.61191 Y-2.86361
G01 X-3.61700 Y-2.86149
G01 X-3.62461 Y-2.85902
G01 X-3.62883 Y-2.85795
G01 X-3.63548 Y-2.85668
G01 X-3.64137 Y-2.85597
G01 X-3.64778 Y-2.85557
G01 X-3.65182 Y-2.85557
G01 X-3.66189 Y-2.85629
G01 X-3.67076 Y-2.85784
G01 X-3.67713 Y-2.85951
G01 X-3.68334 Y-2.86161
G01 X-3.68936 Y-2.86413
G01 X-3.69357 Y-2.86623
G01 X-3.70126 Y-2.87065
G01 X-3.70825 Y-2.87563
G01 X-3.71274 Y-2.87938
G01 X-3.71225 Y-2.88083
G01 X-3.71274 Y-2.87938
G01 X-3.88461 Y-2.87938
G01 X-3.89710 Y-2.88323
G01 X-3.88072 Y-2.87810
G01 X-3.86452 Y-2.87104
G01 X-3.84955 Y-2.86273
G01 X-3.83263 Y-2.85130
G01 X-3.81766 Y-2.83931
G01 X-3.80592 Y-2.82848
G01 X-3.74610 Y-2.82848
G01 X-3.73348 Y-2.82826
G01 X-3.72945 Y-2.82754
G01 X-3.71857 Y-2.82368
G01 X-3.71082 Y-2.82510
G01 X-3.69803 Y-2.82787
G01 X-3.68671 Y-2.83077
G01 X-3.67588 Y-2.83400
G01 X-3.66578 Y-2.83748
G01 X-3.66042 Y-2.83949
G01 X-3.65001 Y-2.84380
G01 X-3.62176 Y-2.85670
G01 X-3.61928 Y-2.85753
G01 X-3.61669 Y-2.85789
G01 X-3.61408 Y-2.85775
G01 X-3.60649 Y-2.85657
G01 X-3.59559 Y-2.85441
G01 X-3.58172 Y-2.85074
G01 X-3.57351 Y-2.84792
G01 X-3.56787 Y-2.84577
G01 X-3.56417 Y-2.84420
G01 X-3.56120 Y-2.84262
G01 X-3.55628 Y-2.83886
G01 X-3.54912 Y-2.83406
G01 X-3.54673 Y-2.82783
G01 X-3.54334 Y-2.82158
G01 X-3.53915 Y-2.81585
G01 X-3.53476 Y-2.81123
G01 X-3.52779 Y-2.80874
G01 X-3.52433 Y-2.80769
G01 X-3.51770 Y-2.80606
G01 X-3.51179 Y-2.80501
G01 X-3.50581 Y-2.80434
G01 X-3.50221 Y-2.80412
G01 X-3.49628 Y-2.80407
G01 X-3.48717 Y-2.80473
G01 X-3.48124 Y-2.80565
G01 X-3.47514 Y-2.80699
G01 X-3.46886 Y-2.80880
G01 X-3.46213 Y-2.81121
G01 X-3.45763 Y-2.81594
G01 X-3.45471 Y-2.81979
G01 X-3.45307 Y-2.82237
G01 X-3.45471 Y-2.81979
G01 X-3.45763 Y-2.81594
G01 X-3.46213 Y-2.81121
G01 X-3.44955 Y-2.81121
G01 X-3.44743 Y-2.80988
G01 X-3.44015 Y-2.80663
G01 X-3.43287 Y-2.80468
G01 X-3.42559 Y-2.80403
G01 X-3.37441 Y-2.80403
G01 X-3.36423 Y-2.80530
G01 X-3.35406 Y-2.80911
G01 X-3.34830 Y-2.80912
G01 X-3.34200 Y-2.80947
G01 X-3.33583 Y-2.81032
G01 X-3.33138 Y-2.81121
G01 X-3.29198 Y-2.81121
G01 X-3.24013 Y-2.83266
G01 X-3.23774 Y-2.83394
G01 X-3.23745 Y-2.83350
G01 X-3.23774 Y-2.83394
G01 X-3.23566 Y-2.83565
G01 X-3.23394 Y-2.83774
G01 X-3.23358 Y-2.83748
G01 X-3.23394 Y-2.83774
G01 X-3.23267 Y-2.84012
G01 X-3.23089 Y-2.84439
G01 X-3.22604 Y-2.84985
G01 X-3.21856 Y-2.85893
G01 X-3.21121 Y-2.86894
G01 X-3.21857 Y-2.85894
G01 X-3.22604 Y-2.84985
G01 X-3.23089 Y-2.84439
G01 X-3.23267 Y-2.84012
G01 X-3.23394 Y-2.83774
G01 X-3.23566 Y-2.83565
G01 X-3.23774 Y-2.83394
G01 X-3.24013 Y-2.83266
G01 X-3.29198 Y-2.81121
G01 X-3.22855 Y-2.81121
G01 X-3.21121 Y-2.82855
G01 X-3.21121 Y-2.89552
G01 X-3.21696 Y-2.89182
G01 X-3.22264 Y-2.88895
G01 X-3.22846 Y-2.88665
G01 X-3.23347 Y-2.88520
G01 X-3.23733 Y-2.87978
G01 X-3.24383 Y-2.87150
G01 X-3.25275 Y-2.86135
G01 X-3.25427 Y-2.85940
G01 X-3.25446 Y-2.85953
G01 X-3.25427 Y-2.85940
G01 X-3.25594 Y-2.85595
G01 X-3.30252 Y-2.83667
G01 X-3.32190 Y-2.81739
G01 X-3.32400 Y-2.81569
G01 X-3.32730 Y-2.81342
G01 X-3.33138 Y-2.81121
G01 X-3.32697 Y-2.81364
G01 X-3.32369 Y-2.81592
G01 X-3.32133 Y-2.81791
G01 X-3.25578 Y-2.88334
G01 X-3.24910 Y-2.88310
G01 X-3.24319 Y-2.88345
G01 X-3.23686 Y-2.88441
G01 X-3.23413 Y-2.88502
G01 X-3.22882 Y-2.88653
G01 X-3.22298 Y-2.88879
G01 X-3.21696 Y-2.89182
G01 X-3.21124 Y-2.89546
G01 X-3.20783 Y-2.90250
G01 X-3.20521 Y-2.90873
G01 X-3.20307 Y-2.91464
G01 X-3.20048 Y-2.92349
G01 X-3.19922 Y-2.92909
G01 X-3.19814 Y-2.93559
G01 X-3.19754 Y-2.94101
G01 X-3.19715 Y-2.94992
G01 X-3.19728 Y-2.95522
G01 X-3.19778 Y-2.96150
G01 X-3.19915 Y-2.97052
G01 X-3.20036 Y-2.97603
G01 X-3.20232 Y-2.98304
G01 X-3.20435 Y-2.98900
G01 X-3.20660 Y-2.99466
G01 X-3.20908 Y-3.00020
G01 X-3.20912 Y-3.18184
G01 X-3.20933 Y-3.18652
G01 X-3.21010 Y-3.19305
G01 X-3.21125 Y-3.19897
G01 X-3.21225 Y-3.20083
G01 X-3.21121 Y-3.19979
G01 X-3.21121 Y-3.19875
G01 X-3.21052 Y-3.19548
G01 X-3.21125 Y-3.19897
G01 X-3.21225 Y-3.20083
G01 X-3.21585 Y-3.20532
G01 X-3.21990 Y-3.20974
G01 X-3.28997 Y-3.27981
G01 X-3.29328 Y-3.28293
G01 X-3.29842 Y-3.28719
G01 X-3.29956 Y-3.28801
G01 X-3.30144 Y-3.28894
G01 X-3.30706 Y-3.29112
G01 X-3.31025 Y-3.29197
G01 X-3.31544 Y-3.29281
G01 X-3.31857 Y-3.29303
G01 X-3.33638 Y-3.29305
G01 X-3.33859 Y-3.29205
G01 X-3.33634 Y-3.29307
G01 X-3.33327 Y-3.29702
G01 X-3.33075 Y-3.30094
G01 X-3.32780 Y-3.30676
G01 X-3.32627 Y-3.31069
G01 X-3.32530 Y-3.31388
G01 X-3.32614 Y-3.31106
G01 X-3.32766 Y-3.30712
G01 X-3.33000 Y-3.30228
G01 X-3.33304 Y-3.29735
G01 X-3.33628 Y-3.29314
G01 X-3.34127 Y-3.29091
G01 X-3.34531 Y-3.28937
G01 X-3.45432 Y-3.28937
G01 X-3.45760 Y-3.28812
G01 X-3.46394 Y-3.28535
G01 X-3.46813 Y-3.27960
G01 X-3.46988 Y-3.27660
G01 X-3.47274 Y-3.27068
G01 X-3.47520 Y-3.26305
G01 X-3.48139 Y-3.25867
G01 X-3.48808 Y-3.25337
G01 X-3.49202 Y-3.25000
G01 X-3.48839 Y-3.24688
G01 X-3.48165 Y-3.24152
G01 X-3.47520 Y-3.23695
G01 X-3.47283 Y-3.22953
G01 X-3.46980 Y-3.22323
G01 X-3.46787 Y-3.22004
G01 X-3.46508 Y-3.21607
G01 X-3.46378 Y-3.21457
G01 X-3.78536 Y-3.21457
G01 X-3.78478 Y-3.21473
G01 X-3.78399 Y-3.21457
G01 X-3.98492 Y-3.21457
G01 X-3.97652 Y-3.21751
G01 X-3.96743 Y-3.22197
G01 X-3.93256 Y-3.22197
G01 X-3.92348 Y-3.21751
G01 X-3.91508 Y-3.21457
G01 X-4.04324 Y-3.21456
G01 X-4.04782 Y-3.21426
G01 X-4.05057 Y-3.21386
G01 X-4.05491 Y-3.21284
G01 X-4.05875 Y-3.21150
G01 X-4.06168 Y-3.21022
G01 X-4.06597 Y-3.20785
G01 X-4.06963 Y-3.20526
G01 X-4.07311 Y-3.20220
G01 X-4.26712 Y-3.00819
G01 X-4.27175 Y-3.01065
G01 X-4.27814 Y-3.01323
G01 X-4.28055 Y-3.01399
G01 X-4.28754 Y-3.01573
G01 X-4.29429 Y-3.01667
G01 X-4.30112 Y-3.01688
G01 X-4.30364 Y-3.01679
G01 X-4.31091 Y-3.01601
G01 X-4.31801 Y-3.01444
G01 X-4.32409 Y-3.01240
G01 X-4.32670 Y-3.01133
G01 X-4.33286 Y-3.00828
G01 X-4.33867 Y-3.00458
G01 X-4.34093 Y-3.00290
G01 X-4.34553 Y-2.99903
G01 X-4.35051 Y-2.99387
G01 X-4.35511 Y-2.98794
G01 X-4.35871 Y-2.98209
G01 X-4.36187 Y-2.97547
G01 X-4.36379 Y-2.97012
G01 X-4.36568 Y-2.96277
G01 X-4.36654 Y-2.95683
G01 X-4.36677 Y-2.95390
G01 X-4.36683 Y-2.94698
G01 X-4.36624 Y-2.94057
G01 X-4.36484 Y-2.93353
G01 X-4.36410 Y-2.93091
G01 X-4.36165 Y-2.92401
G01 X-4.35832 Y-2.91720
G01 X-4.35380 Y-2.91023
G01 X-4.34847 Y-2.90387
G01 X-4.34331 Y-2.89905
G01 X-4.34331 Y-2.89331
G01 X-4.42082 Y-2.89331
G01 X-4.42521 Y-2.89615
G01 X-4.43027 Y-2.89867
G01 X-4.43291 Y-2.89974
G01 X-4.43868 Y-2.90156
G01 X-4.44383 Y-2.90257
G01 X-4.44666 Y-2.90290
G01 X-4.45230 Y-2.90314
G01 X-4.45791 Y-2.90275
G01 X-4.46406 Y-2.90166
G01 X-4.46973 Y-2.89995
G01 X-4.47509 Y-2.89766
G01 X-4.48017 Y-2.89480
G01 X-4.48497 Y-2.89135
G01 X-4.48914 Y-2.88759
G01 X-4.49306 Y-2.88322
G01 X-4.49562 Y-2.87974
G01 X-4.49693 Y-2.87765
G01 X-4.49562 Y-2.87974
G01 X-4.49282 Y-2.88352
G01 X-4.48799 Y-2.88871
G01 X-4.48466 Y-2.89160
G01 X-4.48111 Y-2.89417
G01 X-4.47509 Y-2.89766
G01 X-4.46973 Y-2.89995
G01 X-4.46484 Y-2.90146
G01 X-4.45978 Y-2.90251
G01 X-4.45592 Y-2.90292
G01 X-4.45001 Y-2.90577
G01 X-4.44462 Y-2.90805
G01 X-4.44136 Y-2.90930
G01 X-4.43199 Y-2.91243
G01 X-4.42083 Y-2.91536
G01 X-4.41178 Y-2.91719
G01 X-4.40812 Y-2.91772
G01 X-4.40517 Y-2.91866
G01 X-4.40038 Y-2.92064
G01 X-4.39782 Y-2.92204
G01 X-4.39767 Y-2.92181
G01 X-4.39782 Y-2.92204
G01 X-4.39561 Y-2.92394
G01 X-4.39534 Y-2.92372
G01 X-4.39561 Y-2.92394
G01 X-4.39385 Y-2.92627
G01 X-4.39262 Y-2.92891
G01 X-4.39251 Y-2.92886
G01 X-4.39262 Y-2.92891
G01 X-4.39225 Y-2.92999
G01 X-4.39117 Y-2.92525
G01 X-4.38979 Y-2.92087
G01 X-4.39997 Y-2.92087
G01 X-4.38979 Y-2.92087
G01 X-4.37571 Y-2.91007
G01 X-4.38979 Y-2.92087
G01 X-4.39117 Y-2.92525
G01 X-4.39225 Y-2.92999
G01 X-4.38915 Y-2.93876
G01 X-4.38665 Y-2.94506
G01 X-4.38236 Y-2.95465
G01 X-4.37815 Y-2.96287
G01 X-4.37373 Y-2.97052
G01 X-4.36898 Y-2.97783
G01 X-4.36662 Y-2.98118
G01 X-4.36378 Y-2.98499
G01 X-4.35261 Y-2.99906
G01 X-4.34334 Y-3.01149
G01 X-4.34621 Y-3.00759
G01 X-4.34351 Y-3.01123
G01 X-4.33677 Y-3.02079
G01 X-4.32469 Y-3.03873
G01 X-4.32177 Y-3.04285
G01 X-4.31584 Y-3.05069
G01 X-4.31225 Y-3.05517
G01 X-4.30407 Y-3.06473
G01 X-4.29738 Y-3.07193
G01 X-4.29008 Y-3.07162
G01 X-4.28255 Y-3.07071
G01 X-4.28158 Y-3.06807
G01 X-4.28255 Y-3.07071
G01 X-4.19085 Y-3.16241
G01 X-4.17371 Y-3.16678
G01 X-4.15855 Y-3.17161
G01 X-4.14930 Y-3.17501
G01 X-4.14491 Y-3.17680
G01 X-4.13742 Y-3.18004
G01 X-4.13139 Y-3.18289
G01 X-4.27362 Y-3.04066
G01 X-4.27255 Y-3.03708
G01 X-4.27362 Y-3.04066
G01 X-4.28205 Y-3.04274
G01 X-4.29158 Y-3.04409
G01 X-4.30039 Y-3.04443
G01 X-4.30553 Y-3.04429
G01 X-4.31463 Y-3.04333
G01 X-4.32260 Y-3.04167
G01 X-4.31584 Y-3.05069
G01 X-4.31225 Y-3.05517
G01 X-4.30407 Y-3.06473
G01 X-4.30000 Y-3.06922
G01 X-4.28907 Y-3.08053
G01 X-4.28234 Y-3.08707
G01 X-4.28053 Y-3.08922
G01 X-4.28012 Y-3.08895
G01 X-4.28053 Y-3.08922
G01 X-4.27919 Y-3.09170
G01 X-4.25341 Y-3.15394
G01 X-4.23712 Y-3.15511
G01 X-4.26410 Y-3.12814
G01 X-4.23712 Y-3.15511
G01 X-4.21634 Y-3.15763
G01 X-4.21057 Y-3.15855
G01 X-4.19635 Y-3.16120
G01 X-4.19047 Y-3.16249
G01 X-4.17851 Y-3.16546
G01 X-4.16357 Y-3.16992
G01 X-4.15819 Y-3.17174
G01 X-4.14895 Y-3.17517
G01 X-4.13710 Y-3.18018
G01 X-4.12678 Y-3.18518
G01 X-4.12276 Y-3.18729
G01 X-4.11196 Y-3.19350
G01 X-4.09706 Y-3.19654
G01 X-4.08302 Y-3.20130
G01 X-4.07667 Y-3.20378
G01 X-4.07199 Y-3.20538
G01 X-4.06783 Y-3.20658
G01 X-4.06493 Y-3.20849
G01 X-4.06168 Y-3.21022
G01 X-4.05644 Y-3.21235
G01 X-4.05414 Y-3.21305
G01 X-4.05018 Y-3.21393
G01 X-4.04497 Y-3.21448
G01 X-3.71598 Y-3.21457
G01 X-3.70950 Y-3.21603
G01 X-3.70235 Y-3.21794
G01 X-3.69016 Y-3.22196
G01 X-3.67692 Y-3.22735
G01 X-3.66853 Y-3.23134
G01 X-3.66085 Y-3.23538
G01 X-3.65613 Y-3.23622
G01 X-3.51769 Y-3.23622
G01 X-3.51080 Y-3.22981
G01 X-3.50576 Y-3.22545
G01 X-3.49815 Y-3.21945
G01 X-3.49130 Y-3.21457
G01 X-3.46378 Y-3.21457
G01 X-3.46532 Y-3.21640
G01 X-3.46900 Y-3.22178
G01 X-3.47188 Y-3.22741
G01 X-3.47297 Y-3.22989
G01 X-3.47487 Y-3.23577
G01 X-3.47545 Y-3.23802
G01 X-3.47648 Y-3.24451
G01 X-3.47669 Y-3.24798
G01 X-3.47661 Y-3.25417
G01 X-3.47568 Y-3.26068
G01 X-3.47503 Y-3.26370
G01 X-3.47315 Y-3.26959
G01 X-3.47196 Y-3.27245
G01 X-3.46895 Y-3.27829
G01 X-3.46499 Y-3.28401
G01 X-3.46377 Y-3.28543
G01 X-3.66360 Y-3.28543
G01 X-3.68971 Y-3.27590
G01 X-3.69131 Y-3.27215
G01 X-3.69337 Y-3.26820
G01 X-3.69651 Y-3.26314
G01 X-3.70041 Y-3.25804
G01 X-3.70503 Y-3.25312
G01 X-3.71024 Y-3.24865
G01 X-3.71378 Y-3.24607
G01 X-3.71785 Y-3.24356
G01 X-3.72350 Y-3.24069
G01 X-3.72980 Y-3.23828
G01 X-3.73400 Y-3.23704
G01 X-3.73869 Y-3.23604
G01 X-3.74513 Y-3.23522
G01 X-3.75233 Y-3.23508
G01 X-3.75940 Y-3.23573
G01 X-3.76564 Y-3.23696
G01 X-3.77065 Y-3.23842
G01 X-3.77303 Y-3.23928
G01 X-3.77782 Y-3.24130
G01 X-3.78242 Y-3.24373
G01 X-3.78833 Y-3.24757
G01 X-3.78347 Y-3.24432
G01 X-3.77782 Y-3.24130
G01 X-3.77185 Y-3.23882
G01 X-3.76525 Y-3.23686
G01 X-3.75902 Y-3.23567
G01 X-3.75273 Y-3.23510
G01 X-3.74593 Y-3.23517
G01 X-3.74076 Y-3.23572
G01 X-3.73324 Y-3.23725
G01 X-3.72793 Y-3.23891
G01 X-3.72181 Y-3.24150
G01 X-3.71288 Y-3.24363
G01 X-3.70351 Y-3.24648
G01 X-3.69620 Y-3.24915
G01 X-3.68836 Y-3.25244
G01 X-3.68081 Y-3.25602
G01 X-3.67212 Y-3.26063
G01 X-3.67006 Y-3.26155
G01 X-3.67014 Y-3.26179
G01 X-3.67006 Y-3.26155
G01 X-3.66788 Y-3.26213
G01 X-3.65974 Y-3.26357
G01 X-3.65975 Y-3.26369
G01 X-3.65974 Y-3.26357
G01 X-3.65734 Y-3.26378
G01 X-3.51770 Y-3.26378
G01 X-3.51045 Y-3.27049
G01 X-3.50541 Y-3.27484
G01 X-3.49785 Y-3.28078
G01 X-3.49131 Y-3.28543
G01 X-3.46377 Y-3.28543
G01 X-3.46185 Y-3.28633
G01 X-3.46394 Y-3.28535
G01 X-3.46522 Y-3.28370
G01 X-3.46895 Y-3.27829
G01 X-3.47229 Y-3.27175
G01 X-3.47328 Y-3.26923
G01 X-3.47532 Y-3.26258
G01 X-3.47641 Y-3.25609
G01 X-3.47667 Y-3.25301
G01 X-3.47668 Y-3.24721
G01 X-3.47637 Y-3.24375
G01 X-3.47528 Y-3.23727
G01 X-3.47336 Y-3.23098
G01 X-3.47222 Y-3.22810
G01 X-3.46921 Y-3.22214
G01 X-3.46556 Y-3.21674
G01 X-3.46393 Y-3.21464
G01 X-3.45824 Y-3.21214
G01 X-3.45432 Y-3.21064
G01 X-3.34532 Y-3.21061
G01 X-3.33743 Y-3.20740
G01 X-3.33239 Y-3.20165
G01 X-3.32951 Y-3.19677
G01 X-3.32813 Y-3.19391
G01 X-3.32570 Y-3.18759
G01 X-3.32420 Y-3.18156
G01 X-3.32338 Y-3.17534
G01 X-3.32326 Y-3.16947
G01 X-3.32382 Y-3.16323
G01 X-3.32460 Y-3.15925
G01 X-3.32306 Y-3.15457
G01 X-3.32395 Y-3.14869
G01 X-3.32489 Y-3.14392
G01 X-3.32759 Y-3.13340
G01 X-3.33023 Y-3.12536
G01 X-3.33239 Y-3.11971
G01 X-3.33763 Y-3.10804
G01 X-3.34264 Y-3.09859
G01 X-3.34906 Y-3.08800
G01 X-3.35687 Y-3.07667
G01 X-3.36394 Y-3.06745
G01 X-3.36895 Y-3.06147
G01 X-3.37650 Y-3.06105
G01 X-3.42263 Y-3.06103
G01 X-3.42770 Y-3.06123
G01 X-3.43608 Y-3.06200
G01 X-3.44389 Y-3.06331
G01 X-3.44983 Y-3.06469
G01 X-3.45444 Y-3.06602
G01 X-3.46041 Y-3.06806
G01 X-3.46527 Y-3.07004
G01 X-3.47129 Y-3.07283
G01 X-3.47116 Y-3.07344
G01 X-3.47129 Y-3.07283
G01 X-3.56693 Y-3.07283
G01 X-3.56771 Y-3.07309
G01 X-3.56693 Y-3.07283
G01 X-3.47129 Y-3.07283
G01 X-3.46229 Y-3.06879
G01 X-3.45330 Y-3.06567
G01 X-3.44906 Y-3.06450
G01 X-3.44311 Y-3.06314
G01 X-3.43529 Y-3.06191
G01 X-3.42770 Y-3.06123
G01 X-3.42263 Y-3.06103
G01 X-3.37650 Y-3.06105
G01 X-3.36895 Y-3.06147
G01 X-3.36394 Y-3.06745
G01 X-3.35484 Y-3.07948
G01 X-3.34906 Y-3.08800
G01 X-3.34416 Y-3.09603
G01 X-3.34906 Y-3.08800
G01 X-3.35687 Y-3.07667
G01 X-3.36623 Y-3.06462
G01 X-3.37788 Y-3.05125
G01 X-3.38614 Y-3.04261
G01 X-3.40167 Y-3.03347
G01 X-3.42302 Y-3.03347
G01 X-3.42896 Y-3.03369
G01 X-3.44094 Y-3.03484
G01 X-3.44568 Y-3.03558
G01 X-3.45077 Y-3.03661
G01 X-3.45904 Y-3.03863
G01 X-3.46731 Y-3.04127
G01 X-3.47180 Y-3.04291
G01 X-3.47621 Y-3.04474
G01 X-3.47739 Y-3.04527
G01 X-3.47732 Y-3.04568
G01 X-3.47739 Y-3.04527
G01 X-3.47987 Y-3.04527
G01 X-3.50161 Y-3.05428
G01 X-3.50945 Y-3.05737
G01 X-3.52635 Y-3.06320
G01 X-3.52881 Y-3.06393
G01 X-3.54476 Y-3.06813
G01 X-3.55827 Y-3.07083
G01 X-3.56330 Y-3.07164
G01 X-3.57109 Y-3.07415
G01 X-3.58224 Y-3.07729
G01 X-3.58784 Y-3.07871
G01 X-3.59818 Y-3.08100
G01 X-3.61191 Y-3.08339
G01 X-3.62103 Y-3.08458
G01 X-3.63119 Y-3.08551
G01 X-3.64173 Y-3.08607
G01 X-3.65177 Y-3.08619
G01 X-3.66662 Y-3.08566
G01 X-3.67955 Y-3.08448
G01 X-3.68563 Y-3.08373
G01 X-3.69792 Y-3.08173
G01 X-3.70449 Y-3.08045
G01 X-3.71776 Y-3.07728
G01 X-3.72839 Y-3.07428
G01 X-3.99580 Y-3.07428
G01 X-3.99979 Y-3.07398
G01 X-3.99989 Y-3.07451
G01 X-3.99979 Y-3.07398
G01 X-4.00249 Y-3.07311
G01 X-4.01121 Y-3.06924
G01 X-4.02590 Y-3.06169
G01 X-4.02956 Y-3.05964
G01 X-4.04438 Y-3.05017
G01 X-4.04752 Y-3.04799
G01 X-4.05809 Y-3.03982
G01 X-4.06698 Y-3.03208
G01 X-4.07252 Y-3.02672
G01 X-4.20393 Y-2.89531
G01 X-4.21667 Y-2.89003
G01 X-4.21905 Y-2.88876
G01 X-4.21931 Y-2.88915
G01 X-4.21905 Y-2.88876
G01 X-4.22113 Y-2.88705
G01 X-4.22917 Y-2.87903
G01 X-4.22916 Y-2.88468
G01 X-4.23125 Y-2.88554
G01 X-4.22916 Y-2.88468
G01 X-4.01345 Y-3.10039
G01 X-4.01432 Y-3.10249
G01 X-4.01345 Y-3.10039
G01 X-3.46420 Y-3.10039
G01 X-3.46402 Y-3.10114
G01 X-3.46420 Y-3.10039
G01 X-3.46121 Y-3.09868
G01 X-3.45753 Y-3.09678
G01 X-3.45166 Y-3.09422
G01 X-3.44333 Y-3.09148
G01 X-3.43735 Y-3.09009
G01 X-3.43370 Y-3.08948
G01 X-3.42639 Y-3.08877
G01 X-3.42227 Y-3.08858
G01 X-3.37692 Y-3.08860
G01 X-3.37298 Y-3.08877
G01 X-3.36557 Y-3.08957
G01 X-3.35790 Y-3.09116
G01 X-3.34963 Y-3.09374
G01 X-3.34416 Y-3.09603
G01 X-3.34109 Y-3.10138
G01 X-3.33763 Y-3.10804
G01 X-3.33354 Y-3.11694
G01 X-3.33023 Y-3.12536
G01 X-3.32759 Y-3.13340
G01 X-3.32489 Y-3.14392
G01 X-3.32395 Y-3.14869
G01 X-3.32306 Y-3.15457
G01 X-3.32460 Y-3.15925
G01 X-3.32306 Y-3.15457
G01 X-3.32349 Y-3.15144
G01 X-3.32489 Y-3.14392
G01 X-3.32679 Y-3.13616
G01 X-3.33023 Y-3.12536
G01 X-3.33354 Y-3.11694
G01 X-3.33629 Y-3.11083
G01 X-3.34109 Y-3.10138
G01 X-3.34715 Y-3.09101
G01 X-3.35484 Y-3.07948
G01 X-3.36394 Y-3.06745
G01 X-3.36623 Y-3.06462
G01 X-3.37527 Y-3.05413
G01 X-3.38614 Y-3.04261
G01 X-3.40201 Y-3.03327
G01 X-3.41703 Y-3.02343
G01 X-3.44124 Y-3.02358
G01 X-3.45139 Y-3.02896
G01 X-3.46280 Y-3.03565
G01 X-3.47298 Y-3.04217
G01 X-3.47515 Y-3.04341
G01 X-3.50945 Y-3.05737
G01 X-3.52839 Y-3.06381
G01 X-3.54476 Y-3.06813
G01 X-3.55827 Y-3.07083
G01 X-3.56330 Y-3.07164
G01 X-3.57109 Y-3.07415
G01 X-3.58224 Y-3.07729
G01 X-3.58821 Y-3.07878
G01 X-3.59818 Y-3.08100
G01 X-3.61191 Y-3.08339
G01 X-3.62103 Y-3.08458
G01 X-3.62799 Y-3.08526
G01 X-3.63853 Y-3.08594
G01 X-3.65177 Y-3.08619
G01 X-3.66662 Y-3.08564
G01 X-3.67955 Y-3.08448
G01 X-3.68563 Y-3.08371
G01 X-3.69792 Y-3.08173
G01 X-3.70400 Y-3.08053
G01 X-3.71776 Y-3.07728
G01 X-3.72839 Y-3.07428
G01 X-3.99580 Y-3.07428
G01 X-3.99979 Y-3.07398
G01 X-4.00249 Y-3.07311
G01 X-4.01119 Y-3.06922
G01 X-4.02590 Y-3.06169
G01 X-4.02955 Y-3.05961
G01 X-4.04381 Y-3.05055
G01 X-4.04706 Y-3.04828
G01 X-4.05809 Y-3.03982
G01 X-4.06696 Y-3.03206
G01 X-4.07252 Y-3.02672
G01 X-4.20393 Y-2.89531
G01 X-4.21667 Y-2.89003
G01 X-4.21905 Y-2.88876
G01 X-4.22113 Y-2.88705
G01 X-4.24997 Y-2.85826
G01 X-4.25677 Y-2.85203
G01 X-4.25685 Y-2.84626
G01 X-4.25764 Y-2.84101
G01 X-4.25901 Y-2.83602
G01 X-4.26071 Y-2.83197
G01 X-4.23783 Y-2.83197
G01 X-4.23069 Y-2.83857
G01 X-4.20970 Y-2.85953
G01 X-4.18614 Y-2.85953
G01 X-4.18527 Y-2.85743
G01 X-4.18614 Y-2.85953
G01 X-4.04340 Y-3.00213
G01 X-4.03875 Y-3.00605
G01 X-4.03348 Y-3.00972
G01 X-4.02939 Y-3.01208
G01 X-4.02325 Y-3.01503
G01 X-4.01800 Y-3.01703
G01 X-4.01179 Y-3.01873
G01 X-4.00740 Y-3.01966
G01 X-4.00255 Y-3.02026
G01 X-3.99580 Y-3.02062
G01 X-3.71272 Y-3.02062
G01 X-3.71225 Y-3.01920
G01 X-3.71272 Y-3.02062
G01 X-3.70563 Y-3.02632
G01 X-3.70109 Y-3.02941
G01 X-3.69458 Y-3.03325
G01 X-3.69074 Y-3.03522
G01 X-3.68196 Y-3.03888
G01 X-3.67711 Y-3.04046
G01 X-3.66979 Y-3.04233
G01 X-3.66595 Y-3.04311
G01 X-3.65727 Y-3.04413
G01 X-3.65336 Y-3.04441
G01 X-3.64650 Y-3.04440
G01 X-3.64040 Y-3.04397
G01 X-3.63360 Y-3.04301
G01 X-3.62948 Y-3.04220
G01 X-3.62448 Y-3.04095
G01 X-3.61871 Y-3.03913
G01 X-3.61261 Y-3.03675
G01 X-3.60889 Y-3.03502
G01 X-3.60037 Y-3.03037
G01 X-3.59395 Y-3.02604
G01 X-3.58914 Y-3.02224
G01 X-3.58605 Y-3.01951
G01 X-3.58640 Y-3.01882
G01 X-3.58605 Y-3.01951
G01 X-3.58015 Y-3.01821
G01 X-3.57364 Y-3.01611
G01 X-3.56884 Y-3.01410
G01 X-3.56346 Y-3.01136
G01 X-3.55837 Y-3.00813
G01 X-3.55449 Y-3.00528
G01 X-3.55023 Y-3.00160
G01 X-3.47607 Y-2.92752
G01 X-3.47650 Y-2.92680
G01 X-3.47607 Y-2.92752
G01 X-3.47240 Y-2.92640
G01 X-3.47105 Y-2.90526
G01 X-3.47000 Y-2.89489
G01 X-3.46978 Y-2.89475
G01 X-3.47000 Y-2.89489
G01 X-3.47103 Y-2.90502
G01 X-3.47214 Y-2.92127
G01 X-3.47307 Y-2.94369
G01 X-3.47334 Y-2.95401
G01 X-3.47299 Y-2.95741
G01 X-3.47310 Y-2.95743
G01 X-3.47299 Y-2.95741
G01 X-3.46687 Y-2.98382
G01 X-3.46399 Y-2.99338
G01 X-3.49042 Y-3.01981
G01 X-3.51925 Y-3.03162
G01 X-3.53617 Y-3.03737
G01 X-3.55080 Y-3.04124
G01 X-3.57083 Y-3.04507
G01 X-3.57620 Y-3.04687
G01 X-3.57549 Y-3.04664
G01 X-3.57335 Y-3.04492
G01 X-3.57354 Y-3.04459
G01 X-3.57335 Y-3.04492
G01 X-3.57205 Y-3.04457
G01 X-3.56365 Y-3.04180
G01 X-3.55846 Y-3.03967
G01 X-3.55268 Y-3.03685
G01 X-3.54916 Y-3.03492
G01 X-3.54541 Y-3.03261
G01 X-3.54075 Y-3.02944
G01 X-3.53693 Y-3.02652
G01 X-3.53237 Y-3.02261
G01 X-3.52928 Y-3.01969
G01 X-3.47186 Y-2.96228
G01 X-3.46685 Y-2.98382
G01 X-3.46110 Y-3.00287
G01 X-3.46516 Y-3.00509
G01 X-3.47688 Y-3.01195
G01 X-3.48690 Y-3.01835
G01 X-3.51205 Y-3.02877
G01 X-3.52097 Y-3.03226
G01 X-3.53458 Y-3.03689
G01 X-3.54922 Y-3.04087
G01 X-3.56343 Y-3.04375
G01 X-3.56865 Y-3.04458
G01 X-3.57082 Y-3.04510
G01 X-3.57912 Y-3.04778
G01 X-3.58916 Y-3.05061
G01 X-3.59438 Y-3.05192
G01 X-3.60397 Y-3.05405
G01 X-3.61318 Y-3.05571
G01 X-3.62412 Y-3.05719
G01 X-3.63322 Y-3.05803
G01 X-3.63972 Y-3.05841
G01 X-3.65121 Y-3.05864
G01 X-3.66490 Y-3.05813
G01 X-3.67637 Y-3.05711
G01 X-3.68148 Y-3.05647
G01 X-3.69328 Y-3.05456
G01 X-3.69840 Y-3.05355
G01 X-3.71073 Y-3.05064
G01 X-3.72255 Y-3.04728
G01 X-3.72642 Y-3.04672
G01 X-3.72640 Y-3.04654
G01 X-3.72642 Y-3.04672
G01 X-3.99402 Y-3.04672
G01 X-3.99939 Y-3.04431
G01 X-4.01506 Y-3.03616
G01 X-4.02875 Y-3.02747
G01 X-4.04156 Y-3.01772
G01 X-4.04827 Y-3.01180
G01 X-4.05311 Y-3.00715
G01 X-4.18638 Y-2.87389
G01 X-4.18630 Y-2.87378
G01 X-4.18638 Y-2.87389
G01 X-4.18847 Y-2.87217
G01 X-4.19085 Y-2.87090
G01 X-4.19079 Y-2.87078
G01 X-4.19085 Y-2.87090
G01 X-4.20360 Y-2.86562
G01 X-4.23069 Y-2.83857
G01 X-4.23783 Y-2.83197
G01 X-4.17472 Y-2.83197
G01 X-4.02573 Y-2.98095
G01 X-4.02215 Y-2.98405
G01 X-4.01819 Y-2.98678
G01 X-4.01249 Y-2.98965
G01 X-4.00924 Y-2.99090
G01 X-4.00271 Y-2.99250
G01 X-3.99580 Y-2.99306
G01 X-3.70119 Y-2.99306
G01 X-3.69547 Y-2.99908
G01 X-3.68932 Y-3.00411
G01 X-3.68674 Y-3.00589
G01 X-3.67986 Y-3.00988
G01 X-3.67254 Y-3.01297
G01 X-3.66918 Y-3.01406
G01 X-3.66146 Y-3.01592
G01 X-3.65308 Y-3.01683
G01 X-3.64734 Y-3.01686
G01 X-3.64108 Y-3.01630
G01 X-3.63710 Y-3.01565
G01 X-3.63276 Y-3.01464
G01 X-3.62660 Y-3.01267
G01 X-3.62187 Y-3.01070
G01 X-3.61591 Y-3.00752
G01 X-3.61392 Y-3.00635
G01 X-3.61031 Y-3.00386
G01 X-3.60619 Y-3.00057
G01 X-3.60327 Y-2.99787
G01 X-3.59879 Y-2.99306
G01 X-3.59261 Y-2.99266
G01 X-3.58864 Y-2.99192
G01 X-3.58594 Y-2.99119
G01 X-3.58213 Y-2.98986
G01 X-3.57849 Y-2.98814
G01 X-3.57638 Y-2.98698
G01 X-3.57335 Y-2.98499
G01 X-3.57112 Y-2.98328
G01 X-3.56798 Y-2.98045
G01 X-3.48995 Y-2.90242
G01 X-3.48599 Y-2.90166
G01 X-3.48038 Y-2.89998
G01 X-3.47535 Y-2.89788
G01 X-3.46978 Y-2.89475
G01 X-3.46519 Y-2.89148
G01 X-3.46072 Y-2.88745
G01 X-3.45698 Y-2.88326
G01 X-3.45440 Y-2.87978
G01 X-3.45305 Y-2.87761
G01 X-3.45273 Y-2.88038
G01 X-3.45210 Y-2.88311
G01 X-3.45120 Y-2.88577
G01 X-3.44985 Y-2.88867
G01 X-3.44839 Y-2.89107
G01 X-3.44670 Y-2.89330
G01 X-3.44479 Y-2.89536
G01 X-3.44253 Y-2.89732
G01 X-3.44397 Y-2.91236
G01 X-3.44489 Y-2.92819
G01 X-3.44575 Y-2.95285
G01 X-3.44503 Y-2.95595
G01 X-3.44034 Y-2.95694
G01 X-3.43559 Y-2.95766
G01 X-3.43080 Y-2.95810
G01 X-3.42599 Y-2.95827
G01 X-3.38057 Y-2.95827
G01 X-3.37971 Y-2.95618
G01 X-3.38057 Y-2.95827
G01 X-3.37062 Y-2.96822
G01 X-3.36960 Y-2.96767
G01 X-3.37062 Y-2.96822
G01 X-3.36978 Y-2.97328
G01 X-3.36895 Y-2.97718
G01 X-3.36622 Y-2.98720
G01 X-3.36263 Y-2.99695
G01 X-3.35786 Y-3.00706
G01 X-3.35303 Y-3.01535
G01 X-3.35085 Y-3.01869
G01 X-3.34818 Y-3.02239
G01 X-3.34704 Y-3.02205
G01 X-3.34818 Y-3.02239
G01 X-3.34818 Y-3.04335
G01 X-3.34218 Y-3.05053
G01 X-3.33462 Y-3.06038
G01 X-3.33237 Y-3.06352
G01 X-3.32376 Y-3.07639
G01 X-3.31885 Y-3.08467
G01 X-3.32591 Y-3.07305
G01 X-3.33214 Y-3.06385
G01 X-3.34218 Y-3.05053
G01 X-3.34522 Y-3.04679
G01 X-3.35451 Y-3.03600
G01 X-3.36790 Y-3.02183
G01 X-3.36772 Y-3.02161
G01 X-3.36790 Y-3.02183
G01 X-3.37093 Y-3.01954
G01 X-3.37627 Y-3.01654
G01 X-3.39118 Y-3.00752
G01 X-3.40488 Y-2.99835
G01 X-3.40733 Y-2.99699
G01 X-3.40714 Y-2.99655
G01 X-3.40733 Y-2.99699
G01 X-3.40999 Y-2.99615
G01 X-3.41278 Y-2.99587
G01 X-3.41276 Y-2.99572
G01 X-3.41278 Y-2.99587
G01 X-3.43439 Y-2.99601
G01 X-3.44011 Y-2.97714
G01 X-3.44503 Y-2.95595
G01 X-3.44011 Y-2.97714
G01 X-3.43768 Y-2.98516
G01 X-3.43240 Y-2.98562
G01 X-3.42719 Y-2.98582
G01 X-3.39519 Y-2.98583
G01 X-3.39100 Y-2.98027
G01 X-3.39519 Y-2.98583
G01 X-3.39350 Y-2.99220
G01 X-3.39197 Y-2.99709
G01 X-3.38913 Y-3.00492
G01 X-3.38694 Y-3.01017
G01 X-3.39118 Y-3.00752
G01 X-3.40488 Y-2.99835
G01 X-3.40733 Y-2.99699
G01 X-3.40999 Y-2.99615
G01 X-3.41278 Y-2.99587
G01 X-3.43439 Y-2.99601
G01 X-3.44011 Y-2.97714
G01 X-3.44575 Y-2.95285
G01 X-3.44463 Y-2.92290
G01 X-3.44359 Y-2.90756
G01 X-3.44253 Y-2.89732
G01 X-3.44479 Y-2.89536
G01 X-3.44670 Y-2.89330
G01 X-3.44839 Y-2.89107
G01 X-3.44985 Y-2.88867
G01 X-3.45105 Y-2.88614
G01 X-3.45199 Y-2.88349
G01 X-3.45266 Y-2.88077
G01 X-3.45307 Y-2.87769
G01 X-3.45120 Y-2.86973
G01 X-3.44998 Y-2.86223
G01 X-3.44946 Y-2.85680
G01 X-3.44923 Y-2.84860
G01 X-3.44955 Y-2.84203
G01 X-3.45028 Y-2.83561
G01 X-3.45141 Y-2.82927
G01 X-3.45307 Y-2.82235
G01 X-3.45266 Y-2.81923
G01 X-3.45187 Y-2.81612
G01 X-3.45057 Y-2.81276
G01 X-3.44990 Y-2.81142
G01 X-3.44955 Y-2.81121
G01 X-3.44990 Y-2.81142
G01 X-3.45057 Y-2.81276
G01 X-3.45187 Y-2.81612
G01 X-3.45266 Y-2.81923
G01 X-3.45307 Y-2.82235
G01 X-3.45141 Y-2.82927
G01 X-3.45028 Y-2.83561
G01 X-3.44955 Y-2.84203
G01 X-3.44923 Y-2.84860
G01 X-3.44946 Y-2.85680
G01 X-3.44998 Y-2.86223
G01 X-3.45120 Y-2.86973
G01 X-3.45307 Y-2.87769
G01 X-3.45266 Y-2.88077
G01 X-3.45199 Y-2.88349
G01 X-3.45105 Y-2.88614
G01 X-3.44985 Y-2.88867
G01 X-3.44839 Y-2.89107
G01 X-3.44670 Y-2.89330
G01 X-3.44479 Y-2.89536
G01 X-3.44253 Y-2.89732
G01 X-3.44397 Y-2.91236
G01 X-3.44484 Y-2.92724
G01 X-3.44063 Y-2.92862
G01 X-3.43595 Y-2.92973
G01 X-3.43119 Y-2.93042
G01 X-3.42639 Y-2.93070
G01 X-3.37201 Y-2.93066
G01 X-3.36939 Y-2.93048
G01 X-3.36852 Y-2.92836
G01 X-3.36939 Y-2.93048
G01 X-3.34425 Y-2.95562
G01 X-3.34288 Y-2.95494
G01 X-3.34425 Y-2.95562
G01 X-3.34382 Y-2.96101
G01 X-3.34277 Y-2.96781
G01 X-3.34199 Y-2.97141
G01 X-3.34033 Y-2.97765
G01 X-3.33716 Y-2.98642
G01 X-3.33295 Y-2.99520
G01 X-3.32786 Y-3.00349
G01 X-3.32351 Y-3.00933
G01 X-3.32062 Y-3.01269
G01 X-3.31917 Y-3.01221
G01 X-3.32062 Y-3.01269
G01 X-3.32062 Y-3.08171
G01 X-3.31672 Y-3.08851
G01 X-3.31139 Y-3.09901
G01 X-3.30686 Y-3.10933
G01 X-3.30317 Y-3.11921
G01 X-3.30013 Y-3.12912
G01 X-3.29867 Y-3.13490
G01 X-3.29685 Y-3.14356
G01 X-3.29532 Y-3.15427
G01 X-3.29514 Y-3.15426
G01 X-3.29532 Y-3.15427
G01 X-3.29529 Y-3.15697
G01 X-3.29579 Y-3.15963
G01 X-3.29563 Y-3.15966
G01 X-3.29579 Y-3.15963
G01 X-3.29833 Y-3.16765
G01 X-3.33270 Y-3.20201
G01 X-3.33743 Y-3.20740
G01 X-3.34532 Y-3.21061
G01 X-3.45432 Y-3.21064
G01 X-3.45824 Y-3.21214
G01 X-3.46393 Y-3.21464
G01 X-3.46811 Y-3.22038
G01 X-3.46999 Y-3.22360
G01 X-3.47297 Y-3.22989
G01 X-3.47528 Y-3.23727
G01 X-3.47643 Y-3.24413
G01 X-3.47669 Y-3.24760
G01 X-3.47658 Y-3.25456
G01 X-3.47555 Y-3.26144
G01 X-3.47470 Y-3.26481
G01 X-3.47315 Y-3.26959
G01 X-3.47213 Y-3.27210
G01 X-3.46895 Y-3.27829
G01 X-3.46476 Y-3.28432
G01 X-3.46394 Y-3.28535
G01 X-3.45760 Y-3.28812
G01 X-3.45432 Y-3.28937
G01 X-3.34531 Y-3.28937
G01 X-3.34127 Y-3.29091
G01 X-3.33638 Y-3.29305
G01 X-3.31857 Y-3.29303
G01 X-3.31505 Y-3.29276
G01 X-3.31065 Y-3.29205
G01 X-3.30824 Y-3.29148
G01 X-3.30179 Y-3.28910
G01 X-3.29956 Y-3.28801
G01 X-3.29842 Y-3.28719
G01 X-3.29910 Y-3.28768
G01 X-3.32530 Y-3.31388
G01 X-3.32739 Y-3.32099
G01 X-3.32923 Y-3.32619
G01 X-3.33119 Y-3.33094
G01 X-3.33312 Y-3.33506
G01 X-3.33525 Y-3.33908
G01 X-3.33812 Y-3.34386
G01 X-3.34175 Y-3.34906
G01 X-3.34488 Y-3.35297
G01 X-3.34923 Y-3.35769
G01 X-3.35308 Y-3.36130
G01 X-3.35788 Y-3.36523
G01 X-3.36201 Y-3.36817
G01 X-3.36992 Y-3.36936
G01 X-3.37722 Y-3.36979
G01 X-3.42176 Y-3.36980
G01 X-3.42828 Y-3.36953
G01 X-3.43360 Y-3.36892
G01 X-3.44043 Y-3.36764
G01 X-3.44632 Y-3.36609
G01 X-3.45275 Y-3.36389
G01 X-3.67244 Y-3.36387
G01 X-3.67771 Y-3.36359
G01 X-3.68242 Y-3.36300
G01 X-3.71942 Y-3.35648
G01 X-3.72803 Y-3.35834
G01 X-3.73587 Y-3.35950
G01 X-3.74436 Y-3.36020
G01 X-3.75135 Y-3.36034
G01 X-3.75867 Y-3.36003
G01 X-3.76578 Y-3.35930
G01 X-3.77365 Y-3.35803
G01 X-3.78333 Y-3.35574
G01 X-3.79043 Y-3.35574
G01 X-3.78834 Y-3.35245
G01 X-3.78881 Y-3.35040
G01 X-3.78835 Y-3.35240
G01 X-3.78333 Y-3.35574
G01 X-3.78835 Y-3.35240
G01 X-3.79033 Y-3.34485
G01 X-3.79542 Y-3.33025
G01 X-3.79751 Y-3.32229
G01 X-3.79893 Y-3.31458
G01 X-3.79975 Y-3.30702
G01 X-3.79999 Y-3.29939
G01 X-3.79984 Y-3.29449
G01 X-3.79940 Y-3.28909
G01 X-3.79866 Y-3.28368
G01 X-3.79770 Y-3.27858
G01 X-3.79676 Y-3.27458
G01 X-3.79529 Y-3.26935
G01 X-3.79042 Y-3.25546
G01 X-3.78833 Y-3.24757
G01 X-3.78957 Y-3.24548
G01 X-3.79098 Y-3.24354
G01 X-3.79398 Y-3.24031
G01 X-3.79582 Y-3.23876
G01 X-3.79779 Y-3.23739
G01 X-3.79987 Y-3.23618
G01 X-3.80205 Y-3.23517
G01 X-3.80469 Y-3.23423
G01 X-3.80702 Y-3.23364
G01 X-3.80980 Y-3.23321
G01 X-3.81220 Y-3.23307
G01 X-3.88740 Y-3.23307
G01 X-3.89060 Y-3.23326
G01 X-3.89297 Y-3.23364
G01 X-3.89531 Y-3.23423
G01 X-3.89941 Y-3.23582
G01 X-3.90321 Y-3.23805
G01 X-3.90660 Y-3.24086
G01 X-3.90951 Y-3.24417
G01 X-3.91086 Y-3.24616
G01 X-3.91203 Y-3.24826
G01 X-3.91369 Y-3.25234
G01 X-3.91431 Y-3.25467
G01 X-3.91471 Y-3.25694
G01 X-3.98529 Y-3.25694
G01 X-3.98608 Y-3.25311
G01 X-3.98762 Y-3.24898
G01 X-3.98979 Y-3.24515
G01 X-3.99228 Y-3.24201
G01 X-3.99519 Y-3.23926
G01 X-3.99882 Y-3.23676
G01 X-4.00242 Y-3.23502
G01 X-4.00663 Y-3.23372
G01 X-4.00980 Y-3.23321
G01 X-4.01260 Y-3.23307
G01 X-4.08740 Y-3.23307
G01 X-4.09060 Y-3.23326
G01 X-4.09376 Y-3.23381
G01 X-4.09683 Y-3.23473
G01 X-4.10013 Y-3.23618
G01 X-4.10288 Y-3.23783
G01 X-4.10542 Y-3.23978
G01 X-4.10772 Y-3.24201
G01 X-4.10974 Y-3.24450
G01 X-4.11166 Y-3.24755
G01 X-4.10991 Y-3.25435
G01 X-4.10907 Y-3.25703
G01 X-4.10553 Y-3.26676
G01 X-4.10377 Y-3.27257
G01 X-4.10246 Y-3.27781
G01 X-4.10140 Y-3.28334
G01 X-4.10054 Y-3.28969
G01 X-4.10013 Y-3.29505
G01 X-4.10001 Y-3.29906
G01 X-4.10015 Y-3.30534
G01 X-4.10065 Y-3.31132
G01 X-4.10181 Y-3.31896
G01 X-4.10321 Y-3.32529
G01 X-4.10520 Y-3.33223
G01 X-4.10925 Y-3.34352
G01 X-4.11022 Y-3.34670
G01 X-4.11167 Y-3.35240
G01 X-4.11421 Y-3.35419
G01 X-4.11944 Y-3.35732
G01 X-4.12728 Y-3.36086
G01 X-4.12866 Y-3.37053
G01 X-4.12976 Y-3.38031
G01 X-4.13127 Y-3.39762
G01 X-4.13215 Y-3.41003
G01 X-4.13436 Y-3.44926
G01 X-4.13556 Y-3.47607
G01 X-4.14512 Y-3.47856
G01 X-4.15408 Y-3.48028
G01 X-4.16435 Y-3.48161
G01 X-4.17432 Y-3.48220
G01 X-4.41697 Y-3.48228
G01 X-4.41703 Y-3.48190
G01 X-4.41697 Y-3.48228
G01 X-4.42239 Y-3.48433
G01 X-4.42985 Y-3.48682
G01 X-4.43562 Y-3.48848
G01 X-4.44784 Y-3.49125
G01 X-4.45338 Y-3.49219
G01 X-4.45896 Y-3.49291
G01 X-4.46860 Y-3.49376
G01 X-4.47578 Y-3.49407
G01 X-4.52749 Y-3.49399
G01 X-4.53710 Y-3.49335
G01 X-4.54460 Y-3.49249
G01 X-4.55412 Y-3.49087
G01 X-4.56197 Y-3.48909
G01 X-4.57037 Y-3.48675
G01 X-4.57800 Y-3.48418
G01 X-4.58703 Y-3.48062
G01 X-4.59602 Y-3.47641
G01 X-4.60313 Y-3.47262
G01 X-4.61139 Y-3.46762
G01 X-4.61731 Y-3.46360
G01 X-4.62500 Y-3.45782
G01 X-4.63231 Y-3.45158
G01 X-4.63753 Y-3.44669
G01 X-4.64421 Y-3.43973
G01 X-4.64947 Y-3.43363
G01 X-4.65530 Y-3.42610
G01 X-4.66009 Y-3.41913
G01 X-4.66513 Y-3.41094
G01 X-4.67002 Y-3.40172
G01 X-4.67339 Y-3.39441
G01 X-4.67721 Y-3.38481
G01 X-4.68033 Y-3.37519
G01 X-4.68239 Y-3.36752
G01 X-4.68478 Y-3.35576
G01 X-4.68623 Y-3.34466
G01 X-4.68688 Y-3.33480
G01 X-4.68699 Y-3.32791
G01 X-4.68688 Y-3.32231
G01 X-4.68655 Y-3.31672
G01 X-4.68574 Y-3.30835
G01 X-4.67995 Y-3.30622
G01 X-4.73187 Y-3.32497
G01 X-4.76942 Y-3.33989
G01 X-4.76901 Y-3.34706
G01 X-4.76832 Y-3.35460
G01 X-4.76724 Y-3.36341
G01 X-4.76585 Y-3.37215
G01 X-4.76298 Y-3.38599
G01 X-4.75956 Y-3.39881
G01 X-4.75728 Y-3.40618
G01 X-4.75491 Y-3.41306
G01 X-4.75247 Y-3.41948
G01 X-4.74929 Y-3.42720
G01 X-4.74649 Y-3.43347
G01 X-4.74368 Y-3.43929
G01 X-4.73975 Y-3.44684
G01 X-4.73662 Y-3.45247
G01 X-4.73291 Y-3.45868
G01 X-4.72877 Y-3.46517
G01 X-4.72163 Y-3.47546
G01 X-4.71251 Y-3.48714
G01 X-4.70399 Y-3.49686
G01 X-4.69841 Y-3.50273
G01 X-4.69355 Y-3.50755
G01 X-4.68884 Y-3.51194
G01 X-4.68247 Y-3.51756
G01 X-4.67721 Y-3.52193
G01 X-4.67214 Y-3.52589
G01 X-4.66529 Y-3.53093
G01 X-4.66001 Y-3.53460
G01 X-4.65461 Y-3.53811
G01 X-4.64735 Y-3.54254
G01 X-4.63604 Y-3.54881
G01 X-4.62674 Y-3.55339
G01 X-4.61900 Y-3.55687
G01 X-4.61151 Y-3.55990
G01 X-4.60161 Y-3.56353
G01 X-4.59276 Y-3.56635
G01 X-4.58316 Y-3.56901
G01 X-4.57491 Y-3.57099
G01 X-4.56619 Y-3.57272
G01 X-4.55740 Y-3.57418
G01 X-4.54982 Y-3.57516
G01 X-4.54017 Y-3.57606
G01 X-4.53305 Y-3.57651
G01 X-4.52354 Y-3.57675
G01 X-4.47781 Y-3.57677
G01 X-4.46932 Y-3.57660
G01 X-4.46045 Y-3.57606
G01 X-4.44841 Y-3.57492
G01 X-4.43891 Y-3.57362
G01 X-4.42948 Y-3.57190
G01 X-4.41806 Y-3.56932
G01 X-4.40726 Y-3.56636
G01 X-4.40275 Y-3.56495
G01 X-4.40279 Y-3.56469
G01 X-4.40275 Y-3.56495
G01 X-4.17711 Y-3.56492
G01 X-4.16794 Y-3.56471
G01 X-4.15920 Y-3.56415
G01 X-4.14771 Y-3.56289
G01 X-4.14061 Y-3.56185
G01 X-4.13338 Y-3.56057
G01 X-4.13408 Y-3.54779
G01 X-4.13187 Y-3.58832
G01 X-4.14349 Y-3.59013
G01 X-4.15306 Y-3.59126
G01 X-4.16386 Y-3.59210
G01 X-4.17389 Y-3.59245
G01 X-4.39852 Y-3.59251
G01 X-4.39855 Y-3.59227
G01 X-4.39852 Y-3.59251
G01 X-4.40037 Y-3.59307
G01 X-4.41079 Y-3.59591
G01 X-4.42103 Y-3.59828
G01 X-4.42968 Y-3.60000
G01 X-4.57019 Y-3.60000
G01 X-4.57910 Y-3.59828
G01 X-4.58766 Y-3.59630
G01 X-4.59798 Y-3.59353
G01 X-4.60716 Y-3.59073
G01 X-4.61472 Y-3.58813
G01 X-4.62375 Y-3.58471
G01 X-4.63113 Y-3.58165
G01 X-4.63842 Y-3.57835
G01 X-4.64729 Y-3.57401
G01 X-4.65471 Y-3.57008
G01 X-4.66165 Y-3.56610
G01 X-4.66992 Y-3.56104
G01 X-4.67633 Y-3.55683
G01 X-4.68325 Y-3.55196
G01 X-4.69039 Y-3.54663
G01 X-4.69732 Y-3.54108
G01 X-4.70499 Y-3.53447
G01 X-4.71065 Y-3.52931
G01 X-4.71643 Y-3.52370
G01 X-4.72262 Y-3.51728
G01 X-4.72935 Y-3.50989
G01 X-4.73651 Y-3.50129
G01 X-4.74400 Y-3.49156
G01 X-4.75065 Y-3.48206
G01 X-4.75695 Y-3.47220
G01 X-4.76243 Y-3.46280
G01 X-4.76844 Y-3.45137
G01 X-4.77323 Y-3.44125
G01 X-4.77827 Y-3.42919
G01 X-4.78189 Y-3.41945
G01 X-4.78582 Y-3.40720
G01 X-4.78863 Y-3.39710
G01 X-4.79102 Y-3.38689
G01 X-4.79347 Y-3.37418
G01 X-4.79504 Y-3.36341
G01 X-4.79634 Y-3.35108
G01 X-4.82286 Y-3.36278
G01 X-4.82168 Y-3.37209
G01 X-4.82017 Y-3.38151
G01 X-4.81808 Y-3.39211
G01 X-4.81625 Y-3.40025
G01 X-4.81385 Y-3.40948
G01 X-4.81100 Y-3.41910
G01 X-4.80839 Y-3.42714
G01 X-4.80539 Y-3.43547
G01 X-4.80110 Y-3.44619
G01 X-4.79757 Y-3.45431
G01 X-4.79343 Y-3.46303
G01 X-4.78917 Y-3.47129
G01 X-4.78497 Y-3.47896
G01 X-4.78052 Y-3.48649
G01 X-4.77515 Y-3.49496
G01 X-4.77020 Y-3.50230
G01 X-4.76478 Y-3.50981
G01 X-4.75820 Y-3.51830
G01 X-4.75258 Y-3.52514
G01 X-4.74701 Y-3.53150
G01 X-4.73930 Y-3.53974
G01 X-4.73313 Y-3.54594
G01 X-4.72678 Y-3.55194
G01 X-4.71899 Y-3.55885
G01 X-4.71259 Y-3.56421
G01 X-4.70571 Y-3.56961
G01 X-4.69700 Y-3.57601
G01 X-4.68948 Y-3.58120
G01 X-4.68212 Y-3.58592
G01 X-4.67279 Y-3.59152
G01 X-4.66541 Y-3.59564
G01 X-4.65695 Y-3.60000
G01 X-4.66399 Y-3.59639
G01 X-4.67034 Y-3.59292
G01 X-4.68414 Y-3.58466
G01 X-4.69603 Y-3.57670
G01 X-4.70854 Y-3.56742
G01 X-4.71959 Y-3.55833
G01 X-4.73142 Y-3.54760
G01 X-4.73680 Y-3.54230
G01 X-4.74264 Y-3.53622
G01 X-4.75180 Y-3.52606
G01 X-4.75694 Y-3.51987
G01 X-4.76209 Y-3.51333
G01 X-4.77020 Y-3.50230
G01 X-4.77905 Y-3.48885
G01 X-4.78614 Y-3.47688
G01 X-4.79343 Y-3.46303
G01 X-4.79953 Y-3.44989
G01 X-4.80567 Y-3.43472
G01 X-4.80813 Y-3.42790
G01 X-4.81052 Y-3.42064
G01 X-4.81468 Y-3.40642
G01 X-4.81792 Y-3.39289
G01 X-4.82078 Y-3.37798
G01 X-4.82190 Y-3.37052
G01 X-4.82286 Y-3.36278
G01 X-4.78219 Y-3.34495
G01 X-4.74210 Y-3.32904
G01 X-4.78219 Y-3.34495
G01 X-4.78911 Y-3.34790
G01 X-4.82313 Y-3.36290
G01 X-4.84909 Y-3.37511
G01 X-4.84731 Y-3.38632
G01 X-4.84490 Y-3.39851
G01 X-4.84248 Y-3.40899
G01 X-4.83968 Y-3.41939
G01 X-4.83581 Y-3.43204
G01 X-4.83228 Y-3.44222
G01 X-4.82824 Y-3.45264
G01 X-4.82313 Y-3.46467
G01 X-4.81837 Y-3.47477
G01 X-4.81266 Y-3.48582
G01 X-4.80720 Y-3.49556
G01 X-4.80140 Y-3.50509
G01 X-4.79481 Y-3.51516
G01 X-4.78859 Y-3.52396
G01 X-4.78040 Y-3.53465
G01 X-4.77332 Y-3.54329
G01 X-4.76673 Y-3.55078
G01 X-4.75903 Y-3.55898
G01 X-4.75228 Y-3.56576
G01 X-4.74474 Y-3.57286
G01 X-4.73602 Y-3.58055
G01 X-4.72803 Y-3.58716
G01 X-4.72014 Y-3.59324
G01 X-4.71082 Y-3.60000
G01 X-4.13124 Y-3.60000
G01 X-4.13408 Y-3.54779
G01 X-4.13644 Y-3.50046
G01 X-4.13485 Y-3.53273
G01 X-4.14402 Y-3.53448
G01 X-4.15353 Y-3.53586
G01 X-4.16510 Y-3.53696
G01 X-4.17671 Y-3.53736
G01 X-4.40723 Y-3.53740
G01 X-4.40728 Y-3.53710
G01 X-4.40723 Y-3.53740
G01 X-4.41530 Y-3.54000
G01 X-4.42146 Y-3.54174
G01 X-4.42767 Y-3.54328
G01 X-4.43440 Y-3.54477
G01 X-4.44105 Y-3.54603
G01 X-4.44774 Y-3.54706
G01 X-4.45406 Y-3.54781
G01 X-4.46532 Y-3.54879
G01 X-4.47457 Y-3.54918
G01 X-4.52594 Y-3.54917
G01 X-4.53513 Y-3.54879
G01 X-4.54597 Y-3.54786
G01 X-4.55472 Y-3.54671
G01 X-4.56543 Y-3.54482
G01 X-4.57442 Y-3.54279
G01 X-4.58513 Y-3.53987
G01 X-4.59352 Y-3.53716
G01 X-4.60372 Y-3.53336
G01 X-4.61293 Y-3.52942
G01 X-4.62291 Y-3.52457
G01 X-4.63066 Y-3.52037
G01 X-4.63930 Y-3.51518
G01 X-4.64701 Y-3.51010
G01 X-4.65548 Y-3.50393
G01 X-4.66208 Y-3.49870
G01 X-4.66940 Y-3.49236
G01 X-4.67755 Y-3.48463
G01 X-4.68612 Y-3.47556
G01 X-4.69262 Y-3.46793
G01 X-4.70012 Y-3.45818
G01 X-4.70581 Y-3.44993
G01 X-4.71259 Y-3.43897
G01 X-4.71851 Y-3.42798
G01 X-4.72283 Y-3.41894
G01 X-4.72739 Y-3.40794
G01 X-4.73091 Y-3.39814
G01 X-4.73440 Y-3.38657
G01 X-4.73689 Y-3.37644
G01 X-4.73932 Y-3.36378
G01 X-4.74094 Y-3.35140
G01 X-4.74180 Y-3.34063
G01 X-4.74210 Y-3.32904
G01 X-4.73187 Y-3.32497
G01 X-4.67148 Y-3.30317
G01 X-4.62888 Y-3.30315
G01 X-4.65703 Y-3.30318
G01 X-4.65838 Y-3.31158
G01 X-4.65925 Y-3.32141
G01 X-4.65942 Y-3.32900
G01 X-4.65906 Y-3.33908
G01 X-4.65789 Y-3.34940
G01 X-4.65620 Y-3.35841
G01 X-4.65440 Y-3.36568
G01 X-4.65151 Y-3.37482
G01 X-4.64851 Y-3.38249
G01 X-4.64609 Y-3.38792
G01 X-4.64225 Y-3.39538
G01 X-4.63907 Y-3.40083
G01 X-4.63492 Y-3.40721
G01 X-4.63118 Y-3.41232
G01 X-4.62601 Y-3.41873
G01 X-4.62059 Y-3.42463
G01 X-4.61582 Y-3.42934
G01 X-4.60983 Y-3.43462
G01 X-4.60489 Y-3.43853
G01 X-4.59873 Y-3.44296
G01 X-4.59163 Y-3.44742
G01 X-4.58681 Y-3.45016
G01 X-4.57943 Y-3.45382
G01 X-4.57436 Y-3.45606
G01 X-4.56461 Y-3.45967
G01 X-4.55479 Y-3.46248
G01 X-4.54705 Y-3.46416
G01 X-4.53681 Y-3.46569
G01 X-4.52959 Y-3.46630
G01 X-4.52433 Y-3.46650
G01 X-4.47579 Y-3.46651
G01 X-4.46986 Y-3.46622
G01 X-4.45985 Y-3.46527
G01 X-4.45353 Y-3.46428
G01 X-4.44639 Y-3.46275
G01 X-4.43943 Y-3.46092
G01 X-4.43156 Y-3.45834
G01 X-4.42709 Y-3.45665
G01 X-4.42260 Y-3.45472
G01 X-4.42267 Y-3.45432
G01 X-4.42260 Y-3.45472
G01 X-4.17470 Y-3.45464
G01 X-4.16544 Y-3.45401
G01 X-4.15475 Y-3.45242
G01 X-4.14968 Y-3.45132
G01 X-4.14466 Y-3.45000
G01 X-4.13962 Y-3.44849
G01 X-4.13493 Y-3.44686
G01 X-4.13422 Y-3.44679
G01 X-4.13528 Y-3.46897
G01 X-4.13645 Y-3.49925
G01 X-4.13623 Y-3.50477
G01 X-4.14544 Y-3.50676
G01 X-4.15615 Y-3.50841
G01 X-4.16523 Y-3.50934
G01 X-4.17474 Y-3.50977
G01 X-4.41189 Y-3.50984
G01 X-4.41194 Y-3.50951
G01 X-4.41189 Y-3.50984
G01 X-4.41991 Y-3.51257
G01 X-4.42603 Y-3.51442
G01 X-4.43184 Y-3.51594
G01 X-4.43898 Y-3.51757
G01 X-4.44491 Y-3.51873
G01 X-4.45089 Y-3.51968
G01 X-4.45689 Y-3.52040
G01 X-4.46696 Y-3.52128
G01 X-4.47578 Y-3.52164
G01 X-4.52799 Y-3.52155
G01 X-4.53487 Y-3.52118
G01 X-4.54292 Y-3.52047
G01 X-4.54926 Y-3.51966
G01 X-4.55641 Y-3.51848
G01 X-4.56225 Y-3.51733
G01 X-4.56804 Y-3.51598
G01 X-4.57560 Y-3.51394
G01 X-4.58129 Y-3.51220
G01 X-4.58691 Y-3.51026
G01 X-4.59513 Y-3.50711
G01 X-4.60095 Y-3.50460
G01 X-4.60767 Y-3.50139
G01 X-4.61330 Y-3.49849
G01 X-4.61849 Y-3.49558
G01 X-4.62502 Y-3.49161
G01 X-4.63036 Y-3.48811
G01 X-4.63819 Y-3.48246
G01 X-4.64446 Y-3.47751
G01 X-4.65175 Y-3.47117
G01 X-4.65754 Y-3.46567
G01 X-4.66447 Y-3.45841
G01 X-4.66968 Y-3.45244
G01 X-4.67602 Y-3.44442
G01 X-4.68109 Y-3.43734
G01 X-4.68610 Y-3.42959
G01 X-4.69013 Y-3.42270
G01 X-4.69461 Y-3.41417
G01 X-4.69829 Y-3.40627
G01 X-4.70201 Y-3.39718
G01 X-4.70480 Y-3.38933
G01 X-4.70770 Y-3.37974
G01 X-4.70982 Y-3.37121
G01 X-4.71129 Y-3.36410
G01 X-4.71230 Y-3.35819
G01 X-4.71388 Y-3.34499
G01 X-4.71433 Y-3.33815
G01 X-4.71453 Y-3.33041
G01 X-4.71452 Y-3.32441
G01 X-4.71429 Y-3.31861
G01 X-4.67148 Y-3.30317
G01 X-4.57044 Y-3.30315
G01 X-4.60025 Y-3.30310
G01 X-4.60211 Y-3.30972
G01 X-4.60333 Y-3.31601
G01 X-4.60386 Y-3.32011
G01 X-4.60431 Y-3.32680
G01 X-4.60417 Y-3.33377
G01 X-4.60356 Y-3.33992
G01 X-4.60232 Y-3.34679
G01 X-4.60122 Y-3.35117
G01 X-4.59951 Y-3.35655
G01 X-4.59718 Y-3.36236
G01 X-4.59547 Y-3.36593
G01 X-4.59251 Y-3.37133
G01 X-4.58920 Y-3.37642
G01 X-4.58539 Y-3.38138
G01 X-4.58279 Y-3.38437
G01 X-4.57850 Y-3.38877
G01 X-4.57388 Y-3.39283
G01 X-4.56929 Y-3.39630
G01 X-4.56588 Y-3.39858
G01 X-4.56066 Y-3.40164
G01 X-4.55468 Y-3.40453
G01 X-4.54906 Y-3.40673
G01 X-4.54529 Y-3.40795
G01 X-4.53924 Y-3.40952
G01 X-4.53163 Y-3.41081
G01 X-4.52349 Y-3.41139
G01 X-4.47732 Y-3.41141
G01 X-4.46793 Y-3.41072
G01 X-4.46346 Y-3.41006
G01 X-4.45783 Y-3.40882
G01 X-4.45436 Y-3.40785
G01 X-4.44911 Y-3.40607
G01 X-4.44322 Y-3.40356
G01 X-4.43952 Y-3.40172
G01 X-4.43579 Y-3.39960
G01 X-4.43595 Y-3.39892
G01 X-4.43579 Y-3.39960
G01 X-4.17753 Y-3.39956
G01 X-4.17109 Y-3.39918
G01 X-4.16427 Y-3.39812
G01 X-4.15764 Y-3.39639
G01 X-4.15430 Y-3.39525
G01 X-4.14991 Y-3.39348
G01 X-4.14777 Y-3.39248
G01 X-4.14786 Y-3.39212
G01 X-4.14777 Y-3.39248
G01 X-4.14009 Y-3.39198
G01 X-4.13648 Y-3.39150
G01 X-4.13065 Y-3.39045
G01 X-4.12976 Y-3.38031
G01 X-4.12871 Y-3.37090
G01 X-4.12728 Y-3.36086
G01 X-4.12866 Y-3.37053
G01 X-4.12979 Y-3.38065
G01 X-4.13125 Y-3.39740
G01 X-4.13264 Y-3.41880
G01 X-4.13880 Y-3.41954
G01 X-4.14116 Y-3.41970
G01 X-4.14121 Y-3.41950
G01 X-4.14116 Y-3.41970
G01 X-4.14334 Y-3.42057
G01 X-4.14890 Y-3.42253
G01 X-4.15500 Y-3.42424
G01 X-4.15972 Y-3.42531
G01 X-4.16803 Y-3.42657
G01 X-4.17515 Y-3.42709
G01 X-4.42870 Y-3.42716
G01 X-4.42883 Y-3.42655
G01 X-4.42870 Y-3.42716
G01 X-4.43659 Y-3.43076
G01 X-4.44442 Y-3.43360
G01 X-4.44978 Y-3.43521
G01 X-4.45688 Y-3.43685
G01 X-4.46196 Y-3.43774
G01 X-4.47113 Y-3.43868
G01 X-4.47620 Y-3.43895
G01 X-4.52387 Y-3.43895
G01 X-4.52820 Y-3.43877
G01 X-4.53428 Y-3.43825
G01 X-4.54399 Y-3.43669
G01 X-4.55251 Y-3.43455
G01 X-4.55640 Y-3.43336
G01 X-4.56139 Y-3.43154
G01 X-4.56812 Y-3.42868
G01 X-4.57559 Y-3.42488
G01 X-4.58292 Y-3.42038
G01 X-4.59022 Y-3.41506
G01 X-4.59614 Y-3.40998
G01 X-4.60056 Y-3.40569
G01 X-4.60631 Y-3.39934
G01 X-4.61143 Y-3.39271
G01 X-4.61592 Y-3.38588
G01 X-4.62008 Y-3.37834
G01 X-4.62268 Y-3.37282
G01 X-4.62575 Y-3.36502
G01 X-4.62826 Y-3.35680
G01 X-4.63019 Y-3.34798
G01 X-4.63127 Y-3.34025
G01 X-4.63176 Y-3.33382
G01 X-4.63185 Y-3.32570
G01 X-4.63162 Y-3.32131
G01 X-4.63093 Y-3.31422
G01 X-4.62974 Y-3.30720
G01 X-4.62888 Y-3.30315
G01 X-4.57044 Y-3.30315
G01 X-4.56888 Y-3.30034
G01 X-4.56617 Y-3.29624
G01 X-4.56302 Y-3.29231
G01 X-4.56021 Y-3.28938
G01 X-4.56456 Y-3.28460
G01 X-4.56824 Y-3.27939
G01 X-4.56990 Y-3.27663
G01 X-4.57236 Y-3.27157
G01 X-4.57338 Y-3.26897
G01 X-4.57509 Y-3.26345
G01 X-4.57609 Y-3.25860
G01 X-4.57672 Y-3.25240
G01 X-4.57669 Y-3.24699
G01 X-4.57609 Y-3.24135
G01 X-4.57488 Y-3.23570
G01 X-4.57314 Y-3.23035
G01 X-4.57048 Y-3.22442
G01 X-4.56753 Y-3.21945
G01 X-4.56368 Y-3.21434
G01 X-4.56240 Y-3.21374
G01 X-4.56368 Y-3.21434
G01 X-4.56468 Y-3.21558
G01 X-4.56753 Y-3.21945
G01 X-4.57012 Y-3.22376
G01 X-4.57300 Y-3.22996
G01 X-4.57446 Y-3.23425
G01 X-4.57511 Y-3.23663
G01 X-4.60396 Y-3.25749
G01 X-4.60341 Y-3.26226
G01 X-4.60281 Y-3.26570
G01 X-4.60155 Y-3.27127
G01 X-4.60024 Y-3.27555
G01 X-4.60155 Y-3.27127
G01 X-4.60281 Y-3.26570
G01 X-4.60341 Y-3.26226
G01 X-4.60396 Y-3.25749
G01 X-4.62897 Y-3.27509
G01 X-4.62886 Y-3.27558
G01 X-4.62897 Y-3.27509
G01 X-4.62968 Y-3.27558
G01 X-4.57041 Y-3.27560
G01 X-4.56868 Y-3.27872
G01 X-4.56528 Y-3.28368
G01 X-4.56021 Y-3.28938
G01 X-4.56302 Y-3.29231
G01 X-4.56569 Y-3.29561
G01 X-4.56950 Y-3.30137
G01 X-4.57226 Y-3.30691
G01 X-4.57391 Y-3.31121
G01 X-4.57509 Y-3.31526
G01 X-4.57632 Y-3.32167
G01 X-4.57676 Y-3.32789
G01 X-4.57665 Y-3.33235
G01 X-4.57623 Y-3.33633
G01 X-4.57495 Y-3.34277
G01 X-4.57315 Y-3.34834
G01 X-4.57162 Y-3.35201
G01 X-4.56971 Y-3.35571
G01 X-4.56662 Y-3.36062
G01 X-4.56309 Y-3.36508
G01 X-4.55904 Y-3.36922
G01 X-4.55626 Y-3.37164
G01 X-4.55296 Y-3.37409
G01 X-4.54802 Y-3.37714
G01 X-4.54249 Y-3.37976
G01 X-4.53857 Y-3.38120
G01 X-4.53349 Y-3.38257
G01 X-4.52858 Y-3.38342
G01 X-4.52416 Y-3.38380
G01 X-4.47607 Y-3.38378
G01 X-4.46836 Y-3.38294
G01 X-4.46355 Y-3.38184
G01 X-4.45875 Y-3.38025
G01 X-4.45418 Y-3.37827
G01 X-4.45213 Y-3.37721
G01 X-4.44849 Y-3.37507
G01 X-4.44425 Y-3.37205
G01 X-4.17562 Y-3.37194
G01 X-4.17021 Y-3.37120
G01 X-4.16490 Y-3.36978
G01 X-4.15979 Y-3.36768
G01 X-4.15661 Y-3.36596
G01 X-4.15468 Y-3.36474
G01 X-4.14942 Y-3.36496
G01 X-4.14300 Y-3.36457
G01 X-4.13626 Y-3.36346
G01 X-4.13311 Y-3.36270
G01 X-4.12728 Y-3.36086
G01 X-4.12057 Y-3.35790
G01 X-4.11421 Y-3.35419
G01 X-4.11167 Y-3.35240
G01 X-4.10951 Y-3.35583
G01 X-4.10660 Y-3.35914
G01 X-4.10353 Y-3.36171
G01 X-4.09985 Y-3.36395
G01 X-4.10134 Y-3.37414
G01 X-4.10235 Y-3.38320
G01 X-4.10379 Y-3.39968
G01 X-4.10511 Y-3.42013
G01 X-4.10097 Y-3.42093
G01 X-4.09700 Y-3.42149
G01 X-4.09261 Y-3.42188
G01 X-4.08820 Y-3.42204
G01 X-4.01180 Y-3.42204
G01 X-4.00579 Y-3.42177
G01 X-4.00022 Y-3.42111
G01 X-3.99314 Y-3.41973
G01 X-3.98621 Y-3.41772
G01 X-3.97948 Y-3.41513
G01 X-3.97301 Y-3.41195
G01 X-3.96919 Y-3.40974
G01 X-3.96550 Y-3.40732
G01 X-3.96227 Y-3.40496
G01 X-3.95884 Y-3.40219
G01 X-3.95448 Y-3.39818
G01 X-3.95509 Y-3.39652
G01 X-3.95448 Y-3.39818
G01 X-3.94551 Y-3.39818
G01 X-3.94472 Y-3.39619
G01 X-3.94551 Y-3.39818
G01 X-3.94359 Y-3.40002
G01 X-3.94300 Y-3.39963
G01 X-3.94359 Y-3.40002
G01 X-3.94293 Y-3.40204
G01 X-3.94048 Y-3.40842
G01 X-3.93835 Y-3.41318
G01 X-3.93632 Y-3.41709
G01 X-3.93351 Y-3.42198
G01 X-3.93133 Y-3.42536
G01 X-3.92874 Y-3.42895
G01 X-3.92395 Y-3.43488
G01 X-3.92022 Y-3.43898
G01 X-3.89009 Y-3.46909
G01 X-3.88568 Y-3.47315
G01 X-3.87904 Y-3.47837
G01 X-3.87332 Y-3.48222
G01 X-3.86553 Y-3.48656
G01 X-3.85889 Y-3.48960
G01 X-3.85048 Y-3.49261
G01 X-3.84383 Y-3.49441
G01 X-3.83511 Y-3.49603
G01 X-3.82719 Y-3.49679
G01 X-3.34853 Y-3.49697
G01 X-3.34284 Y-3.49672
G01 X-3.33477 Y-3.49589
G01 X-3.32879 Y-3.49478
G01 X-3.32135 Y-3.49290
G01 X-3.31676 Y-3.49141
G01 X-3.31227 Y-3.48966
G01 X-3.30636 Y-3.48706
G01 X-3.30102 Y-3.48427
G01 X-3.29690 Y-3.48176
G01 X-3.29094 Y-3.47773
G01 X-3.28688 Y-3.47455
G01 X-3.28241 Y-3.47063
G01 X-3.09791 Y-3.28622
G01 X-3.09503 Y-3.28309
G01 X-3.09112 Y-3.27849
G01 X-3.08847 Y-3.27497
G01 X-3.08554 Y-3.27064
G01 X-3.08148 Y-3.26372
G01 X-3.07915 Y-3.25902
G01 X-3.07734 Y-3.25494
G01 X-3.07411 Y-3.24581
G01 X-3.07295 Y-3.24156
G01 X-3.07175 Y-3.23606
G01 X-3.07105 Y-3.23215
G01 X-3.07051 Y-3.22782
G01 X-3.06998 Y-3.21845
G01 X-3.07007 Y-2.80665
G01 X-3.07073 Y-2.79857
G01 X-3.07183 Y-2.79176
G01 X-3.07383 Y-2.78351
G01 X-3.07623 Y-2.77626
G01 X-3.07972 Y-2.76811
G01 X-3.08308 Y-2.76171
G01 X-3.08806 Y-2.75394
G01 X-3.09266 Y-2.74797
G01 X-3.09875 Y-2.74127
G01 X-3.14218 Y-2.69787
G01 X-3.14629 Y-2.69407
G01 X-3.15356 Y-2.68834
G01 X-3.15965 Y-2.68430
G01 X-3.16813 Y-2.67970
G01 X-3.17545 Y-2.67655
G01 X-3.19610 Y-2.67946
G01 X-3.21149 Y-2.68186
G01 X-3.22310 Y-2.68335
G01 X-3.23516 Y-2.68433
G01 X-3.24256 Y-2.68466
G01 X-3.25295 Y-2.68475
G01 X-3.26336 Y-2.68442
G01 X-3.27339 Y-2.68370
G01 X-3.28303 Y-2.68263
G01 X-3.29297 Y-2.68116
G01 X-3.30264 Y-2.67935
G01 X-3.31238 Y-2.67715
G01 X-3.32761 Y-2.67298
G01 X-3.52784 Y-2.67298
G01 X-3.53053 Y-2.67271
G01 X-3.53312 Y-2.67193
G01 X-3.58495 Y-2.65047
G01 X-3.59663 Y-2.64945
G01 X-3.61131 Y-2.64744
G01 X-3.61671 Y-2.64648
G01 X-3.62554 Y-2.64461
G01 X-3.63341 Y-2.64262
G01 X-3.63942 Y-2.64086
G01 X-3.55512 Y-2.72509
G01 X-3.21071 Y-2.72509
G01 X-3.20649 Y-2.72531
G01 X-3.20413 Y-2.72560
G01 X-3.19827 Y-2.72693
G01 X-3.19267 Y-2.72905
G01 X-3.18709 Y-2.73214
G01 X-3.18173 Y-2.73631
G01 X-3.13671 Y-2.78131
G01 X-3.13388 Y-2.78464
G01 X-3.13100 Y-2.78897
G01 X-3.12952 Y-2.79172
G01 X-3.12779 Y-2.79576
G01 X-3.12680 Y-2.79873
G01 X-3.12572 Y-2.80339
G01 X-3.12536 Y-2.80612
G01 X-3.12509 Y-2.81071
G01 X-3.12509 Y-3.21762
G01 X-3.12554 Y-3.22381
G01 X-3.12693 Y-3.23008
G01 X-3.12860 Y-3.23464
G01 X-3.13096 Y-3.23932
G01 X-3.13387 Y-3.24368
G01 X-3.13745 Y-3.24781
G01 X-3.31888 Y-3.42925
G01 X-3.32294 Y-3.43283
G01 X-3.32725 Y-3.43574
G01 X-3.33069 Y-3.43758
G01 X-3.33438 Y-3.43916
G01 X-3.33697 Y-3.44004
G01 X-3.34278 Y-3.44136
G01 X-3.34933 Y-3.44186
G01 X-3.82320 Y-3.44177
G01 X-3.82706 Y-3.44150
G01 X-3.83290 Y-3.44034
G01 X-3.83781 Y-3.43866
G01 X-3.84102 Y-3.43718
G01 X-3.84518 Y-3.43480
G01 X-3.84965 Y-3.43143
G01 X-3.88044 Y-3.40083
G01 X-3.88211 Y-3.39899
G01 X-3.88513 Y-3.39523
G01 X-3.88685 Y-3.39262
G01 X-3.88912 Y-3.38836
G01 X-3.89089 Y-3.38387
G01 X-3.89205 Y-3.37959
G01 X-3.89261 Y-3.37643
G01 X-3.89301 Y-3.37241
G01 X-3.89304 Y-3.36634
