( pcb2gcode 2.5.0 )
( Software-independent Gcode )

G94 ( Inches per minute feed rate. )
G20 ( Units == INCHES. )

G90 ( Absolute coordinates. )
G00 S12000 ( RPM spindle speed. )
G64 P0.00040 ( set maximum deviation from commanded toolpath )
G01 F360.00000 ( Feedrate. )


G00 Z1.00000 (Retract to tool change height)
T1
M5      (Spindle stop.)
G04 P1.00000 (Wait for spindle to stop)
(MSG, Change tool bit to mill diameter 0.05512in)
M6      (Tool change.)
M0      (Temporary machine stop.)
M3 ( Spindle on clockwise. )
G04 P1.00000 (Wait for spindle to get up to speed)
G04 P0 ( dwell for no time -- G64 should not smooth over this point )
G00 Z0.08000 ( retract )

G00 X-4.57511 Y-3.23663 ( rapid move to begin. )
G01 F180.00000
( Mill infeed pass 1/1 )
G01 Z-0.04000
G04 P0 ( dwell for no time -- G64 should not smooth over this point )
G01 F360.00000
G01 X-4.57511 Y-3.23663
G01 X-4.58035 Y-3.24030
G01 X-4.59866 Y-3.25375
G01 X-4.62968 Y-3.27558
G01 X-4.62886 Y-3.27558
G01 X-4.62897 Y-3.27509
G01 X-4.62886 Y-3.27558
G01 X-4.60024 Y-3.27555
G01 X-4.60155 Y-3.27127
G01 X-4.60281 Y-3.26570
G01 X-4.60341 Y-3.26226
G01 X-4.60396 Y-3.25749
G01 X-4.60341 Y-3.26226
G01 X-4.60281 Y-3.26570
G01 X-4.60155 Y-3.27127
G01 X-4.60024 Y-3.27555
G01 X-4.57041 Y-3.27560
G01 X-4.56868 Y-3.27872
G01 X-4.56528 Y-3.28368
G01 X-4.56021 Y-3.28938
G01 X-4.56302 Y-3.29231
G01 X-4.56617 Y-3.29624
G01 X-4.56888 Y-3.30034
G01 X-4.57044 Y-3.30315
G01 X-4.62888 Y-3.30315
G01 X-4.62974 Y-3.30720
G01 X-4.63087 Y-3.31382
G01 X-4.63179 Y-3.32410
G01 X-4.63187 Y-3.32850
G01 X-4.63171 Y-3.33503
G01 X-4.63077 Y-3.34433
G01 X-4.62921 Y-3.35281
G01 X-4.62759 Y-3.35917
G01 X-4.62506 Y-3.36693
G01 X-4.62152 Y-3.37542
G01 X-4.61738 Y-3.38340
G01 X-4.61304 Y-3.39036
G01 X-4.60924 Y-3.39564
G01 X-4.60364 Y-3.40241
G01 X-4.59795 Y-3.40831
G01 X-4.59118 Y-3.41429
G01 X-4.58394 Y-3.41969
G01 X-4.57735 Y-3.42385
G01 X-4.57164 Y-3.42697
G01 X-4.56366 Y-3.43066
G01 X-4.55562 Y-3.43361
G01 X-4.54756 Y-3.43588
G01 X-4.54279 Y-3.43692
G01 X-4.53632 Y-3.43799
G01 X-4.53224 Y-3.43845
G01 X-4.52584 Y-3.43890
G01 X-4.47776 Y-3.43897
G01 X-4.47152 Y-3.43871
G01 X-4.46471 Y-3.43809
G01 X-4.46000 Y-3.43744
G01 X-4.45534 Y-3.43652
G01 X-4.44824 Y-3.43478
G01 X-4.44111 Y-3.43248
G01 X-4.43584 Y-3.43044
G01 X-4.42870 Y-3.42716
G01 X-4.42883 Y-3.42655
G01 X-4.42870 Y-3.42716
G01 X-4.17713 Y-3.42712
G01 X-4.16921 Y-3.42670
G01 X-4.16011 Y-3.42539
G01 X-4.15539 Y-3.42434
G01 X-4.14927 Y-3.42265
G01 X-4.14371 Y-3.42071
G01 X-4.14116 Y-3.41970
G01 X-4.14121 Y-3.41950
G01 X-4.14116 Y-3.41970
G01 X-4.13880 Y-3.41954
G01 X-4.13264 Y-3.41880
G01 X-4.13125 Y-3.39740
G01 X-4.12979 Y-3.38065
G01 X-4.12866 Y-3.37053
G01 X-4.12728 Y-3.36086
G01 X-4.11944 Y-3.35732
G01 X-4.11421 Y-3.35419
G01 X-4.11167 Y-3.35240
G01 X-4.11421 Y-3.35419
G01 X-4.12057 Y-3.35790
G01 X-4.12728 Y-3.36086
G01 X-4.13311 Y-3.36270
G01 X-4.13626 Y-3.36346
G01 X-4.14300 Y-3.36457
G01 X-4.14942 Y-3.36496
G01 X-4.15468 Y-3.36474
G01 X-4.15661 Y-3.36596
G01 X-4.15979 Y-3.36768
G01 X-4.16490 Y-3.36978
G01 X-4.17021 Y-3.37120
G01 X-4.17562 Y-3.37194
G01 X-4.44425 Y-3.37205
G01 X-4.44947 Y-3.37568
G01 X-4.45348 Y-3.37793
G01 X-4.45733 Y-3.37968
G01 X-4.46355 Y-3.38184
G01 X-4.46998 Y-3.38321
G01 X-4.47813 Y-3.38386
G01 X-4.52304 Y-3.38384
G01 X-4.52776 Y-3.38351
G01 X-4.53349 Y-3.38257
G01 X-4.53938 Y-3.38092
G01 X-4.54329 Y-3.37943
G01 X-4.54688 Y-3.37773
G01 X-4.55229 Y-3.37456
G01 X-4.55720 Y-3.37085
G01 X-4.55995 Y-3.36838
G01 X-4.56280 Y-3.36540
G01 X-4.56662 Y-3.36062
G01 X-4.56991 Y-3.35535
G01 X-4.57162 Y-3.35201
G01 X-4.57331 Y-3.34795
G01 X-4.57506 Y-3.34237
G01 X-4.57623 Y-3.33633
G01 X-4.57665 Y-3.33235
G01 X-4.57676 Y-3.32789
G01 X-4.57632 Y-3.32167
G01 X-4.57519 Y-3.31563
G01 X-4.57352 Y-3.31012
G01 X-4.57195 Y-3.30620
G01 X-4.57044 Y-3.30315
G01 X-4.60025 Y-3.30310
G01 X-4.60239 Y-3.31093
G01 X-4.60340 Y-3.31642
G01 X-4.60386 Y-3.32011
G01 X-4.60423 Y-3.32480
G01 X-4.60431 Y-3.32880
G01 X-4.60415 Y-3.33419
G01 X-4.60361 Y-3.33952
G01 X-4.60306 Y-3.34317
G01 X-4.60196 Y-3.34839
G01 X-4.59964 Y-3.35618
G01 X-4.59636 Y-3.36416
G01 X-4.59394 Y-3.36884
G01 X-4.59208 Y-3.37203
G01 X-4.58920 Y-3.37642
G01 X-4.58589 Y-3.38076
G01 X-4.58360 Y-3.38349
G01 X-4.58026 Y-3.38704
G01 X-4.57790 Y-3.38933
G01 X-4.57356 Y-3.39309
G01 X-4.56657 Y-3.39814
G01 X-4.56240 Y-3.40068
G01 X-4.55925 Y-3.40236
G01 X-4.55431 Y-3.40469
G01 X-4.54906 Y-3.40673
G01 X-4.54529 Y-3.40795
G01 X-4.54001 Y-3.40935
G01 X-4.53163 Y-3.41081
G01 X-4.52633 Y-3.41128
G01 X-4.52309 Y-3.41140
G01 X-4.47773 Y-3.41141
G01 X-4.47402 Y-3.41126
G01 X-4.46670 Y-3.41058
G01 X-4.46265 Y-3.40991
G01 X-4.45705 Y-3.40862
G01 X-4.44873 Y-3.40593
G01 X-4.44284 Y-3.40339
G01 X-4.43915 Y-3.40152
G01 X-4.43579 Y-3.39960
G01 X-4.43595 Y-3.39892
G01 X-4.43579 Y-3.39960
G01 X-4.17753 Y-3.39956
G01 X-4.17390 Y-3.39944
G01 X-4.17069 Y-3.39913
G01 X-4.16427 Y-3.39812
G01 X-4.15764 Y-3.39639
G01 X-4.15430 Y-3.39525
G01 X-4.14991 Y-3.39348
G01 X-4.14777 Y-3.39248
G01 X-4.14786 Y-3.39212
G01 X-4.14777 Y-3.39248
G01 X-4.14009 Y-3.39198
G01 X-4.13648 Y-3.39150
G01 X-4.13065 Y-3.39045
G01 X-4.12976 Y-3.38031
G01 X-4.12871 Y-3.37090
G01 X-4.12728 Y-3.36086
G01 X-4.12866 Y-3.37053
G01 X-4.12976 Y-3.38031
G01 X-4.13127 Y-3.39762
G01 X-4.13215 Y-3.41003
G01 X-4.13436 Y-3.44926
G01 X-4.13556 Y-3.47607
G01 X-4.14512 Y-3.47856
G01 X-4.15408 Y-3.48028
G01 X-4.16435 Y-3.48161
G01 X-4.17432 Y-3.48220
G01 X-4.41697 Y-3.48228
G01 X-4.41703 Y-3.48190
G01 X-4.41697 Y-3.48228
G01 X-4.42239 Y-3.48433
G01 X-4.42985 Y-3.48682
G01 X-4.43562 Y-3.48848
G01 X-4.44784 Y-3.49125
G01 X-4.45338 Y-3.49219
G01 X-4.45936 Y-3.49295
G01 X-4.46900 Y-3.49379
G01 X-4.47658 Y-3.49408
G01 X-4.52311 Y-3.49408
G01 X-4.53107 Y-3.49382
G01 X-4.53907 Y-3.49317
G01 X-4.54617 Y-3.49226
G01 X-4.55491 Y-3.49071
G01 X-4.56274 Y-3.48888
G01 X-4.57076 Y-3.48663
G01 X-4.57800 Y-3.48418
G01 X-4.58666 Y-3.48078
G01 X-4.59494 Y-3.47694
G01 X-4.60208 Y-3.47322
G01 X-4.61005 Y-3.46847
G01 X-4.61601 Y-3.46452
G01 X-4.62281 Y-3.45954
G01 X-4.62867 Y-3.45478
G01 X-4.63525 Y-3.44890
G01 X-4.64005 Y-3.44415
G01 X-4.64609 Y-3.43763
G01 X-4.65047 Y-3.43238
G01 X-4.65625 Y-3.42480
G01 X-4.66142 Y-3.41706
G01 X-4.66513 Y-3.41094
G01 X-4.66930 Y-3.40315
G01 X-4.67243 Y-3.39662
G01 X-4.67608 Y-3.38782
G01 X-4.67840 Y-3.38138
G01 X-4.68088 Y-3.37329
G01 X-4.68267 Y-3.36636
G01 X-4.68452 Y-3.35733
G01 X-4.68559 Y-3.35025
G01 X-4.68645 Y-3.34230
G01 X-4.68688 Y-3.33480
G01 X-4.68696 Y-3.32511
G01 X-4.68655 Y-3.31672
G01 X-4.68574 Y-3.30835
G01 X-4.67148 Y-3.30317
G01 X-4.62888 Y-3.30315
G01 X-4.65703 Y-3.30318
G01 X-4.65794 Y-3.30842
G01 X-4.65856 Y-3.31316
G01 X-4.65914 Y-3.31981
G01 X-4.65940 Y-3.32500
G01 X-4.65921 Y-3.33669
G01 X-4.65885 Y-3.34146
G01 X-4.65816 Y-3.34745
G01 X-4.65731 Y-3.35290
G01 X-4.65611 Y-3.35879
G01 X-4.65395 Y-3.36719
G01 X-4.65229 Y-3.37257
G01 X-4.65069 Y-3.37705
G01 X-4.64805 Y-3.38358
G01 X-4.64609 Y-3.38792
G01 X-4.64206 Y-3.39573
G01 X-4.63865 Y-3.40150
G01 X-4.63401 Y-3.40851
G01 X-4.62878 Y-3.41537
G01 X-4.62417 Y-3.42081
G01 X-4.61866 Y-3.42660
G01 X-4.61407 Y-3.43093
G01 X-4.60770 Y-3.43637
G01 X-4.60067 Y-3.44162
G01 X-4.59542 Y-3.44511
G01 X-4.58785 Y-3.44959
G01 X-4.58050 Y-3.45331
G01 X-4.57399 Y-3.45621
G01 X-4.56612 Y-3.45916
G01 X-4.56007 Y-3.46106
G01 X-4.55248 Y-3.46304
G01 X-4.54705 Y-3.46416
G01 X-4.53995 Y-3.46531
G01 X-4.53485 Y-3.46589
G01 X-4.52716 Y-3.46643
G01 X-4.47381 Y-3.46645
G01 X-4.46828 Y-3.46609
G01 X-4.45866 Y-3.46511
G01 X-4.45275 Y-3.46413
G01 X-4.44522 Y-3.46247
G01 X-4.43866 Y-3.46069
G01 X-4.43081 Y-3.45807
G01 X-4.42260 Y-3.45472
G01 X-4.42267 Y-3.45432
G01 X-4.42260 Y-3.45472
G01 X-4.17470 Y-3.45464
G01 X-4.16544 Y-3.45401
G01 X-4.15475 Y-3.45242
G01 X-4.14968 Y-3.45132
G01 X-4.14466 Y-3.45000
G01 X-4.13962 Y-3.44849
G01 X-4.13493 Y-3.44686
G01 X-4.13422 Y-3.44679
G01 X-4.13528 Y-3.46897
G01 X-4.13644 Y-3.50046
G01 X-4.13408 Y-3.54779
G01 X-4.13124 Y-3.60000
G01 X-4.71082 Y-3.60000
G01 X-4.72489 Y-3.58962
G01 X-4.73082 Y-3.58490
G01 X-4.73722 Y-3.57951
G01 X-4.74415 Y-3.57340
G01 X-4.75056 Y-3.56742
G01 X-4.75681 Y-3.56126
G01 X-4.76293 Y-3.55488
G01 X-4.76833 Y-3.54901
G01 X-4.77409 Y-3.54238
G01 X-4.77916 Y-3.53621
G01 X-4.78524 Y-3.52844
G01 X-4.79000 Y-3.52203
G01 X-4.79481 Y-3.51516
G01 X-4.80372 Y-3.50137
G01 X-4.80801 Y-3.49418
G01 X-4.81171 Y-3.48757
G01 X-4.81657 Y-3.47834
G01 X-4.82011 Y-3.47118
G01 X-4.82631 Y-3.45734
G01 X-4.82987 Y-3.44857
G01 X-4.83296 Y-3.44035
G01 X-4.83581 Y-3.43204
G01 X-4.83844 Y-3.42359
G01 X-4.84076 Y-3.41555
G01 X-4.84267 Y-3.40822
G01 X-4.84448 Y-3.40046
G01 X-4.84643 Y-3.39102
G01 X-4.84792 Y-3.38278
G01 X-4.84909 Y-3.37511
G01 X-4.82313 Y-3.36290
G01 X-4.78219 Y-3.34495
G01 X-4.73187 Y-3.32497
G01 X-4.67995 Y-3.30622
G01 X-4.71429 Y-3.31861
G01 X-4.71455 Y-3.32881
G01 X-4.71415 Y-3.34138
G01 X-4.71291 Y-3.35384
G01 X-4.71129 Y-3.36410
G01 X-4.70862 Y-3.37626
G01 X-4.70516 Y-3.38820
G01 X-4.70158 Y-3.39829
G01 X-4.69684 Y-3.40952
G01 X-4.69184 Y-3.41953
G01 X-4.68795 Y-3.42651
G01 X-4.68241 Y-3.43536
G01 X-4.67767 Y-3.44220
G01 X-4.67119 Y-3.45060
G01 X-4.66580 Y-3.45694
G01 X-4.65867 Y-3.46453
G01 X-4.65204 Y-3.47090
G01 X-4.64446 Y-3.47751
G01 X-4.63755 Y-3.48293
G01 X-4.62871 Y-3.48922
G01 X-4.61985 Y-3.49477
G01 X-4.61191 Y-3.49924
G01 X-4.60239 Y-3.50393
G01 X-4.59476 Y-3.50726
G01 X-4.58579 Y-3.51067
G01 X-4.57599 Y-3.51383
G01 X-4.56379 Y-3.51699
G01 X-4.55836 Y-3.51812
G01 X-4.55123 Y-3.51936
G01 X-4.54093 Y-3.52068
G01 X-4.53245 Y-3.52135
G01 X-4.52516 Y-3.52162
G01 X-4.47417 Y-3.52161
G01 X-4.46696 Y-3.52128
G01 X-4.45689 Y-3.52040
G01 X-4.44969 Y-3.51951
G01 X-4.44254 Y-3.51830
G01 X-4.43261 Y-3.51613
G01 X-4.42526 Y-3.51421
G01 X-4.41317 Y-3.51030
G01 X-4.41189 Y-3.50984
G01 X-4.41194 Y-3.50951
G01 X-4.41189 Y-3.50984
G01 X-4.17196 Y-3.50970
G01 X-4.16285 Y-3.50915
G01 X-4.15458 Y-3.50820
G01 X-4.14544 Y-3.50676
G01 X-4.13623 Y-3.50477
G01 X-4.13644 Y-3.50046
G01 X-4.13485 Y-3.53273
G01 X-4.14600 Y-3.53480
G01 X-4.15871 Y-3.53644
G01 X-4.16750 Y-3.53710
G01 X-4.17671 Y-3.53736
G01 X-4.40723 Y-3.53740
G01 X-4.40728 Y-3.53710
G01 X-4.40723 Y-3.53740
G01 X-4.41034 Y-3.53844
G01 X-4.42069 Y-3.54154
G01 X-4.43129 Y-3.54410
G01 X-4.43987 Y-3.54583
G01 X-4.44774 Y-3.54706
G01 X-4.45525 Y-3.54793
G01 X-4.46572 Y-3.54881
G01 X-4.47538 Y-3.54919
G01 X-4.52354 Y-3.54919
G01 X-4.53553 Y-3.54876
G01 X-4.54557 Y-3.54791
G01 X-4.55472 Y-3.54671
G01 X-4.56543 Y-3.54482
G01 X-4.57520 Y-3.54260
G01 X-4.58360 Y-3.54032
G01 X-4.59011 Y-3.53832
G01 X-4.59617 Y-3.53622
G01 X-4.60446 Y-3.53307
G01 X-4.61183 Y-3.52992
G01 X-4.61897 Y-3.52654
G01 X-4.62505 Y-3.52346
G01 X-4.63101 Y-3.52017
G01 X-4.63862 Y-3.51561
G01 X-4.64435 Y-3.51191
G01 X-4.65028 Y-3.50778
G01 X-4.65707 Y-3.50271
G01 X-4.66301 Y-3.49793
G01 X-4.66940 Y-3.49236
G01 X-4.67469 Y-3.48745
G01 X-4.67979 Y-3.48234
G01 X-4.68719 Y-3.47436
G01 X-4.69312 Y-3.46730
G01 X-4.69989 Y-3.45851
G01 X-4.70603 Y-3.44960
G01 X-4.71219 Y-3.43967
G01 X-4.71778 Y-3.42940
G01 X-4.72217 Y-3.42040
G01 X-4.72636 Y-3.41055
G01 X-4.73002 Y-3.40080
G01 X-4.73353 Y-3.38966
G01 X-4.73609 Y-3.37996
G01 X-4.73827 Y-3.36971
G01 X-4.73986 Y-3.36021
G01 X-4.74118 Y-3.34901
G01 X-4.74184 Y-3.33983
G01 X-4.74210 Y-3.32904
G01 X-4.76942 Y-3.33989
G01 X-4.76901 Y-3.34706
G01 X-4.76832 Y-3.35460
G01 X-4.76724 Y-3.36341
G01 X-4.76592 Y-3.37176
G01 X-4.76404 Y-3.38128
G01 X-4.76242 Y-3.38834
G01 X-4.76046 Y-3.39572
G01 X-4.75802 Y-3.40387
G01 X-4.75573 Y-3.41077
G01 X-4.75306 Y-3.41798
G01 X-4.74961 Y-3.42645
G01 X-4.74649 Y-3.43347
G01 X-4.74295 Y-3.44073
G01 X-4.73879 Y-3.44861
G01 X-4.73500 Y-3.45525
G01 X-4.73119 Y-3.46141
G01 X-4.72675 Y-3.46820
G01 X-4.72234 Y-3.47449
G01 X-4.71796 Y-3.48029
G01 X-4.71174 Y-3.48807
G01 X-4.70617 Y-3.49448
G01 X-4.70036 Y-3.50071
G01 X-4.69499 Y-3.50615
G01 X-4.68973 Y-3.51112
G01 X-4.68308 Y-3.51703
G01 X-4.67721 Y-3.52193
G01 X-4.67117 Y-3.52662
G01 X-4.66365 Y-3.53209
G01 X-4.65665 Y-3.53681
G01 X-4.64874 Y-3.54171
G01 X-4.64245 Y-3.54537
G01 X-4.63604 Y-3.54881
G01 X-4.62674 Y-3.55339
G01 X-4.61900 Y-3.55687
G01 X-4.61151 Y-3.55990
G01 X-4.60161 Y-3.56353
G01 X-4.59276 Y-3.56635
G01 X-4.58316 Y-3.56901
G01 X-4.57491 Y-3.57099
G01 X-4.56619 Y-3.57272
G01 X-4.55740 Y-3.57418
G01 X-4.54982 Y-3.57516
G01 X-4.54017 Y-3.57606
G01 X-4.53305 Y-3.57651
G01 X-4.52354 Y-3.57675
G01 X-4.47781 Y-3.57677
G01 X-4.46932 Y-3.57660
G01 X-4.46045 Y-3.57606
G01 X-4.44841 Y-3.57492
G01 X-4.43891 Y-3.57362
G01 X-4.42948 Y-3.57190
G01 X-4.41806 Y-3.56932
G01 X-4.40726 Y-3.56636
G01 X-4.40275 Y-3.56495
G01 X-4.40279 Y-3.56469
G01 X-4.40275 Y-3.56495
G01 X-4.17711 Y-3.56492
G01 X-4.16794 Y-3.56471
G01 X-4.15920 Y-3.56415
G01 X-4.14771 Y-3.56289
G01 X-4.14061 Y-3.56185
G01 X-4.13338 Y-3.56057
G01 X-4.13408 Y-3.54779
G01 X-4.13187 Y-3.58832
G01 X-4.14349 Y-3.59013
G01 X-4.15306 Y-3.59126
G01 X-4.16386 Y-3.59210
G01 X-4.17389 Y-3.59245
G01 X-4.39852 Y-3.59251
G01 X-4.39855 Y-3.59227
G01 X-4.39852 Y-3.59251
G01 X-4.40037 Y-3.59307
G01 X-4.41079 Y-3.59591
G01 X-4.42103 Y-3.59828
G01 X-4.42968 Y-3.60000
G01 X-4.57019 Y-3.60000
G01 X-4.58027 Y-3.59802
G01 X-4.59076 Y-3.59550
G01 X-4.60258 Y-3.59218
G01 X-4.61359 Y-3.58853
G01 X-4.62338 Y-3.58486
G01 X-4.63187 Y-3.58133
G01 X-4.64022 Y-3.57749
G01 X-4.65014 Y-3.57254
G01 X-4.65889 Y-3.56772
G01 X-4.66822 Y-3.56211
G01 X-4.67566 Y-3.55728
G01 X-4.68325 Y-3.55196
G01 X-4.69135 Y-3.54588
G01 X-4.69856 Y-3.54005
G01 X-4.70709 Y-3.53259
G01 X-4.71357 Y-3.52653
G01 X-4.72010 Y-3.51994
G01 X-4.72776 Y-3.51168
G01 X-4.73374 Y-3.50471
G01 X-4.74064 Y-3.49603
G01 X-4.74611 Y-3.48864
G01 X-4.75131 Y-3.48106
G01 X-4.75758 Y-3.47117
G01 X-4.76243 Y-3.46280
G01 X-4.76754 Y-3.45316
G01 X-4.77157 Y-3.44489
G01 X-4.77513 Y-3.43685
G01 X-4.77928 Y-3.42658
G01 X-4.78267 Y-3.41718
G01 X-4.78582 Y-3.40720
G01 X-4.78822 Y-3.39866
G01 X-4.79033 Y-3.39005
G01 X-4.79240 Y-3.38014
G01 X-4.79398 Y-3.37100
G01 X-4.79513 Y-3.36261
G01 X-4.79634 Y-3.35108
G01 X-4.82286 Y-3.36278
G01 X-4.82185 Y-3.37091
G01 X-4.82071 Y-3.37837
G01 X-4.81767 Y-3.39405
G01 X-4.81427 Y-3.40795
G01 X-4.80991 Y-3.42256
G01 X-4.80719 Y-3.43056
G01 X-4.80393 Y-3.43922
G01 X-4.80016 Y-3.44841
G01 X-4.79656 Y-3.45650
G01 X-4.79289 Y-3.46411
G01 X-4.78824 Y-3.47305
G01 X-4.78418 Y-3.48034
G01 X-4.77968 Y-3.48784
G01 X-4.77426 Y-3.49631
G01 X-4.76904 Y-3.50395
G01 X-4.76381 Y-3.51109
G01 X-4.75770 Y-3.51893
G01 X-4.75258 Y-3.52514
G01 X-4.74701 Y-3.53150
G01 X-4.74012 Y-3.53888
G01 X-4.73399 Y-3.54510
G01 X-4.72560 Y-3.55301
G01 X-4.71535 Y-3.56193
G01 X-4.70666 Y-3.56888
G01 X-4.69700 Y-3.57601
G01 X-4.68715 Y-3.58272
G01 X-4.67661 Y-3.58927
G01 X-4.66682 Y-3.59487
G01 X-4.65695 Y-3.60000
G01 X-4.66541 Y-3.59564
G01 X-4.67279 Y-3.59152
G01 X-4.68212 Y-3.58592
G01 X-4.68948 Y-3.58120
G01 X-4.69700 Y-3.57601
G01 X-4.70571 Y-3.56961
G01 X-4.71259 Y-3.56421
G01 X-4.71899 Y-3.55885
G01 X-4.72678 Y-3.55194
G01 X-4.73313 Y-3.54594
G01 X-4.73930 Y-3.53974
G01 X-4.74701 Y-3.53150
G01 X-4.75258 Y-3.52514
G01 X-4.75820 Y-3.51830
G01 X-4.76478 Y-3.50981
G01 X-4.77020 Y-3.50230
G01 X-4.77515 Y-3.49496
G01 X-4.78052 Y-3.48649
G01 X-4.78497 Y-3.47896
G01 X-4.78917 Y-3.47129
G01 X-4.79343 Y-3.46303
G01 X-4.79757 Y-3.45431
G01 X-4.80110 Y-3.44619
G01 X-4.80539 Y-3.43547
G01 X-4.80839 Y-3.42714
G01 X-4.81100 Y-3.41910
G01 X-4.81385 Y-3.40948
G01 X-4.81625 Y-3.40025
G01 X-4.81808 Y-3.39211
G01 X-4.82017 Y-3.38151
G01 X-4.82168 Y-3.37209
G01 X-4.82286 Y-3.36278
G01 X-4.78219 Y-3.34495
G01 X-4.73187 Y-3.32497
G01 X-4.67148 Y-3.30317
G01 X-4.57044 Y-3.30315
G01 X-4.56888 Y-3.30034
G01 X-4.56617 Y-3.29624
G01 X-4.56302 Y-3.29231
G01 X-4.56021 Y-3.28938
G01 X-4.56480 Y-3.28430
G01 X-4.56846 Y-3.27906
G01 X-4.57008 Y-3.27627
G01 X-4.57297 Y-3.27010
G01 X-4.57482 Y-3.26455
G01 X-4.57609 Y-3.25860
G01 X-4.57670 Y-3.25281
G01 X-4.57663 Y-3.24616
G01 X-4.57609 Y-3.24135
G01 X-4.57498 Y-3.23607
G01 X-4.57342 Y-3.23113
G01 X-4.57252 Y-3.22880
G01 X-4.57030 Y-3.22409
G01 X-4.56732 Y-3.21913
G01 X-4.56368 Y-3.21434
G01 X-4.56240 Y-3.21374
G01 X-4.56360 Y-3.21430
G01 X-4.59076 Y-3.21427
G01 X-4.59388 Y-3.21409
G01 X-4.59783 Y-3.21349
G01 X-4.60165 Y-3.21254
G01 X-4.60507 Y-3.21140
G01 X-4.60723 Y-3.21049
G01 X-4.61282 Y-3.20747
G01 X-4.61729 Y-3.20414
G01 X-4.61937 Y-3.20227
G01 X-4.80673 Y-3.01483
G01 X-4.80930 Y-3.01172
G01 X-4.81067 Y-3.00982
G01 X-4.81290 Y-3.00603
G01 X-4.81397 Y-3.00391
G01 X-4.81609 Y-2.99830
G01 X-4.81713 Y-2.99401
G01 X-4.81756 Y-2.99127
G01 X-4.81790 Y-2.98633
G01 X-4.81786 Y-2.91207
G01 X-4.81760 Y-2.90930
G01 X-4.81676 Y-2.90421
G01 X-4.81602 Y-2.90159
G01 X-4.81426 Y-2.89673
G01 X-4.81306 Y-2.89430
G01 X-4.81044 Y-2.88984
G01 X-4.80906 Y-2.88797
G01 X-4.80559 Y-2.88392
G01 X-4.67926 Y-2.75761
G01 X-4.67362 Y-2.75312
G01 X-4.67164 Y-2.75189
G01 X-4.66810 Y-2.75002
G01 X-4.66413 Y-2.74838
G01 X-4.66070 Y-2.74729
G01 X-4.65803 Y-2.74669
G01 X-4.65367 Y-2.74605
G01 X-4.65050 Y-2.74587
G01 X-4.15689 Y-2.74585
G01 X-4.15266 Y-2.74607
G01 X-4.14706 Y-2.74699
G01 X-4.14129 Y-2.74878
G01 X-4.13551 Y-2.75153
G01 X-4.13084 Y-2.75463
G01 X-4.12670 Y-2.75821
G01 X-4.09646 Y-2.78844
G01 X-4.12192 Y-2.76298
G01 X-4.12793 Y-2.74861
G01 X-4.13250 Y-2.73934
G01 X-4.13753 Y-2.73080
G01 X-4.14049 Y-2.72957
G01 X-4.14795 Y-2.72686
G01 X-4.15462 Y-2.72485
G01 X-4.16017 Y-2.72341
G01 X-4.28242 Y-2.69455
G01 X-4.29516 Y-2.69510
G01 X-4.30585 Y-2.69508
G01 X-4.31102 Y-2.69494
G01 X-4.32655 Y-2.69388
G01 X-4.34180 Y-2.69198
G01 X-4.35381 Y-2.68993
G01 X-4.37115 Y-2.68597
G01 X-4.38066 Y-2.68336
G01 X-4.61929 Y-2.68337
G01 X-4.62970 Y-2.68622
G01 X-4.63777 Y-2.68816
G01 X-4.67145 Y-2.69500
G01 X-4.69137 Y-2.69940
G01 X-4.71073 Y-2.70399
G01 X-4.74379 Y-2.71238
G01 X-4.75757 Y-2.71548
G01 X-4.76294 Y-2.71655
G01 X-4.78294 Y-2.71992
G01 X-4.80110 Y-2.72220
G01 X-4.80624 Y-2.72271
G01 X-4.82679 Y-2.72428
G01 X-4.83228 Y-2.72456
G01 X-4.85475 Y-2.72520
G01 X-4.86013 Y-2.72523
G01 X-4.88640 Y-2.72478
G01 X-4.90000 Y-2.72405
G01 X-4.90000 Y-2.78345
G01 X-4.84136 Y-2.72482
G01 X-4.85981 Y-2.72523
G01 X-4.88040 Y-2.72488
G01 X-4.90000 Y-2.74448
G01 X-4.90000 Y-3.27243
G01 X-4.83458 Y-3.33784
G01 X-4.80754 Y-3.32591
G01 X-4.90000 Y-3.23346
G01 X-4.90000 Y-3.31140
G01 X-4.86109 Y-3.35030
G01 X-4.83440 Y-3.33775
G01 X-4.79251 Y-3.31940
G01 X-4.74152 Y-3.29916
G01 X-4.68015 Y-3.27700
G01 X-4.64426 Y-3.25217
G01 X-4.64469 Y-3.25246
G01 X-4.65022 Y-3.24837
G01 X-4.65425 Y-3.24507
G01 X-4.65806 Y-3.24153
G01 X-4.84483 Y-3.05479
G01 X-4.84912 Y-3.05006
G01 X-4.85464 Y-3.04313
G01 X-4.85820 Y-3.03777
G01 X-4.86197 Y-3.03116
G01 X-4.86391 Y-3.02725
G01 X-4.86563 Y-3.02324
G01 X-4.86750 Y-3.01838
G01 X-4.86907 Y-3.01347
G01 X-4.87146 Y-3.00338
G01 X-4.87214 Y-2.99907
G01 X-4.87268 Y-2.99390
G01 X-4.87302 Y-2.98671
G01 X-4.87301 Y-2.91324
G01 X-4.87289 Y-2.90889
G01 X-4.87226 Y-2.90218
G01 X-4.87084 Y-2.89349
G01 X-4.86918 Y-2.88692
G01 X-4.86663 Y-2.87931
G01 X-4.86421 Y-2.87341
G01 X-4.86134 Y-2.86772
G01 X-4.85709 Y-2.86045
G01 X-4.85294 Y-2.85460
G01 X-4.84808 Y-2.84872
G01 X-4.84455 Y-2.84493
G01 X-4.71736 Y-2.71779
G01 X-4.71186 Y-2.71299
G01 X-4.70741 Y-2.70953
G01 X-4.70349 Y-2.70679
G01 X-4.69733 Y-2.70311
G01 X-4.69232 Y-2.70051
G01 X-4.68857 Y-2.69876
G01 X-4.67145 Y-2.69500
G01 X-4.65053 Y-2.69075
G01 X-4.34898 Y-2.69074
G01 X-4.65053 Y-2.69075
G01 X-4.67145 Y-2.69500
G01 X-4.69137 Y-2.69940
G01 X-4.71073 Y-2.70399
G01 X-4.74379 Y-2.71238
G01 X-4.75757 Y-2.71549
G01 X-4.77851 Y-2.71927
G01 X-4.79957 Y-2.72200
G01 X-4.88463 Y-2.80708
G01 X-4.88840 Y-2.81112
G01 X-4.89175 Y-2.81500
G01 X-4.89608 Y-2.82030
G01 X-4.90000 Y-2.82555
G01 X-4.90000 Y-2.90211
G01 X-4.89864 Y-2.89224
G01 X-4.89702 Y-2.88433
G01 X-4.89494 Y-2.87694
G01 X-4.89144 Y-2.86702
G01 X-4.88783 Y-2.85891
G01 X-4.88321 Y-2.85037
G01 X-4.87915 Y-2.84386
G01 X-4.87441 Y-2.83732
G01 X-4.86899 Y-2.83077
G01 X-4.86404 Y-2.82545
G01 X-4.75306 Y-2.71447
G01 X-4.86376 Y-2.82516
G01 X-4.86738 Y-2.82896
G01 X-4.87031 Y-2.83231
G01 X-4.87515 Y-2.83827
G01 X-4.87801 Y-2.84219
G01 X-4.88070 Y-2.84622
G01 X-4.88321 Y-2.85037
G01 X-4.88673 Y-2.85675
G01 X-4.88905 Y-2.86146
G01 X-4.89114 Y-2.86627
G01 X-4.89469 Y-2.87617
G01 X-4.89702 Y-2.88433
G01 X-4.89864 Y-2.89224
G01 X-4.90000 Y-2.90211
G01 X-4.90000 Y-3.07445
G01 X-4.89606 Y-3.07973
G01 X-4.89150 Y-3.08530
G01 X-4.88787 Y-3.08947
G01 X-4.88407 Y-3.09349
G01 X-4.69507 Y-3.28242
G01 X-4.72378 Y-3.29273
G01 X-4.90000 Y-3.11654
G01 X-4.90000 Y-3.15551
G01 X-4.75213 Y-3.30336
G01 X-4.78002 Y-3.31444
G01 X-4.90000 Y-3.19449
G01 X-4.90000 Y-2.99771
G01 X-4.89945 Y-3.00278
G01 X-4.89865 Y-3.00787
G01 X-4.89640 Y-3.01799
G01 X-4.89378 Y-3.02673
G01 X-4.89017 Y-3.03602
G01 X-4.88623 Y-3.04425
G01 X-4.88082 Y-3.05358
G01 X-4.87584 Y-3.06081
G01 X-4.86978 Y-3.06831
G01 X-4.86375 Y-3.07484
G01 X-4.67783 Y-3.26073
G01 X-4.67317 Y-3.26513
G01 X-4.66851 Y-3.26905
G01 X-4.62745 Y-3.24041
G01 X-4.61139 Y-3.22893
G01 X-4.59652 Y-3.21798
G01 X-4.59115 Y-3.21427
G01 X-4.59652 Y-3.21798
G01 X-4.60483 Y-3.22417
G01 X-4.61987 Y-3.23499
G01 X-4.62470 Y-3.23245
G01 X-4.62819 Y-3.23035
G01 X-4.63119 Y-3.22823
G01 X-4.63562 Y-3.22474
G01 X-4.63886 Y-3.22175
G01 X-4.82613 Y-3.03447
G01 X-4.83026 Y-3.02964
G01 X-4.83249 Y-3.02672
G01 X-4.83473 Y-3.02332
G01 X-4.83772 Y-3.01807
G01 X-4.83958 Y-3.01413
G01 X-4.84162 Y-3.00891
G01 X-4.84279 Y-3.00512
G01 X-4.84402 Y-3.00006
G01 X-4.84492 Y-2.99458
G01 X-4.84546 Y-2.98710
G01 X-4.84545 Y-2.91325
G01 X-4.84530 Y-2.90929
G01 X-4.84421 Y-2.90095
G01 X-4.84347 Y-2.89739
G01 X-4.84261 Y-2.89427
G01 X-4.84094 Y-2.88929
G01 X-4.83961 Y-2.88590
G01 X-4.83805 Y-2.88261
G01 X-4.83571 Y-2.87836
G01 X-4.83383 Y-2.87525
G01 X-4.83151 Y-2.87194
G01 X-4.82768 Y-2.86727
G01 X-4.82506 Y-2.86441
G01 X-4.69933 Y-2.73869
G01 X-4.69543 Y-2.73514
G01 X-4.69064 Y-2.73140
G01 X-4.68661 Y-2.72872
G01 X-4.68019 Y-2.72525
G01 X-4.67572 Y-2.72327
G01 X-4.66956 Y-2.72117
G01 X-4.66483 Y-2.71994
G01 X-4.65762 Y-2.71877
G01 X-4.65248 Y-2.71835
G01 X-4.18186 Y-2.71829
G01 X-4.15462 Y-2.72485
G01 X-4.14679 Y-2.72725
G01 X-4.13753 Y-2.73080
G01 X-4.13250 Y-2.73934
G01 X-4.12871 Y-2.74689
G01 X-4.12192 Y-2.76298
G01 X-4.09646 Y-2.78844
G01 X-4.09646 Y-2.75244
G01 X-4.10278 Y-2.73733
G01 X-4.10720 Y-2.72814
G01 X-4.11332 Y-2.71748
G01 X-4.11664 Y-2.71233
G01 X-4.11833 Y-2.71022
G01 X-4.11799 Y-2.70989
G01 X-4.11833 Y-2.71022
G01 X-4.12039 Y-2.70847
G01 X-4.12276 Y-2.70716
G01 X-4.12267 Y-2.70700
G01 X-4.12276 Y-2.70716
G01 X-4.13040 Y-2.70393
G01 X-4.13937 Y-2.70062
G01 X-4.14722 Y-2.69830
G01 X-4.15372 Y-2.69661
G01 X-4.27801 Y-2.66728
G01 X-4.27799 Y-2.66709
G01 X-4.27801 Y-2.66728
G01 X-4.28190 Y-2.66693
G01 X-4.29567 Y-2.66754
G01 X-4.30559 Y-2.66752
G01 X-4.31957 Y-2.66681
G01 X-4.32359 Y-2.66646
G01 X-4.33769 Y-2.66473
G01 X-4.34851 Y-2.66285
G01 X-4.35290 Y-2.66196
G01 X-4.36463 Y-2.65919
G01 X-4.37499 Y-2.65633
G01 X-4.37875 Y-2.65580
G01 X-4.37873 Y-2.65562
G01 X-4.37875 Y-2.65580
G01 X-4.62129 Y-2.65581
G01 X-4.62132 Y-2.65562
G01 X-4.62129 Y-2.65581
G01 X-4.62523 Y-2.65638
G01 X-4.63395 Y-2.65885
G01 X-4.64381 Y-2.66126
G01 X-4.67714 Y-2.66804
G01 X-4.69756 Y-2.67255
G01 X-4.71730 Y-2.67722
G01 X-4.75032 Y-2.68561
G01 X-4.76345 Y-2.68855
G01 X-4.76784 Y-2.68943
G01 X-4.78686 Y-2.69264
G01 X-4.80883 Y-2.69527
G01 X-4.83323 Y-2.69701
G01 X-4.85982 Y-2.69767
G01 X-4.88547 Y-2.69723
G01 X-4.90000 Y-2.69643
G01 X-4.90000 Y-2.66803
G01 X-4.89584 Y-2.67487
G01 X-4.89139 Y-2.68155
G01 X-4.88507 Y-2.69033
G01 X-4.87953 Y-2.69733
G01 X-4.88507 Y-2.69033
G01 X-4.89139 Y-2.68155
G01 X-4.89584 Y-2.67487
G01 X-4.90000 Y-2.66803
G01 X-4.90000 Y-2.35000
G01 X-4.81808 Y-2.35000
G01 X-4.82655 Y-2.35528
G01 X-4.83216 Y-2.35900
G01 X-4.83764 Y-2.36293
G01 X-4.84396 Y-2.36777
G01 X-4.84890 Y-2.37175
G01 X-4.85430 Y-2.37641
G01 X-4.86501 Y-2.38656
G01 X-4.86946 Y-2.39116
G01 X-4.87375 Y-2.39592
G01 X-4.87971 Y-2.40288
G01 X-4.88415 Y-2.40846
G01 X-4.88770 Y-2.41324
G01 X-4.89320 Y-2.42110
G01 X-4.89691 Y-2.42683
G01 X-4.90000 Y-2.43197
G01 X-4.90000 Y-2.38418
G01 X-4.89196 Y-2.37493
G01 X-4.88452 Y-2.36709
G01 X-4.87408 Y-2.35714
G01 X-4.86585 Y-2.35000
G01 X-3.05000 Y-2.35000
G01 X-3.05000 Y-2.43197
G01 X-3.05309 Y-2.42683
G01 X-3.05680 Y-2.42110
G01 X-3.06230 Y-2.41324
G01 X-3.06584 Y-2.40846
G01 X-3.07029 Y-2.40288
G01 X-3.07625 Y-2.39592
G01 X-3.08054 Y-2.39116
G01 X-3.08499 Y-2.38656
G01 X-3.09570 Y-2.37641
G01 X-3.10110 Y-2.37175
G01 X-3.10604 Y-2.36777
G01 X-3.11236 Y-2.36293
G01 X-3.11784 Y-2.35900
G01 X-3.12345 Y-2.35528
G01 X-3.13192 Y-2.35000
G01 X-3.08415 Y-2.35000
G01 X-3.07592 Y-2.35714
G01 X-3.06548 Y-2.36709
G01 X-3.05803 Y-2.37493
G01 X-3.05000 Y-2.38418
G01 X-3.05000 Y-2.63362
G01 X-3.06806 Y-2.63660
G01 X-3.07430 Y-2.63748
G01 X-3.09793 Y-2.64021
G01 X-3.14123 Y-2.64463
G01 X-3.16238 Y-2.64709
G01 X-3.17899 Y-2.64922
G01 X-3.17423 Y-2.64563
G01 X-3.16783 Y-2.64022
G01 X-3.16185 Y-2.63436
G01 X-3.15758 Y-2.62963
G01 X-3.15255 Y-2.62344
G01 X-3.14752 Y-2.61624
G01 X-3.14442 Y-2.61112
G01 X-3.13992 Y-2.60265
G01 X-3.13627 Y-2.59423
G01 X-3.13365 Y-2.58669
G01 X-3.13198 Y-2.58096
G01 X-3.13012 Y-2.57279
G01 X-3.12881 Y-2.56412
G01 X-3.12829 Y-2.55857
G01 X-3.12797 Y-2.55020
G01 X-3.12826 Y-2.54182
G01 X-3.12881 Y-2.53586
G01 X-3.13013 Y-2.52717
G01 X-3.13210 Y-2.51861
G01 X-3.13365 Y-2.51326
G01 X-3.13658 Y-2.50497
G01 X-3.14014 Y-2.49694
G01 X-3.14287 Y-2.49161
G01 X-3.14690 Y-2.48472
G01 X-3.15164 Y-2.47781
G01 X-3.15454 Y-2.47400
G01 X-3.16026 Y-2.46732
G01 X-3.16445 Y-2.46302
G01 X-3.17061 Y-2.45733
G01 X-3.17750 Y-2.45186
G01 X-3.18241 Y-2.44843
G01 X-3.19023 Y-2.44361
G01 X-3.19805 Y-2.43960
G01 X-3.20353 Y-2.43720
G01 X-3.21214 Y-2.43399
G01 X-3.22137 Y-2.43138
G01 X-3.23077 Y-2.42952
G01 X-3.23631 Y-2.42875
G01 X-3.24504 Y-2.42807
G01 X-3.25337 Y-2.42802
G01 X-3.26364 Y-2.42874
G01 X-3.27305 Y-2.43017
G01 X-3.28229 Y-2.43232
G01 X-3.29133 Y-2.43519
G01 X-3.29762 Y-2.43766
G01 X-3.30166 Y-2.43946
G01 X-3.31266 Y-2.44531
G01 X-3.31713 Y-2.44811
G01 X-3.32196 Y-2.45157
G01 X-3.32160 Y-2.45275
G01 X-3.32196 Y-2.45157
G01 X-3.57794 Y-2.45157
G01 X-3.57827 Y-2.45268
G01 X-3.57794 Y-2.45157
G01 X-3.58184 Y-2.44879
G01 X-3.58519 Y-2.44663
G01 X-3.59386 Y-2.44166
G01 X-3.60364 Y-2.43712
G01 X-3.61417 Y-2.43335
G01 X-3.62344 Y-2.43091
G01 X-3.63176 Y-2.42939
G01 X-3.63233 Y-2.43043
G01 X-3.63176 Y-2.42939
G01 X-3.71116 Y-2.35000
G01 X-3.67219 Y-2.35000
G01 X-3.61838 Y-2.40380
G01 X-3.61888 Y-2.40466
G01 X-3.61838 Y-2.40380
G01 X-3.60945 Y-2.40602
G01 X-3.60268 Y-2.40813
G01 X-3.59264 Y-2.41185
G01 X-3.58363 Y-2.41596
G01 X-3.57700 Y-2.41946
G01 X-3.56937 Y-2.42401
G01 X-3.56962 Y-2.42496
G01 X-3.56937 Y-2.42401
G01 X-3.33064 Y-2.42401
G01 X-3.33042 Y-2.42487
G01 X-3.33064 Y-2.42401
G01 X-3.32949 Y-2.42328
G01 X-3.32464 Y-2.42042
G01 X-3.31583 Y-2.41571
G01 X-3.30787 Y-2.41208
G01 X-3.30230 Y-2.40986
G01 X-3.29739 Y-2.40813
G01 X-3.28830 Y-2.40540
G01 X-3.27781 Y-2.40302
G01 X-3.26704 Y-2.40139
G01 X-3.25620 Y-2.40054
G01 X-3.24819 Y-2.40044
G01 X-3.24290 Y-2.40059
G01 X-3.23448 Y-2.40123
G01 X-3.22823 Y-2.40202
G01 X-3.22002 Y-2.40347
G01 X-3.21424 Y-2.40475
G01 X-3.20546 Y-2.40721
G01 X-3.19948 Y-2.40922
G01 X-3.18918 Y-2.41334
G01 X-3.17922 Y-2.41823
G01 X-3.17239 Y-2.42216
G01 X-3.16668 Y-2.42578
G01 X-3.16279 Y-2.42847
G01 X-3.15342 Y-2.43577
G01 X-3.14523 Y-2.44327
G01 X-3.13966 Y-2.44902
G01 X-3.13244 Y-2.45750
G01 X-3.12613 Y-2.46617
G01 X-3.12159 Y-2.47332
G01 X-3.11642 Y-2.48269
G01 X-3.11135 Y-2.49387
G01 X-3.10757 Y-2.50433
G01 X-3.10532 Y-2.51208
G01 X-3.10303 Y-2.52214
G01 X-3.10134 Y-2.53350
G01 X-3.10073 Y-2.54057
G01 X-3.10041 Y-2.55020
G01 X-3.15553 Y-2.55019
G01 X-3.18309 Y-2.55000
G01 X-3.07286 Y-2.55039
G01 X-3.05000 Y-2.59352
G01 X-3.05000 Y-2.50642
G01 X-3.05331 Y-2.49327
G01 X-3.05738 Y-2.48076
G01 X-3.06128 Y-2.47072
G01 X-3.06642 Y-2.45945
G01 X-3.07087 Y-2.45096
G01 X-3.07716 Y-2.44032
G01 X-3.08435 Y-2.42978
G01 X-3.09014 Y-2.42215
G01 X-3.09818 Y-2.41272
G01 X-3.10478 Y-2.40574
G01 X-3.11407 Y-2.39695
G01 X-3.12264 Y-2.38977
G01 X-3.13222 Y-2.38257
G01 X-3.14292 Y-2.37558
G01 X-3.15153 Y-2.37054
G01 X-3.16256 Y-2.36492
G01 X-3.17206 Y-2.36074
G01 X-3.18440 Y-2.35609
G01 X-3.19010 Y-2.35427
G01 X-3.19702 Y-2.35230
G01 X-3.20639 Y-2.35000
G01 X-3.29360 Y-2.35000
G01 X-3.30076 Y-2.35170
G01 X-3.30702 Y-2.35340
G01 X-3.31542 Y-2.35604
G01 X-3.32210 Y-2.35842
G01 X-3.33135 Y-2.36216
G01 X-3.33866 Y-2.36551
G01 X-3.34522 Y-2.36890
G01 X-3.34505 Y-2.36962
G01 X-3.34522 Y-2.36890
G01 X-3.55458 Y-2.36890
G01 X-3.55473 Y-2.36955
G01 X-3.55458 Y-2.36890
G01 X-3.55634 Y-2.36798
G01 X-3.56534 Y-2.36365
G01 X-3.57192 Y-2.36077
G01 X-3.57862 Y-2.35817
G01 X-3.58844 Y-2.35478
G01 X-3.58992 Y-2.35431
G01 X-3.59029 Y-2.35489
G01 X-3.58992 Y-2.35431
G01 X-3.59423 Y-2.35000
G01 X-3.63321 Y-2.35000
G01 X-3.60435 Y-2.37886
G01 X-3.60474 Y-2.37949
G01 X-3.60435 Y-2.37886
G01 X-3.59924 Y-2.38028
G01 X-3.59273 Y-2.38241
G01 X-3.58255 Y-2.38620
G01 X-3.57302 Y-2.39048
G01 X-3.56689 Y-2.39356
G01 X-3.56173 Y-2.39645
G01 X-3.56190 Y-2.39717
G01 X-3.56173 Y-2.39645
G01 X-3.33825 Y-2.39645
G01 X-3.33807 Y-2.39719
G01 X-3.33825 Y-2.39645
G01 X-3.32924 Y-2.39162
G01 X-3.32248 Y-2.38836
G01 X-3.31064 Y-2.38356
G01 X-3.29923 Y-2.37983
G01 X-3.29393 Y-2.37840
G01 X-3.28692 Y-2.37675
G01 X-3.27582 Y-2.37477
G01 X-3.26708 Y-2.37369
G01 X-3.25504 Y-2.37293
G01 X-3.24420 Y-2.37295
G01 X-3.23341 Y-2.37366
G01 X-3.22500 Y-2.37463
G01 X-3.21510 Y-2.37635
G01 X-3.20684 Y-2.37820
G01 X-3.19678 Y-2.38104
G01 X-3.18990 Y-2.38338
G01 X-3.18055 Y-2.38705
G01 X-3.17321 Y-2.39038
G01 X-3.16357 Y-2.39537
G01 X-3.15698 Y-2.39929
G01 X-3.14757 Y-2.40547
G01 X-3.13924 Y-2.41178
G01 X-3.13365 Y-2.41642
G01 X-3.12543 Y-2.42408
G01 X-3.11959 Y-2.43013
G01 X-3.11302 Y-2.43770
G01 X-3.10829 Y-2.44372
G01 X-3.10209 Y-2.45252
G01 X-3.09772 Y-2.45955
G01 X-3.09244 Y-2.46903
G01 X-3.08781 Y-2.47884
G01 X-3.08442 Y-2.48704
G01 X-3.08127 Y-2.49611
G01 X-3.07893 Y-2.50405
G01 X-3.07644 Y-2.51456
G01 X-3.07510 Y-2.52210
G01 X-3.07373 Y-2.53246
G01 X-3.07318 Y-2.53970
G01 X-3.07286 Y-2.55079
G01 X-3.07324 Y-2.56147
G01 X-3.07392 Y-2.56932
G01 X-3.07527 Y-2.57913
G01 X-3.07684 Y-2.58726
G01 X-3.07949 Y-2.59802
G01 X-3.08272 Y-2.60821
G01 X-3.08575 Y-2.61633
G01 X-3.09026 Y-2.62657
G01 X-3.09298 Y-2.63197
G01 X-3.09647 Y-2.63830
G01 X-3.09754 Y-2.64017
G01 X-3.09793 Y-2.64021
G01 X-3.07430 Y-2.63748
G01 X-3.06424 Y-2.63597
G01 X-3.05972 Y-2.62549
G01 X-3.05644 Y-2.61652
G01 X-3.05285 Y-2.60511
G01 X-3.05000 Y-2.59352
G01 X-3.07286 Y-2.55039
G01 X-3.10041 Y-2.55020
G01 X-3.10099 Y-2.56306
G01 X-3.10156 Y-2.56828
G01 X-3.10273 Y-2.57623
G01 X-3.10376 Y-2.58137
G01 X-3.10564 Y-2.58919
G01 X-3.10699 Y-2.59383
G01 X-3.10928 Y-2.60069
G01 X-3.11144 Y-2.60635
G01 X-3.11481 Y-2.61402
G01 X-3.11727 Y-2.61896
G01 X-3.12073 Y-2.62522
G01 X-3.12336 Y-2.62962
G01 X-3.12597 Y-2.63357
G01 X-3.13013 Y-2.63948
G01 X-3.13352 Y-2.64382
G01 X-3.15789 Y-2.64656
G01 X-3.17701 Y-2.64895
G01 X-3.20024 Y-2.65221
G01 X-3.21535 Y-2.65457
G01 X-3.22273 Y-2.65558
G01 X-3.23324 Y-2.65659
G01 X-3.24334 Y-2.65711
G01 X-3.25260 Y-2.65719
G01 X-3.26189 Y-2.65690
G01 X-3.27340 Y-2.65601
G01 X-3.28240 Y-2.65491
G01 X-3.29116 Y-2.65350
G01 X-3.29961 Y-2.65182
G01 X-3.30898 Y-2.64959
G01 X-3.32157 Y-2.64601
G01 X-3.32557 Y-2.64542
G01 X-3.32554 Y-2.64522
G01 X-3.32557 Y-2.64542
G01 X-3.52510 Y-2.64542
G01 X-3.57649 Y-2.62415
G01 X-3.57861 Y-2.62347
G01 X-3.57854 Y-2.62321
G01 X-3.57861 Y-2.62347
G01 X-3.58081 Y-2.62313
G01 X-3.59360 Y-2.62206
G01 X-3.60662 Y-2.62028
G01 X-3.61919 Y-2.61779
G01 X-3.62626 Y-2.61601
G01 X-3.63178 Y-2.61438
G01 X-3.63859 Y-2.61592
G01 X-3.64287 Y-2.61653
G01 X-3.64830 Y-2.61689
G01 X-3.65374 Y-2.61680
G01 X-3.65842 Y-2.61637
G01 X-3.66517 Y-2.61514
G01 X-3.63942 Y-2.64086
G01 X-3.62918 Y-2.64373
G01 X-3.61672 Y-2.64652
G01 X-3.60713 Y-2.64810
G01 X-3.60096 Y-2.64895
G01 X-3.58495 Y-2.65047
G01 X-3.53312 Y-2.67193
G01 X-3.53053 Y-2.67271
G01 X-3.53063 Y-2.67323
G01 X-3.53053 Y-2.67271
G01 X-3.52784 Y-2.67298
G01 X-3.32761 Y-2.67298
G01 X-3.31583 Y-2.67629
G01 X-3.30570 Y-2.67870
G01 X-3.29297 Y-2.68118
G01 X-3.28623 Y-2.68220
G01 X-3.27339 Y-2.68372
G01 X-3.26336 Y-2.68442
G01 X-3.25295 Y-2.68477
G01 X-3.24256 Y-2.68466
G01 X-3.23126 Y-2.68408
G01 X-3.21950 Y-2.68295
G01 X-3.18312 Y-2.67759
G01 X-3.15897 Y-2.67444
G01 X-3.13819 Y-2.67202
G01 X-3.09493 Y-2.66761
G01 X-3.07097 Y-2.66483
G01 X-3.06374 Y-2.66382
G01 X-3.05000 Y-2.66155
G01 X-3.05000 Y-2.67310
G01 X-3.05991 Y-2.66319
G01 X-3.05000 Y-2.67310
G01 X-3.05000 Y-2.76773
G01 X-3.05197 Y-2.76277
G01 X-3.05506 Y-2.75580
G01 X-3.05759 Y-2.75082
G01 X-3.06038 Y-2.74598
G01 X-3.06427 Y-2.73991
G01 X-3.06748 Y-2.73537
G01 X-3.07117 Y-2.73070
G01 X-3.07592 Y-2.72527
G01 X-3.12242 Y-2.67865
G01 X-3.12858 Y-2.67295
G01 X-3.13063 Y-2.67123
G01 X-3.13819 Y-2.67202
G01 X-3.09453 Y-2.66756
G01 X-3.05868 Y-2.70340
G01 X-3.05464 Y-2.70772
G01 X-3.05000 Y-2.71305
G01 X-3.05000 Y-3.51114
G01 X-3.13886 Y-3.60000
G01 X-3.17916 Y-3.60000
G01 X-3.17099 Y-3.59280
G01 X-3.16410 Y-3.58626
G01 X-3.05000 Y-3.47216
G01 X-3.05000 Y-3.43319
G01 X-3.18533 Y-3.56847
G01 X-3.19180 Y-3.57446
G01 X-3.20035 Y-3.58179
G01 X-3.20795 Y-3.58773
G01 X-3.21613 Y-3.59355
G01 X-3.22608 Y-3.60000
G01 X-3.29506 Y-3.60000
G01 X-3.13886 Y-3.60000
G01 X-3.05000 Y-3.51114
G01 X-3.05000 Y-3.55011
G01 X-3.09989 Y-3.60000
G01 X-3.87592 Y-3.60000
G01 X-3.88431 Y-3.59753
G01 X-3.89264 Y-3.59467
G01 X-3.90010 Y-3.59184
G01 X-3.90779 Y-3.58854
G01 X-3.91569 Y-3.58473
G01 X-3.92415 Y-3.58018
G01 X-3.93103 Y-3.57615
G01 X-3.93774 Y-3.57183
G01 X-3.94490 Y-3.56677
G01 X-3.95252 Y-3.56090
G01 X-3.95925 Y-3.55526
G01 X-3.96543 Y-3.54959
G01 X-3.98482 Y-3.53027
G01 X-3.98388 Y-3.52751
G01 X-3.98482 Y-3.53027
G01 X-3.99541 Y-3.53152
G01 X-4.00659 Y-3.53219
G01 X-4.08940 Y-3.53227
G01 X-4.09820 Y-3.53198
G01 X-4.10732 Y-3.53125
G01 X-4.10889 Y-3.49971
G01 X-4.10656 Y-3.54631
G01 X-4.10363 Y-3.60000
G01 X-3.94485 Y-3.60000
G01 X-3.95311 Y-3.59470
G01 X-3.96101 Y-3.58914
G01 X-3.96961 Y-3.58252
G01 X-3.97756 Y-3.57585
G01 X-3.98490 Y-3.56909
G01 X-3.99493 Y-3.55913
G01 X-3.99403 Y-3.55680
G01 X-3.99493 Y-3.55913
G01 X-4.00779 Y-3.55979
G01 X-4.08860 Y-3.55984
G01 X-4.09701 Y-3.55963
G01 X-4.10586 Y-3.55907
G01 X-4.10656 Y-3.54631
G01 X-4.10435 Y-3.58682
G01 X-4.09620 Y-3.58724
G01 X-4.08900 Y-3.58740
G01 X-4.00900 Y-3.58738
G01 X-4.00571 Y-3.58731
G01 X-4.00499 Y-3.58544
G01 X-4.00571 Y-3.58731
G01 X-3.99885 Y-3.59378
G01 X-3.99175 Y-3.60000
G01 X-3.29506 Y-3.60000
G01 X-3.28334 Y-3.59649
G01 X-3.27768 Y-3.59450
G01 X-3.27134 Y-3.59203
G01 X-3.25849 Y-3.58636
G01 X-3.25241 Y-3.58330
G01 X-3.24643 Y-3.58004
G01 X-3.24058 Y-3.57657
G01 X-3.23448 Y-3.57267
G01 X-3.22948 Y-3.56929
G01 X-3.22426 Y-3.56551
G01 X-3.21917 Y-3.56157
G01 X-3.21452 Y-3.55772
G01 X-3.20911 Y-3.55296
G01 X-3.20420 Y-3.54838
G01 X-3.05000 Y-3.39421
G01 X-3.05000 Y-3.35524
G01 X-3.22201 Y-3.52725
G01 X-3.22874 Y-3.53355
G01 X-3.23706 Y-3.54059
G01 X-3.24187 Y-3.54426
G01 X-3.24714 Y-3.54799
G01 X-3.25390 Y-3.55240
G01 X-3.25941 Y-3.55571
G01 X-3.26469 Y-3.55863
G01 X-3.27044 Y-3.56152
G01 X-3.28297 Y-3.56701
G01 X-3.28937 Y-3.56942
G01 X-3.29509 Y-3.57133
G01 X-3.30165 Y-3.57324
G01 X-3.30869 Y-3.57499
G01 X-3.31494 Y-3.57634
G01 X-3.32084 Y-3.57740
G01 X-3.32638 Y-3.57818
G01 X-3.33233 Y-3.57882
G01 X-3.34108 Y-3.57945
G01 X-3.34936 Y-3.57965
G01 X-3.82402 Y-3.57957
G01 X-3.83039 Y-3.57941
G01 X-3.83714 Y-3.57898
G01 X-3.84388 Y-3.57827
G01 X-3.85018 Y-3.57735
G01 X-3.86002 Y-3.57550
G01 X-3.86857 Y-3.57344
G01 X-3.87699 Y-3.57093
G01 X-3.88682 Y-3.56745
G01 X-3.89458 Y-3.56426
G01 X-3.90253 Y-3.56050
G01 X-3.91170 Y-3.55556
G01 X-3.91956 Y-3.55080
G01 X-3.92683 Y-3.54585
G01 X-3.93480 Y-3.53978
G01 X-3.94153 Y-3.53414
G01 X-3.94738 Y-3.52870
G01 X-3.97560 Y-3.50053
G01 X-3.97458 Y-3.49725
G01 X-3.97560 Y-3.50053
G01 X-3.98275 Y-3.50201
G01 X-3.98986 Y-3.50315
G01 X-3.99741 Y-3.50402
G01 X-4.00500 Y-3.50455
G01 X-4.01260 Y-3.50472
G01 X-4.08940 Y-3.50471
G01 X-4.09900 Y-3.50432
G01 X-4.10871 Y-3.50335
G01 X-4.10889 Y-3.49971
G01 X-4.10683 Y-3.45062
G01 X-4.10668 Y-3.44791
G01 X-4.09741 Y-3.44915
G01 X-4.09261 Y-3.44948
G01 X-4.08780 Y-3.44961
G01 X-4.01059 Y-3.44959
G01 X-4.00259 Y-3.44915
G01 X-3.99504 Y-3.44820
G01 X-3.99031 Y-3.44733
G01 X-3.98562 Y-3.44625
G01 X-3.98098 Y-3.44497
G01 X-3.97641 Y-3.44349
G01 X-3.97190 Y-3.44182
G01 X-3.96747 Y-3.43994
G01 X-3.96312 Y-3.43788
G01 X-3.95887 Y-3.43563
G01 X-3.95782 Y-3.43503
G01 X-3.95551 Y-3.42616
G01 X-3.95782 Y-3.43503
G01 X-3.95392 Y-3.44115
G01 X-3.94991 Y-3.44663
G01 X-3.94432 Y-3.45347
G01 X-3.93943 Y-3.45875
G01 X-3.90900 Y-3.48915
G01 X-3.90490 Y-3.49295
G01 X-3.90093 Y-3.49630
G01 X-3.89322 Y-3.50211
G01 X-3.88646 Y-3.50649
G01 X-3.87726 Y-3.51151
G01 X-3.86919 Y-3.51516
G01 X-3.85971 Y-3.51859
G01 X-3.85158 Y-3.52090
G01 X-3.84129 Y-3.52295
G01 X-3.83288 Y-3.52402
G01 X-3.82805 Y-3.52434
G01 X-3.82321 Y-3.52445
G01 X-3.34895 Y-3.52453
G01 X-3.34264 Y-3.52433
G01 X-3.33504 Y-3.52370
G01 X-3.32906 Y-3.52289
G01 X-3.32274 Y-3.52166
G01 X-3.31455 Y-3.51962
G01 X-3.30733 Y-3.51731
G01 X-3.29805 Y-3.51355
G01 X-3.29155 Y-3.51047
G01 X-3.28459 Y-3.50657
G01 X-3.27689 Y-3.50155
G01 X-3.27085 Y-3.49704
G01 X-3.26508 Y-3.49211
G01 X-3.26042 Y-3.48771
G01 X-3.07924 Y-3.30653
G01 X-3.07564 Y-3.30276
G01 X-3.07115 Y-3.29761
G01 X-3.06815 Y-3.29385
G01 X-3.06509 Y-3.28963
G01 X-3.06154 Y-3.28426
G01 X-3.05886 Y-3.27979
G01 X-3.05658 Y-3.27556
G01 X-3.05374 Y-3.26975
G01 X-3.05179 Y-3.26528
G01 X-3.05000 Y-3.26059
G01 X-3.06997 Y-3.21762
G01 X-3.12509 Y-3.21762
G01 X-3.06997 Y-3.21762
G01 X-3.05000 Y-3.26059
G01 X-3.05000 Y-3.31528
G01 X-3.05516 Y-3.32119
G01 X-3.05947 Y-3.32574
G01 X-3.24093 Y-3.50719
G01 X-3.24634 Y-3.51232
G01 X-3.25328 Y-3.51827
G01 X-3.25767 Y-3.52168
G01 X-3.26253 Y-3.52512
G01 X-3.26856 Y-3.52906
G01 X-3.27367 Y-3.53212
G01 X-3.27856 Y-3.53478
G01 X-3.28355 Y-3.53724
G01 X-3.29530 Y-3.54224
G01 X-3.30091 Y-3.54425
G01 X-3.30622 Y-3.54590
G01 X-3.31121 Y-3.54725
G01 X-3.31864 Y-3.54897
G01 X-3.32416 Y-3.55001
G01 X-3.32931 Y-3.55078
G01 X-3.33489 Y-3.55138
G01 X-3.34172 Y-3.55188
G01 X-3.34935 Y-3.55209
G01 X-3.82362 Y-3.55201
G01 X-3.82882 Y-3.55189
G01 X-3.83441 Y-3.55155
G01 X-3.84475 Y-3.55031
G01 X-3.85423 Y-3.54855
G01 X-3.86202 Y-3.54666
G01 X-3.87006 Y-3.54419
G01 X-3.87949 Y-3.54072
G01 X-3.88792 Y-3.53698
G01 X-3.89611 Y-3.53270
G01 X-3.90303 Y-3.52866
G01 X-3.90970 Y-3.52421
G01 X-3.91927 Y-3.51691
G01 X-3.92646 Y-3.51059
G01 X-3.96143 Y-3.47564
G01 X-3.96695 Y-3.46938
G01 X-3.96561 Y-3.46481
G01 X-3.96695 Y-3.46938
G01 X-3.96933 Y-3.47020
G01 X-3.97738 Y-3.47259
G01 X-3.98518 Y-3.47441
G01 X-3.99346 Y-3.47583
G01 X-4.00181 Y-3.47674
G01 X-4.01180 Y-3.47716
G01 X-4.08900 Y-3.47716
G01 X-4.09859 Y-3.47671
G01 X-4.10796 Y-3.47562
G01 X-4.10683 Y-3.45062
G01 X-4.10464 Y-3.41167
G01 X-4.10379 Y-3.39968
G01 X-4.10235 Y-3.38320
G01 X-4.10379 Y-3.39968
G01 X-4.10511 Y-3.42013
G01 X-4.09978 Y-3.42111
G01 X-4.09421 Y-3.42177
G01 X-4.08780 Y-3.42205
G01 X-4.01180 Y-3.42204
G01 X-4.00539 Y-3.42173
G01 X-3.99864 Y-3.42086
G01 X-3.99198 Y-3.41943
G01 X-3.98508 Y-3.41733
G01 X-3.97838 Y-3.41464
G01 X-3.97230 Y-3.41156
G01 X-3.96851 Y-3.40931
G01 X-3.96518 Y-3.40709
G01 X-3.96163 Y-3.40447
G01 X-3.95824 Y-3.40166
G01 X-3.95448 Y-3.39818
G01 X-3.95509 Y-3.39652
G01 X-3.95448 Y-3.39818
G01 X-3.94551 Y-3.39818
G01 X-3.94472 Y-3.39619
G01 X-3.94551 Y-3.39818
G01 X-3.94359 Y-3.40002
G01 X-3.94300 Y-3.39963
G01 X-3.94359 Y-3.40002
G01 X-3.94293 Y-3.40204
G01 X-3.94048 Y-3.40842
G01 X-3.93835 Y-3.41318
G01 X-3.93632 Y-3.41709
G01 X-3.93351 Y-3.42198
G01 X-3.93133 Y-3.42536
G01 X-3.92874 Y-3.42895
G01 X-3.92395 Y-3.43488
G01 X-3.92022 Y-3.43898
G01 X-3.89009 Y-3.46909
G01 X-3.88718 Y-3.47183
G01 X-3.88415 Y-3.47443
G01 X-3.88034 Y-3.47739
G01 X-3.87504 Y-3.48114
G01 X-3.86946 Y-3.48446
G01 X-3.86187 Y-3.48832
G01 X-3.85585 Y-3.49076
G01 X-3.84737 Y-3.49352
G01 X-3.84105 Y-3.49499
G01 X-3.83274 Y-3.49634
G01 X-3.82798 Y-3.49675
G01 X-3.82320 Y-3.49689
G01 X-3.34649 Y-3.49693
G01 X-3.33839 Y-3.49635
G01 X-3.33197 Y-3.49543
G01 X-3.32368 Y-3.49354
G01 X-3.31752 Y-3.49168
G01 X-3.31376 Y-3.49027
G01 X-3.30892 Y-3.48822
G01 X-3.30349 Y-3.48562
G01 X-3.29758 Y-3.48219
G01 X-3.29062 Y-3.47749
G01 X-3.28598 Y-3.47378
G01 X-3.28018 Y-3.46849
G01 X-3.09873 Y-3.28704
G01 X-3.09580 Y-3.28396
G01 X-3.09112 Y-3.27849
G01 X-3.08733 Y-3.27332
G01 X-3.08323 Y-3.26688
G01 X-3.07950 Y-3.25976
G01 X-3.07674 Y-3.25343
G01 X-3.07434 Y-3.24658
G01 X-3.07276 Y-3.24078
G01 X-3.07124 Y-3.23333
G01 X-3.07037 Y-3.22624
G01 X-3.06997 Y-3.21762
G01 X-3.06997 Y-2.81031
G01 X-3.07042 Y-2.80180
G01 X-3.07118 Y-2.79535
G01 X-3.07226 Y-2.78978
G01 X-3.07416 Y-2.78235
G01 X-3.07609 Y-2.77664
G01 X-3.07872 Y-2.77031
G01 X-3.08096 Y-2.76559
G01 X-3.08370 Y-2.76067
G01 X-3.08761 Y-2.75460
G01 X-3.09090 Y-2.75012
G01 X-3.09503 Y-2.74524
G01 X-3.09820 Y-2.74182
G01 X-3.14275 Y-2.69731
G01 X-3.14599 Y-2.69433
G01 X-3.14938 Y-2.69153
G01 X-3.15389 Y-2.68810
G01 X-3.15827 Y-2.68515
G01 X-3.16211 Y-2.68288
G01 X-3.16742 Y-2.68005
G01 X-3.17137 Y-2.67820
G01 X-3.17545 Y-2.67655
G01 X-3.19610 Y-2.67946
G01 X-3.21149 Y-2.68186
G01 X-3.22310 Y-2.68335
G01 X-3.23516 Y-2.68433
G01 X-3.24256 Y-2.68466
G01 X-3.25295 Y-2.68475
G01 X-3.26336 Y-2.68442
G01 X-3.27339 Y-2.68370
G01 X-3.28303 Y-2.68263
G01 X-3.29297 Y-2.68116
G01 X-3.30264 Y-2.67935
G01 X-3.31238 Y-2.67715
G01 X-3.32761 Y-2.67298
G01 X-3.52784 Y-2.67298
G01 X-3.53053 Y-2.67271
G01 X-3.53312 Y-2.67193
G01 X-3.58495 Y-2.65047
G01 X-3.59663 Y-2.64945
G01 X-3.61131 Y-2.64744
G01 X-3.61671 Y-2.64648
G01 X-3.62554 Y-2.64461
G01 X-3.63341 Y-2.64262
G01 X-3.63942 Y-2.64086
G01 X-3.62918 Y-2.64373
G01 X-3.61671 Y-2.64648
G01 X-3.60685 Y-2.64814
G01 X-3.60068 Y-2.64898
G01 X-3.59133 Y-2.64996
G01 X-3.54371 Y-2.69753
G01 X-3.54458 Y-2.69963
G01 X-3.54371 Y-2.69753
G01 X-3.21071 Y-2.69753
G01 X-3.20711 Y-2.69765
G01 X-3.20192 Y-2.69808
G01 X-3.19840 Y-2.69863
G01 X-3.19369 Y-2.69963
G01 X-3.19024 Y-2.70056
G01 X-3.18723 Y-2.70158
G01 X-3.18311 Y-2.70315
G01 X-3.17916 Y-2.70499
G01 X-3.17494 Y-2.70729
G01 X-3.17192 Y-2.70914
G01 X-3.16522 Y-2.71415
G01 X-3.16166 Y-2.71736
G01 X-3.11823 Y-2.76076
G01 X-3.11364 Y-2.76584
G01 X-3.11051 Y-2.76994
G01 X-3.10661 Y-2.77608
G01 X-3.10438 Y-2.78044
G01 X-3.10185 Y-2.78643
G01 X-3.10032 Y-2.79108
G01 X-3.09874 Y-2.79773
G01 X-3.09804 Y-2.80239
G01 X-3.09757 Y-2.80874
G01 X-3.09753 Y-3.21762
G01 X-3.09787 Y-3.22444
G01 X-3.09856 Y-3.22955
G01 X-3.10003 Y-3.23621
G01 X-3.10201 Y-3.24233
G01 X-3.10404 Y-3.24720
G01 X-3.10699 Y-3.25293
G01 X-3.11070 Y-3.25867
G01 X-3.11389 Y-3.26279
G01 X-3.11821 Y-3.26756
G01 X-3.30054 Y-3.44985
G01 X-3.30415 Y-3.45305
G01 X-3.30694 Y-3.45528
G01 X-3.31434 Y-3.46014
G01 X-3.31831 Y-3.46222
G01 X-3.32315 Y-3.46434
G01 X-3.32930 Y-3.46651
G01 X-3.33480 Y-3.46788
G01 X-3.33906 Y-3.46867
G01 X-3.34500 Y-3.46925
G01 X-3.34894 Y-3.46942
G01 X-3.82320 Y-3.46933
G01 X-3.82763 Y-3.46915
G01 X-3.83244 Y-3.46855
G01 X-3.83947 Y-3.46711
G01 X-3.84398 Y-3.46573
G01 X-3.85065 Y-3.46315
G01 X-3.85700 Y-3.45986
G01 X-3.86101 Y-3.45737
G01 X-3.86644 Y-3.45331
G01 X-3.87032 Y-3.44987
G01 X-3.90049 Y-3.41974
G01 X-3.90300 Y-3.41697
G01 X-3.90709 Y-3.41189
G01 X-3.90985 Y-3.40785
G01 X-3.91247 Y-3.40327
G01 X-3.91424 Y-3.39968
G01 X-3.91608 Y-3.39521
G01 X-3.91775 Y-3.39027
G01 X-3.91921 Y-3.38438
G01 X-3.91808 Y-3.38367
G01 X-3.91921 Y-3.38438
G01 X-3.92064 Y-3.38334
G01 X-3.92493 Y-3.37974
G01 X-3.92910 Y-3.37541
G01 X-3.93281 Y-3.37062
G01 X-3.93157 Y-3.36799
G01 X-3.93281 Y-3.37062
G01 X-3.96719 Y-3.37062
G01 X-3.96835 Y-3.36810
G01 X-3.96719 Y-3.37062
G01 X-3.96863 Y-3.37260
G01 X-3.97142 Y-3.37601
G01 X-3.97419 Y-3.37891
G01 X-3.97717 Y-3.38159
G01 X-3.98066 Y-3.38429
G01 X-3.98609 Y-3.38769
G01 X-3.99188 Y-3.39044
G01 X-3.99488 Y-3.39156
G01 X-3.99833 Y-3.39261
G01 X-4.00461 Y-3.39391
G01 X-4.00859 Y-3.39434
G01 X-4.01220 Y-3.39449
G01 X-4.08820 Y-3.39448
G01 X-4.09220 Y-3.39428
G01 X-4.09579 Y-3.39385
G01 X-4.09933 Y-3.39318
G01 X-4.10313 Y-3.39220
G01 X-4.10235 Y-3.38320
G01 X-4.10134 Y-3.37414
G01 X-4.09985 Y-3.36395
G01 X-4.10353 Y-3.36171
G01 X-4.10660 Y-3.35914
G01 X-4.10951 Y-3.35583
G01 X-4.11167 Y-3.35242
G01 X-4.11022 Y-3.34670
G01 X-4.10925 Y-3.34352
G01 X-4.10520 Y-3.33223
G01 X-4.10274 Y-3.32336
G01 X-4.10150 Y-3.31729
G01 X-4.10065 Y-3.31132
G01 X-4.10015 Y-3.30534
G01 X-4.10001 Y-3.30054
G01 X-4.10013 Y-3.29505
G01 X-4.10054 Y-3.28969
G01 X-4.10140 Y-3.28334
G01 X-4.10246 Y-3.27781
G01 X-4.10377 Y-3.27257
G01 X-4.10495 Y-3.26857
G01 X-4.10907 Y-3.25703
G01 X-4.10991 Y-3.25435
G01 X-4.11166 Y-3.24755
G01 X-4.11043 Y-3.24548
G01 X-4.10902 Y-3.24354
G01 X-4.10717 Y-3.24143
G01 X-4.10511 Y-3.23952
G01 X-4.10288 Y-3.23783
G01 X-4.10048 Y-3.23637
G01 X-4.09832 Y-3.23532
G01 X-4.09569 Y-3.23435
G01 X-4.09297 Y-3.23364
G01 X-4.09020 Y-3.23321
G01 X-4.08740 Y-3.23307
G01 X-4.01060 Y-3.23314
G01 X-4.00821 Y-3.23342
G01 X-4.00585 Y-3.23391
G01 X-4.00168 Y-3.23532
G01 X-3.99952 Y-3.23637
G01 X-3.99745 Y-3.23760
G01 X-3.99551 Y-3.23901
G01 X-3.99369 Y-3.24058
G01 X-3.99201 Y-3.24231
G01 X-3.99049 Y-3.24417
G01 X-3.98815 Y-3.24790
G01 X-3.98714 Y-3.25008
G01 X-3.98631 Y-3.25234
G01 X-3.98569 Y-3.25467
G01 X-3.98529 Y-3.25694
G01 X-3.91471 Y-3.25694
G01 X-3.91391 Y-3.25311
G01 X-3.91238 Y-3.24898
G01 X-3.91020 Y-3.24515
G01 X-3.90772 Y-3.24201
G01 X-3.90481 Y-3.23926
G01 X-3.90118 Y-3.23676
G01 X-3.89758 Y-3.23502
G01 X-3.89337 Y-3.23372
G01 X-3.89020 Y-3.23321
G01 X-3.88740 Y-3.23307
G01 X-3.81260 Y-3.23307
G01 X-3.80821 Y-3.23342
G01 X-3.80546 Y-3.23401
G01 X-3.80242 Y-3.23502
G01 X-3.79952 Y-3.23637
G01 X-3.79679 Y-3.23805
G01 X-3.79428 Y-3.24004
G01 X-3.79201 Y-3.24231
G01 X-3.79002 Y-3.24482
G01 X-3.78833 Y-3.24757
G01 X-3.79042 Y-3.25546
G01 X-3.79529 Y-3.26935
G01 X-3.79676 Y-3.27458
G01 X-3.79770 Y-3.27858
G01 X-3.79866 Y-3.28368
G01 X-3.79940 Y-3.28909
G01 X-3.79984 Y-3.29449
G01 X-3.79999 Y-3.29939
G01 X-3.79975 Y-3.30702
G01 X-3.79893 Y-3.31458
G01 X-3.79751 Y-3.32229
G01 X-3.79542 Y-3.33025
G01 X-3.79033 Y-3.34485
G01 X-3.78835 Y-3.35240
G01 X-3.78333 Y-3.35574
G01 X-3.79043 Y-3.35574
G01 X-3.78834 Y-3.35245
G01 X-3.78881 Y-3.35040
G01 X-3.78835 Y-3.35240
G01 X-3.78333 Y-3.35574
G01 X-3.77365 Y-3.35803
G01 X-3.76322 Y-3.35962
G01 X-3.75867 Y-3.36003
G01 X-3.75135 Y-3.36034
G01 X-3.74682 Y-3.36030
G01 X-3.73916 Y-3.35984
G01 X-3.73587 Y-3.35950
G01 X-3.72803 Y-3.35834
G01 X-3.71942 Y-3.35648
G01 X-3.68369 Y-3.36280
G01 X-3.68045 Y-3.36328
G01 X-3.67535 Y-3.36376
G01 X-3.67244 Y-3.36387
G01 X-3.45275 Y-3.36389
G01 X-3.44632 Y-3.36609
G01 X-3.44043 Y-3.36764
G01 X-3.43360 Y-3.36892
G01 X-3.42604 Y-3.36968
G01 X-3.42176 Y-3.36980
G01 X-3.37607 Y-3.36976
G01 X-3.36867 Y-3.36922
G01 X-3.36201 Y-3.36817
G01 X-3.35892 Y-3.36601
G01 X-3.35496 Y-3.36291
G01 X-3.34923 Y-3.35769
G01 X-3.34408 Y-3.35202
G01 X-3.33951 Y-3.34595
G01 X-3.33525 Y-3.33908
G01 X-3.33312 Y-3.33506
G01 X-3.33119 Y-3.33094
G01 X-3.32821 Y-3.32342
G01 X-3.32648 Y-3.31810
G01 X-3.32530 Y-3.31388
G01 X-3.29910 Y-3.28768
G01 X-3.29842 Y-3.28719
G01 X-3.29956 Y-3.28801
G01 X-3.30179 Y-3.28910
G01 X-3.30824 Y-3.29148
G01 X-3.31065 Y-3.29205
G01 X-3.31505 Y-3.29276
G01 X-3.31857 Y-3.29303
G01 X-3.33638 Y-3.29305
G01 X-3.34127 Y-3.29091
G01 X-3.34531 Y-3.28937
G01 X-3.45432 Y-3.28937
G01 X-3.45760 Y-3.28812
G01 X-3.46394 Y-3.28535
G01 X-3.46791 Y-3.27992
G01 X-3.46953 Y-3.27728
G01 X-3.47274 Y-3.27068
G01 X-3.47523 Y-3.26295
G01 X-3.47655 Y-3.25494
G01 X-3.47669 Y-3.24798
G01 X-3.47648 Y-3.24451
G01 X-3.47545 Y-3.23802
G01 X-3.47476 Y-3.23540
G01 X-3.47268 Y-3.22917
G01 X-3.46980 Y-3.22323
G01 X-3.46811 Y-3.22038
G01 X-3.46393 Y-3.21464
G01 X-3.46249 Y-3.21396
G01 X-3.45432 Y-3.21064
G01 X-3.34532 Y-3.21061
G01 X-3.33743 Y-3.20740
G01 X-3.33270 Y-3.20201
G01 X-3.29306 Y-3.16238
G01 X-3.29306 Y-3.00121
G01 X-3.29830 Y-2.99628
G01 X-3.30171 Y-2.99246
G01 X-3.30503 Y-2.98805
G01 X-3.30872 Y-2.98208
G01 X-3.31176 Y-2.97573
G01 X-3.31411 Y-2.96911
G01 X-3.31548 Y-2.96377
G01 X-3.31632 Y-2.95872
G01 X-3.31690 Y-2.95094
G01 X-3.31666 Y-2.94423
G01 X-3.36115 Y-2.89975
G01 X-3.36386 Y-2.90105
G01 X-3.36689 Y-2.90210
G01 X-3.37002 Y-2.90280
G01 X-3.37321 Y-2.90312
G01 X-3.42599 Y-2.90315
G01 X-3.42998 Y-2.90280
G01 X-3.43388 Y-2.90187
G01 X-3.43796 Y-2.90022
G01 X-3.44140 Y-2.89817
G01 X-3.44331 Y-2.89670
G01 X-3.44536 Y-2.89479
G01 X-3.44721 Y-2.89268
G01 X-3.44883 Y-2.89040
G01 X-3.45022 Y-2.88796
G01 X-3.45135 Y-2.88539
G01 X-3.45221 Y-2.88272
G01 X-3.45280 Y-2.87998
G01 X-3.45307 Y-2.87769
G01 X-3.45120 Y-2.86973
G01 X-3.44998 Y-2.86223
G01 X-3.44946 Y-2.85680
G01 X-3.44923 Y-2.84860
G01 X-3.44955 Y-2.84203
G01 X-3.45028 Y-2.83561
G01 X-3.45141 Y-2.82927
G01 X-3.45221 Y-2.82579
G01 X-3.45307 Y-2.82237
G01 X-3.45358 Y-2.82149
G01 X-3.45495 Y-2.81946
G01 X-3.45789 Y-2.81562
G01 X-3.46213 Y-2.81121
G01 X-3.46565 Y-2.80988
G01 X-3.47194 Y-2.80786
G01 X-3.47514 Y-2.80699
G01 X-3.48124 Y-2.80565
G01 X-3.48995 Y-2.80443
G01 X-3.49356 Y-2.80417
G01 X-3.49948 Y-2.80405
G01 X-3.50858 Y-2.80460
G01 X-3.51449 Y-2.80544
G01 X-3.51770 Y-2.80606
G01 X-3.52433 Y-2.80769
G01 X-3.52779 Y-2.80874
G01 X-3.53476 Y-2.81123
G01 X-3.53813 Y-2.81468
G01 X-3.54011 Y-2.81708
G01 X-3.54334 Y-2.82158
G01 X-3.54603 Y-2.82644
G01 X-3.54734 Y-2.82925
G01 X-3.54925 Y-2.83446
G01 X-3.55089 Y-2.84157
G01 X-3.60760 Y-2.89828
G01 X-3.60954 Y-2.89671
G01 X-3.61349 Y-2.89394
G01 X-3.61795 Y-2.89128
G01 X-3.62031 Y-2.89006
G01 X-3.62656 Y-2.88734
G01 X-3.63350 Y-2.88516
G01 X-3.64027 Y-2.88382
G01 X-3.64319 Y-2.88347
G01 X-3.65041 Y-2.88310
G01 X-3.65835 Y-2.88362
G01 X-3.66465 Y-2.88471
G01 X-3.66898 Y-2.88584
G01 X-3.67321 Y-2.88726
G01 X-3.67851 Y-2.88947
G01 X-3.68625 Y-2.89377
G01 X-3.69111 Y-2.89721
G01 X-3.69549 Y-2.90094
G01 X-3.70121 Y-2.90694
G01 X-3.97796 Y-2.90694
G01 X-4.04434 Y-2.84056
G01 X-4.06890 Y-2.83039
G01 X-4.07460 Y-2.82739
G01 X-4.07939 Y-2.82349
G01 X-4.08329 Y-2.81870
G01 X-4.08629 Y-2.81300
G01 X-4.09646 Y-2.78844
G01 X-4.09646 Y-2.70019
G01 X-4.27384 Y-2.61150
G01 X-4.27796 Y-2.61317
G01 X-4.28411 Y-2.61499
G01 X-4.29320 Y-2.61656
G01 X-4.30034 Y-2.61691
G01 X-4.30627 Y-2.61659
G01 X-4.30895 Y-2.61629
G01 X-4.31517 Y-2.61517
G01 X-4.32127 Y-2.61342
G01 X-4.32392 Y-2.61246
G01 X-4.32986 Y-2.60988
G01 X-4.33619 Y-2.60627
G01 X-4.33819 Y-2.60491
G01 X-4.34351 Y-2.60082
G01 X-4.34815 Y-2.59646
G01 X-4.35091 Y-2.59331
G01 X-4.64902 Y-2.59331
G01 X-4.65386 Y-2.59844
G01 X-4.65708 Y-2.60133
G01 X-4.66116 Y-2.60448
G01 X-4.66521 Y-2.60715
G01 X-4.66904 Y-2.60931
G01 X-4.67539 Y-2.61221
G01 X-4.67920 Y-2.61359
G01 X-4.68430 Y-2.61504
G01 X-4.68869 Y-2.61595
G01 X-4.69353 Y-2.61659
G01 X-4.70010 Y-2.61689
G01 X-4.70449 Y-2.61676
G01 X-4.70967 Y-2.61620
G01 X-4.71649 Y-2.61484
G01 X-4.72224 Y-2.61311
G01 X-4.72840 Y-2.61058
G01 X-4.73294 Y-2.60822
G01 X-4.73523 Y-2.60686
G01 X-4.74041 Y-2.60331
G01 X-4.74478 Y-2.59971
G01 X-4.74941 Y-2.59510
G01 X-4.75308 Y-2.59073
G01 X-4.75658 Y-2.58571
G01 X-4.75953 Y-2.58054
G01 X-4.76227 Y-2.57447
G01 X-4.76422 Y-2.56879
G01 X-4.76564 Y-2.56296
G01 X-4.76660 Y-2.55637
G01 X-4.76688 Y-2.55126
G01 X-4.76667 Y-2.54438
G01 X-4.76578 Y-2.53778
G01 X-4.76433 Y-2.53161
G01 X-4.76241 Y-2.52589
G01 X-4.75953 Y-2.51946
G01 X-4.75658 Y-2.51429
G01 X-4.75290 Y-2.50903
G01 X-4.74932 Y-2.50482
G01 X-4.74739 Y-2.50279
G01 X-4.74246 Y-2.49831
G01 X-4.73808 Y-2.49499
G01 X-4.73175 Y-2.49112
G01 X-4.72681 Y-2.48870
G01 X-4.72059 Y-2.48634
G01 X-4.71492 Y-2.48478
G01 X-4.70798 Y-2.48357
G01 X-4.70140 Y-2.48312
G01 X-4.69734 Y-2.48314
G01 X-4.69219 Y-2.48355
G01 X-4.68710 Y-2.48435
G01 X-4.68314 Y-2.48526
G01 X-4.67699 Y-2.48718
G01 X-4.67152 Y-2.48947
G01 X-4.66557 Y-2.49266
G01 X-4.66324 Y-2.49411
G01 X-4.65629 Y-2.49934
G01 X-4.65247 Y-2.50291
G01 X-4.64900 Y-2.50669
G01 X-4.35100 Y-2.50669
G01 X-4.34593 Y-2.50137
G01 X-4.34207 Y-2.49797
G01 X-4.33796 Y-2.49492
G01 X-4.33163 Y-2.49105
G01 X-4.32564 Y-2.48820
G01 X-4.31900 Y-2.48585
G01 X-4.31180 Y-2.48416
G01 X-4.30671 Y-2.48343
G01 X-4.30160 Y-2.48313
G01 X-4.29423 Y-2.48334
G01 X-4.18246 Y-2.37164
G01 X-4.17900 Y-2.36882
G01 X-4.17707 Y-2.36747
G01 X-4.17326 Y-2.36526
G01 X-4.17041 Y-2.36392
G01 X-4.16590 Y-2.36226
G01 X-4.16200 Y-2.36131
G01 X-4.15927 Y-2.36083
G01 X-4.15480 Y-2.36047
G01 X-3.79650 Y-2.36044
G01 X-3.79038 Y-2.36090
G01 X-3.78659 Y-2.36163
G01 X-3.78019 Y-2.36365
G01 X-3.77488 Y-2.36629
G01 X-3.77161 Y-2.36838
G01 X-3.76693 Y-2.37220
G01 X-3.65576 Y-2.48334
G01 X-3.64840 Y-2.48313
G01 X-3.64329 Y-2.48343
G01 X-3.63820 Y-2.48416
G01 X-3.63100 Y-2.48585
G01 X-3.62436 Y-2.48820
G01 X-3.61836 Y-2.49105
G01 X-3.61204 Y-2.49492
G01 X-3.60793 Y-2.49797
G01 X-3.60407 Y-2.50137
G01 X-3.59900 Y-2.50669
G01 X-3.30100 Y-2.50669
G01 X-3.29753 Y-2.50291
G01 X-3.29371 Y-2.49934
G01 X-3.28578 Y-2.49346
G01 X-3.27708 Y-2.48882
G01 X-3.27222 Y-2.48689
G01 X-3.26762 Y-2.48545
G01 X-3.26290 Y-2.48435
G01 X-3.25780 Y-2.48355
G01 X-3.25266 Y-2.48314
G01 X-3.24748 Y-2.48314
G01 X-3.24164 Y-2.48361
G01 X-3.23583 Y-2.48462
G01 X-3.23014 Y-2.48612
G01 X-3.22762 Y-2.48697
G01 X-3.22249 Y-2.48901
G01 X-3.21691 Y-2.49185
G01 X-3.21160 Y-2.49520
G01 X-3.20754 Y-2.49831
G01 X-3.20580 Y-2.49979
G01 X-3.20121 Y-2.50422
G01 X-3.19734 Y-2.50873
G01 X-3.19435 Y-2.51288
G01 X-3.19299 Y-2.51501
G01 X-3.19013 Y-2.52014
G01 X-3.18772 Y-2.52553
G01 X-3.18578 Y-2.53121
G01 X-3.18436 Y-2.53704
G01 X-3.18348 Y-2.54287
G01 X-3.18310 Y-2.55084
G01 X-3.18337 Y-2.55611
G01 X-3.18421 Y-2.56218
G01 X-3.18560 Y-2.56814
G01 X-3.18723 Y-2.57316
G01 X-3.18944 Y-2.57841
G01 X-3.19062 Y-2.58080
G01 X-3.19334 Y-2.58560
G01 X-3.19676 Y-2.59053
G01 X-3.20069 Y-2.59522
G01 X-3.20472 Y-2.59925
G01 X-3.20941 Y-2.60319
G01 X-3.21374 Y-2.60621
G01 X-3.21600 Y-2.60760
G01 X-3.22155 Y-2.61055
G01 X-3.22637 Y-2.61260
G01 X-3.23179 Y-2.61438
G01 X-3.23940 Y-2.61605
G01 X-3.24455 Y-2.61668
G01 X-3.25003 Y-2.61691
G01 X-3.25510 Y-2.61671
G01 X-3.26022 Y-2.61612
G01 X-3.26504 Y-2.61520
G01 X-3.27015 Y-2.61380
G01 X-3.27471 Y-2.61218
G01 X-3.27912 Y-2.61024
G01 X-3.28372 Y-2.60779
G01 X-3.28799 Y-2.60507
G01 X-3.29377 Y-2.60059
G01 X-3.29705 Y-2.59757
G01 X-3.30098 Y-2.59331
G01 X-3.59903 Y-2.59331
G01 X-3.60074 Y-2.59527
G01 X-3.60458 Y-2.59912
G01 X-3.60842 Y-2.60242
G01 X-3.61313 Y-2.60583
G01 X-3.61714 Y-2.60828
G01 X-3.62198 Y-2.61076
G01 X-3.62701 Y-2.61284
G01 X-3.63183 Y-2.61439
G01 X-3.63749 Y-2.61573
G01 X-3.64287 Y-2.61653
G01 X-3.64830 Y-2.61689
G01 X-3.65299 Y-2.61684
G01 X-3.65917 Y-2.61628
G01 X-3.66514 Y-2.61515
G01 X-3.66786 Y-2.61360
G01 X-3.66517 Y-2.61514
G01 X-3.55512 Y-2.72509
G01 X-3.21071 Y-2.72509
G01 X-3.20649 Y-2.72531
G01 X-3.20413 Y-2.72560
G01 X-3.19827 Y-2.72693
G01 X-3.19267 Y-2.72905
G01 X-3.18709 Y-2.73214
G01 X-3.18173 Y-2.73631
G01 X-3.13671 Y-2.78131
G01 X-3.13388 Y-2.78464
G01 X-3.13100 Y-2.78897
G01 X-3.12952 Y-2.79172
G01 X-3.12779 Y-2.79576
G01 X-3.12680 Y-2.79873
G01 X-3.12572 Y-2.80339
G01 X-3.12536 Y-2.80612
G01 X-3.12509 Y-2.81071
G01 X-3.12509 Y-3.21762
G01 X-3.12554 Y-3.22381
G01 X-3.12642 Y-3.22815
G01 X-3.12705 Y-3.23046
G01 X-3.12860 Y-3.23464
G01 X-3.13117 Y-3.23967
G01 X-3.13411 Y-3.24399
G01 X-3.13745 Y-3.24781
G01 X-3.31888 Y-3.42925
G01 X-3.32326 Y-3.43307
G01 X-3.32758 Y-3.43595
G01 X-3.33069 Y-3.43758
G01 X-3.33438 Y-3.43916
G01 X-3.33659 Y-3.43993
G01 X-3.34278 Y-3.44136
G01 X-3.34933 Y-3.44186
G01 X-3.82320 Y-3.44177
G01 X-3.82629 Y-3.44160
G01 X-3.83252 Y-3.44044
G01 X-3.83781 Y-3.43866
G01 X-3.84033 Y-3.43754
G01 X-3.84351 Y-3.43583
G01 X-3.84679 Y-3.43366
G01 X-3.85113 Y-3.43010
G01 X-3.88157 Y-3.39962
G01 X-3.88490 Y-3.39554
G01 X-3.88665 Y-3.39295
G01 X-3.88895 Y-3.38873
G01 X-3.89076 Y-3.38425
G01 X-3.89205 Y-3.37959
G01 X-3.89256 Y-3.37683
G01 X-3.89301 Y-3.37241
G01 X-3.89304 Y-3.36634
G01 X-3.89720 Y-3.36513
G01 X-3.90083 Y-3.36343
G01 X-3.90418 Y-3.36123
G01 X-3.90745 Y-3.35828
G01 X-3.91020 Y-3.35485
G01 X-3.91221 Y-3.35138
G01 X-3.91380 Y-3.34727
G01 X-3.91471 Y-3.34306
G01 X-3.98529 Y-3.34306
G01 X-3.98569 Y-3.34533
G01 X-3.98631 Y-3.34766
G01 X-3.98714 Y-3.34992
G01 X-3.98815 Y-3.35209
G01 X-3.98936 Y-3.35418
G01 X-3.99073 Y-3.35615
G01 X-3.99228 Y-3.35799
G01 X-3.99398 Y-3.35969
G01 X-3.99582 Y-3.36123
G01 X-3.99779 Y-3.36261
G01 X-3.99987 Y-3.36382
G01 X-4.00205 Y-3.36483
G01 X-4.00431 Y-3.36565
G01 X-4.00663 Y-3.36627
G01 X-4.00900 Y-3.36669
G01 X-4.01140 Y-3.36690
G01 X-4.08740 Y-3.36693
G01 X-4.09140 Y-3.36664
G01 X-4.09453 Y-3.36599
G01 X-4.09758 Y-3.36498
G01 X-4.10048 Y-3.36363
G01 X-4.10321 Y-3.36194
G01 X-4.10572 Y-3.35996
G01 X-4.10799 Y-3.35769
G01 X-4.10998 Y-3.35518
G01 X-4.11166 Y-3.35245
G01 X-4.11022 Y-3.34670
G01 X-4.10925 Y-3.34352
G01 X-4.10520 Y-3.33223
G01 X-4.10274 Y-3.32336
G01 X-4.10150 Y-3.31729
G01 X-4.10065 Y-3.31132
G01 X-4.10015 Y-3.30534
G01 X-4.10001 Y-3.30054
G01 X-4.10013 Y-3.29505
G01 X-4.10054 Y-3.28969
G01 X-4.10140 Y-3.28334
G01 X-4.10246 Y-3.27781
G01 X-4.10377 Y-3.27257
G01 X-4.10495 Y-3.26857
G01 X-4.10907 Y-3.25703
G01 X-4.10991 Y-3.25435
G01 X-4.11166 Y-3.24755
G01 X-4.10951 Y-3.24417
G01 X-4.10689 Y-3.24114
G01 X-4.10386 Y-3.23852
G01 X-4.10048 Y-3.23637
G01 X-4.09758 Y-3.23502
G01 X-4.09453 Y-3.23401
G01 X-4.09140 Y-3.23336
G01 X-4.08820 Y-3.23308
G01 X-4.01260 Y-3.23307
G01 X-4.00980 Y-3.23321
G01 X-4.00585 Y-3.23391
G01 X-4.00205 Y-3.23517
G01 X-3.99952 Y-3.23637
G01 X-3.99745 Y-3.23760
G01 X-3.99551 Y-3.23901
G01 X-3.99349 Y-3.24077
G01 X-3.98656 Y-3.24324
G01 X-3.97682 Y-3.24809
G01 X-3.97383 Y-3.24917
G01 X-3.97068 Y-3.24953
G01 X-3.92932 Y-3.24953
G01 X-3.92617 Y-3.24917
G01 X-3.92318 Y-3.24809
G01 X-3.91344 Y-3.24324
G01 X-3.90651 Y-3.24077
G01 X-3.91344 Y-3.24324
G01 X-3.92318 Y-3.24809
G01 X-3.92617 Y-3.24917
G01 X-3.92602 Y-3.24979
G01 X-3.92617 Y-3.24917
G01 X-3.92932 Y-3.24953
G01 X-3.97068 Y-3.24953
G01 X-3.97070 Y-3.24973
G01 X-3.97068 Y-3.24953
G01 X-3.97383 Y-3.24917
G01 X-3.97682 Y-3.24809
G01 X-3.97688 Y-3.24826
G01 X-3.97682 Y-3.24809
G01 X-3.98656 Y-3.24324
G01 X-3.99349 Y-3.24077
G01 X-3.99679 Y-3.23805
G01 X-4.00059 Y-3.23582
G01 X-4.00393 Y-3.23447
G01 X-4.00742 Y-3.23356
G01 X-4.01020 Y-3.23318
G01 X-4.01260 Y-3.23307
G01 X-4.07544 Y-3.23307
G01 X-4.08075 Y-3.23151
G01 X-4.08619 Y-3.22964
G01 X-4.09223 Y-3.22728
G01 X-4.10151 Y-3.22417
G01 X-4.09986 Y-3.23605
G01 X-4.10353 Y-3.23829
G01 X-4.10660 Y-3.24086
G01 X-4.10951 Y-3.24417
G01 X-4.11166 Y-3.24755
G01 X-4.11656 Y-3.24431
G01 X-4.12105 Y-3.24187
G01 X-4.12322 Y-3.24083
G01 X-4.12842 Y-3.23873
G01 X-4.13572 Y-3.23664
G01 X-4.14163 Y-3.23558
G01 X-4.14721 Y-3.23510
G01 X-4.15515 Y-3.23524
G01 X-4.16105 Y-3.23600
G01 X-4.16371 Y-3.23652
G01 X-4.16908 Y-3.23791
G01 X-4.17505 Y-3.24008
G01 X-4.17728 Y-3.24106
G01 X-4.18227 Y-3.24363
G01 X-4.18900 Y-3.24805
G01 X-4.19393 Y-3.25218
G01 X-4.19626 Y-3.25443
G01 X-4.20098 Y-3.25975
G01 X-4.20466 Y-3.26490
G01 X-4.20834 Y-3.27143
G01 X-4.21110 Y-3.27796
G01 X-4.21327 Y-3.28531
G01 X-4.39540 Y-3.28543
G01 X-4.39316 Y-3.28384
G01 X-4.39110 Y-3.28207
G01 X-4.38217 Y-3.27302
G01 X-4.37829 Y-3.26753
G01 X-4.37545 Y-3.26184
G01 X-4.36932 Y-3.25818
G01 X-4.36061 Y-3.25207
G01 X-4.35264 Y-3.24560
G01 X-4.34469 Y-3.23826
G01 X-4.34467 Y-3.05820
G01 X-4.35943 Y-3.03647
G01 X-4.36578 Y-3.02748
G01 X-4.37443 Y-3.01589
G01 X-4.38577 Y-3.00160
G01 X-4.38905 Y-2.99720
G01 X-4.39501 Y-2.98852
G01 X-4.40229 Y-2.97616
G01 X-4.40719 Y-2.96671
G01 X-4.41205 Y-2.95576
G01 X-4.41646 Y-2.94435
G01 X-4.43111 Y-2.94125
G01 X-4.44339 Y-2.93777
G01 X-4.45515 Y-2.93354
G01 X-4.46139 Y-2.93087
G01 X-4.46800 Y-2.92769
G01 X-4.50289 Y-2.89281
G01 X-4.50054 Y-2.88937
G01 X-4.49880 Y-2.88577
G01 X-4.49759 Y-2.88195
G01 X-4.49693 Y-2.87767
G01 X-4.49888 Y-2.86932
G01 X-4.49982 Y-2.86374
G01 X-4.50043 Y-2.85826
G01 X-4.50074 Y-2.85283
G01 X-4.50074 Y-2.84744
G01 X-4.50050 Y-2.84263
G01 X-4.49997 Y-2.83737
G01 X-4.49875 Y-2.83007
G01 X-4.50441 Y-2.82441
G01 X-4.50941 Y-2.82003
G01 X-4.51441 Y-2.81691
G01 X-4.51941 Y-2.81503
G01 X-4.52441 Y-2.81441
G01 X-4.57559 Y-2.81441
G01 X-4.58271 Y-2.81568
G01 X-4.58983 Y-2.81948
G01 X-4.60420 Y-2.81961
G01 X-4.61088 Y-2.82043
G01 X-4.61525 Y-2.82137
G01 X-4.62017 Y-2.82280
G01 X-4.62363 Y-2.82405
G01 X-4.63345 Y-2.82811
G01 X-4.69278 Y-2.88740
G01 X-4.70335 Y-2.89160
G01 X-4.71049 Y-2.89509
G01 X-4.71734 Y-2.89902
G01 X-4.72323 Y-2.90296
G01 X-4.72870 Y-2.90715
G01 X-4.73383 Y-2.91166
G01 X-4.73780 Y-2.91560
G01 X-4.74085 Y-2.91894
G01 X-4.74639 Y-2.92586
G01 X-4.74723 Y-2.92956
G01 X-4.74852 Y-2.93726
G01 X-4.74917 Y-2.94406
G01 X-4.74933 Y-2.95165
G01 X-4.74892 Y-2.95914
G01 X-4.74792 Y-2.96677
G01 X-4.74638 Y-2.97413
G01 X-4.74397 Y-2.97731
G01 X-4.74054 Y-2.98141
G01 X-4.73667 Y-2.98556
G01 X-4.73255 Y-2.98952
G01 X-4.72710 Y-2.99413
G01 X-4.72356 Y-2.99681
G01 X-4.71862 Y-3.00017
G01 X-4.71332 Y-3.00337
G01 X-4.70627 Y-3.00705
G01 X-4.69976 Y-3.00994
G01 X-4.69260 Y-3.01265
G01 X-4.68475 Y-3.01512
G01 X-4.67857 Y-3.01338
G01 X-4.67094 Y-3.01025
G01 X-4.66567 Y-3.00743
G01 X-4.66066 Y-3.00412
G01 X-4.65629 Y-3.00066
G01 X-4.65251 Y-2.99711
G01 X-4.64760 Y-2.99160
G01 X-4.64405 Y-2.98670
G01 X-4.64122 Y-2.98197
G01 X-4.63863 Y-2.97666
G01 X-4.63634 Y-2.97058
G01 X-4.63482 Y-2.96509
G01 X-4.63366 Y-2.95866
G01 X-4.63315 Y-2.95268
G01 X-4.63312 Y-2.94796
G01 X-4.63336 Y-2.94426
G01 X-4.59302 Y-2.90391
G01 X-4.59300 Y-2.90863
G01 X-4.59273 Y-2.91173
G01 X-4.59191 Y-2.91645
G01 X-4.59040 Y-2.92141
G01 X-4.58921 Y-2.92435
G01 X-4.58720 Y-2.92828
G01 X-4.58454 Y-2.93227
G01 X-4.58286 Y-2.93440
G01 X-4.45835 Y-3.05913
G01 X-4.45835 Y-3.11997
G01 X-4.46375 Y-3.11815
G01 X-4.46679 Y-3.11738
G01 X-4.47290 Y-3.11641
G01 X-4.47864 Y-3.11614
G01 X-4.48612 Y-3.10790
G01 X-4.50538 Y-3.08860
G01 X-4.52344 Y-3.08862
G01 X-4.52744 Y-3.08879
G01 X-4.53599 Y-3.08983
G01 X-4.54448 Y-3.09180
G01 X-4.55336 Y-3.09490
G01 X-4.56188 Y-3.09903
G01 X-4.56294 Y-3.10497
G01 X-4.56188 Y-3.09903
G01 X-4.62494 Y-3.03597
G01 X-4.63396 Y-3.03595
G01 X-4.64556 Y-3.03546
G01 X-4.65611 Y-3.03456
G01 X-4.66676 Y-3.03312
G01 X-4.65645 Y-3.03452
G01 X-4.65117 Y-3.03504
G01 X-4.64556 Y-3.03549
G01 X-4.63367 Y-3.03595
G01 X-4.62832 Y-3.03601
G01 X-4.61424 Y-3.03573
G01 X-4.60313 Y-3.03508
G01 X-4.59386 Y-3.03427
G01 X-4.56261 Y-3.06553
G01 X-4.56081 Y-3.06705
G01 X-4.56104 Y-3.06738
G01 X-4.56081 Y-3.06705
G01 X-4.55877 Y-3.06824
G01 X-4.55659 Y-3.06913
G01 X-4.55034 Y-3.07082
G01 X-4.53672 Y-3.07526
G01 X-4.52815 Y-3.07854
G01 X-4.50648 Y-3.08751
G01 X-4.48612 Y-3.10790
G01 X-4.47864 Y-3.11614
G01 X-4.47290 Y-3.11641
G01 X-4.46679 Y-3.11738
G01 X-4.46375 Y-3.11815
G01 X-4.45835 Y-3.11997
G01 X-4.45991 Y-3.11936
G01 X-4.46564 Y-3.11763
G01 X-4.47171 Y-3.11656
G01 X-4.47409 Y-3.11631
G01 X-4.47837 Y-3.11614
G01 X-4.52516 Y-3.11626
G01 X-4.53016 Y-3.11681
G01 X-4.53255 Y-3.11725
G01 X-4.53712 Y-3.11836
G01 X-4.54230 Y-3.12016
G01 X-4.54900 Y-3.12341
G01 X-4.55330 Y-3.12614
G01 X-4.55599 Y-3.12820
G01 X-4.57168 Y-3.12820
G01 X-4.68476 Y-3.01512
G01 X-4.67894 Y-3.01351
G01 X-4.67268 Y-3.01107
G01 X-4.66636 Y-3.00782
G01 X-4.66315 Y-3.00580
G01 X-4.65325 Y-3.00714
G01 X-4.64362 Y-3.00797
G01 X-4.63321 Y-3.00840
G01 X-4.62576 Y-3.00842
G01 X-4.62103 Y-3.00185
G01 X-4.61711 Y-2.99532
G01 X-4.61356 Y-2.98812
G01 X-4.61055 Y-2.98038
G01 X-4.60815 Y-2.97208
G01 X-4.60646 Y-2.96321
G01 X-4.60570 Y-2.95557
G01 X-4.60702 Y-2.95491
G01 X-4.60570 Y-2.95557
G01 X-4.60317 Y-2.95304
G01 X-4.60316 Y-2.94161
G01 X-4.60317 Y-2.95304
G01 X-4.60243 Y-2.95385
G01 X-4.49327 Y-3.06316
G01 X-4.49102 Y-3.06437
G01 X-4.48894 Y-3.06608
G01 X-4.46624 Y-3.08881
G01 X-4.45835 Y-3.09747
G01 X-4.46378 Y-3.09139
G01 X-4.46853 Y-3.08647
G01 X-4.48894 Y-3.06608
G01 X-4.49102 Y-3.06437
G01 X-4.49341 Y-3.06309
G01 X-4.51778 Y-3.05300
G01 X-4.52706 Y-3.04945
G01 X-4.53131 Y-3.04796
G01 X-4.54568 Y-3.04349
G01 X-4.57898 Y-3.01017
G01 X-4.58084 Y-3.00861
G01 X-4.58296 Y-3.00740
G01 X-4.58525 Y-3.00658
G01 X-4.58765 Y-3.00618
G01 X-4.59008 Y-3.00619
G01 X-4.60518 Y-3.00760
G01 X-4.61534 Y-3.00819
G01 X-4.62849 Y-3.00845
G01 X-4.61534 Y-3.00819
G01 X-4.60518 Y-3.00760
G01 X-4.59178 Y-3.00637
G01 X-4.59085 Y-3.00449
G01 X-4.59401 Y-2.98509
G01 X-4.59085 Y-3.00449
G01 X-4.58915 Y-3.00619
G01 X-4.58765 Y-3.00618
G01 X-4.58915 Y-3.00619
G01 X-4.59085 Y-3.00449
G01 X-4.58915 Y-3.00619
G01 X-4.58765 Y-3.00618
G01 X-4.58525 Y-3.00658
G01 X-4.58296 Y-3.00740
G01 X-4.58272 Y-3.00684
G01 X-4.58296 Y-3.00740
G01 X-4.58084 Y-3.00861
G01 X-4.57898 Y-3.01017
G01 X-4.57891 Y-3.01009
G01 X-4.57898 Y-3.01017
G01 X-4.54568 Y-3.04349
G01 X-4.53092 Y-3.04809
G01 X-4.51814 Y-3.05286
G01 X-4.49341 Y-3.06309
G01 X-4.49102 Y-3.06437
G01 X-4.48894 Y-3.06608
G01 X-4.48884 Y-3.06596
G01 X-4.48894 Y-3.06608
G01 X-4.46624 Y-3.08881
G01 X-4.45835 Y-3.09747
G01 X-4.45835 Y-3.11998
G01 X-4.45430 Y-3.12624
G01 X-4.45244 Y-3.12945
G01 X-4.44907 Y-3.13603
G01 X-4.44624 Y-3.14266
G01 X-4.44417 Y-3.14875
G01 X-4.44302 Y-3.15301
G01 X-4.44178 Y-3.15911
G01 X-4.44094 Y-3.16657
G01 X-4.44080 Y-3.17211
G01 X-4.44097 Y-3.17636
G01 X-4.44159 Y-3.18219
G01 X-4.44313 Y-3.18995
G01 X-4.44489 Y-3.19605
G01 X-4.44742 Y-3.20279
G01 X-4.45113 Y-3.21062
G01 X-4.55470 Y-3.21063
G01 X-4.55949 Y-3.21248
G01 X-4.56368 Y-3.21434
G01 X-4.56710 Y-3.21882
G01 X-4.56993 Y-3.22343
G01 X-4.57235 Y-3.22842
G01 X-4.57342 Y-3.23113
G01 X-4.57488 Y-3.23570
G01 X-4.57615 Y-3.24173
G01 X-4.57671 Y-3.24741
G01 X-4.57670 Y-3.25281
G01 X-4.57609 Y-3.25860
G01 X-4.57509 Y-3.26345
G01 X-4.57338 Y-3.26897
G01 X-4.57236 Y-3.27157
G01 X-4.56990 Y-3.27663
G01 X-4.56824 Y-3.27939
G01 X-4.56456 Y-3.28460
G01 X-4.56021 Y-3.28938
G01 X-4.44897 Y-3.28938
G01 X-4.44568 Y-3.28936
G01 X-4.44536 Y-3.28924
G01 X-4.41938 Y-3.28924
G01 X-4.41446 Y-3.28905
G01 X-4.40824 Y-3.28838
G01 X-4.40116 Y-3.28701
G01 X-4.39530 Y-3.28540
G01 X-4.36112 Y-3.28538
G01 X-4.35391 Y-3.28104
G01 X-4.34390 Y-3.27399
G01 X-4.33467 Y-3.26649
G01 X-4.32524 Y-3.25780
G01 X-4.23231 Y-3.25776
G01 X-4.23016 Y-3.26146
G01 X-4.23231 Y-3.25776
G01 X-4.22877 Y-3.25150
G01 X-4.22653 Y-3.24803
G01 X-4.22168 Y-3.24151
G01 X-4.21599 Y-3.23518
G01 X-4.21249 Y-3.23180
G01 X-4.20569 Y-3.22612
G01 X-4.19938 Y-3.22180
G01 X-4.19627 Y-3.21988
G01 X-4.18949 Y-3.21635
G01 X-4.18504 Y-3.21439
G01 X-4.17742 Y-3.21164
G01 X-4.17035 Y-3.20978
G01 X-4.16590 Y-3.20887
G01 X-4.15909 Y-3.20795
G01 X-4.15497 Y-3.20762
G01 X-4.14933 Y-3.20751
G01 X-4.14327 Y-3.20776
G01 X-4.13576 Y-3.21159
G01 X-4.13023 Y-3.21469
G01 X-4.12838 Y-3.23156
G01 X-4.12728 Y-3.23917
G01 X-4.12838 Y-3.23156
G01 X-4.13023 Y-3.21469
G01 X-4.13916 Y-3.20980
G01 X-4.14537 Y-3.20673
G01 X-4.15907 Y-3.20081
G01 X-4.17187 Y-3.19620
G01 X-4.18164 Y-3.19319
G01 X-4.19664 Y-3.18936
G01 X-4.20097 Y-3.19129
G01 X-4.20706 Y-3.19439
G01 X-4.21338 Y-3.19803
G01 X-4.22237 Y-3.20418
G01 X-4.23043 Y-3.21088
G01 X-4.23514 Y-3.21534
G01 X-4.24061 Y-3.22125
G01 X-4.24399 Y-3.22527
G01 X-4.24765 Y-3.23021
G01 X-4.24644 Y-3.23280
G01 X-4.24765 Y-3.23021
G01 X-4.29755 Y-3.23023
G01 X-4.26998 Y-3.20266
G01 X-4.26096 Y-3.20265
G01 X-4.26002 Y-3.20486
G01 X-4.26096 Y-3.20265
G01 X-4.25710 Y-3.19845
G01 X-4.25343 Y-3.19465
G01 X-4.24960 Y-3.19104
G01 X-4.24350 Y-3.18578
G01 X-4.23948 Y-3.18257
G01 X-4.22041 Y-3.18490
G01 X-4.21544 Y-3.18568
G01 X-4.20162 Y-3.18826
G01 X-4.18569 Y-3.19206
G01 X-4.20162 Y-3.18826
G01 X-4.21544 Y-3.18568
G01 X-4.22041 Y-3.18490
G01 X-4.23676 Y-3.18283
G01 X-4.24203 Y-3.18232
G01 X-4.25411 Y-3.18151
G01 X-4.25707 Y-3.18837
G01 X-4.25696 Y-3.18843
G01 X-4.25707 Y-3.18837
G01 X-4.25832 Y-3.19065
G01 X-4.25998 Y-3.19265
G01 X-4.25988 Y-3.19273
G01 X-4.25998 Y-3.19265
G01 X-4.32339 Y-3.25606
G01 X-4.32524 Y-3.25780
G01 X-4.29756 Y-3.23023
G01 X-4.32371 Y-3.25636
G01 X-4.33467 Y-3.26649
G01 X-4.34386 Y-3.27403
G01 X-4.35438 Y-3.28134
G01 X-4.36112 Y-3.28538
G01 X-4.39540 Y-3.28543
G01 X-4.39316 Y-3.28384
G01 X-4.39110 Y-3.28207
G01 X-4.38217 Y-3.27302
G01 X-4.37829 Y-3.26753
G01 X-4.37545 Y-3.26184
G01 X-4.36932 Y-3.25818
G01 X-4.36261 Y-3.25356
G01 X-4.35264 Y-3.24560
G01 X-4.34272 Y-3.23642
G01 X-4.31713 Y-3.21082
G01 X-4.31711 Y-3.09116
G01 X-4.32462 Y-3.08310
G01 X-4.33334 Y-3.07291
G01 X-4.33770 Y-3.06747
G01 X-4.34467 Y-3.05820
G01 X-4.33773 Y-3.06749
G01 X-4.33334 Y-3.07291
G01 X-4.32489 Y-3.08279
G01 X-4.31996 Y-3.08822
G01 X-4.30874 Y-3.09983
G01 X-4.30355 Y-3.10489
G01 X-4.27785 Y-3.16696
G01 X-4.28133 Y-3.17503
G01 X-4.34272 Y-3.23642
G01 X-4.28956 Y-3.18327
G01 X-4.28956 Y-3.13868
G01 X-4.28956 Y-3.18327
G01 X-4.34272 Y-3.23642
G01 X-4.35058 Y-3.24379
G01 X-4.35264 Y-3.24560
G01 X-4.36261 Y-3.25356
G01 X-4.36932 Y-3.25818
G01 X-4.37545 Y-3.26184
G01 X-4.37451 Y-3.25926
G01 X-4.37313 Y-3.25426
G01 X-4.37244 Y-3.24951
G01 X-4.37225 Y-3.24671
G01 X-4.37223 Y-3.04130
G01 X-4.36172 Y-3.03320
G01 X-4.37223 Y-3.04130
G01 X-4.37234 Y-3.03878
G01 X-4.37292 Y-3.03363
G01 X-4.37475 Y-3.02677
G01 X-4.37580 Y-3.02426
G01 X-4.37829 Y-3.01927
G01 X-4.38073 Y-3.01564
G01 X-4.38249 Y-3.01341
G01 X-4.38484 Y-3.01085
G01 X-4.50289 Y-2.89281
G01 X-4.50054 Y-2.88937
G01 X-4.49880 Y-2.88577
G01 X-4.49759 Y-2.88195
G01 X-4.49693 Y-2.87767
G01 X-4.49888 Y-2.86932
G01 X-4.49982 Y-2.86374
G01 X-4.50043 Y-2.85826
G01 X-4.50074 Y-2.85283
G01 X-4.50074 Y-2.84744
G01 X-4.50050 Y-2.84263
G01 X-4.49997 Y-2.83737
G01 X-4.49875 Y-2.83007
G01 X-4.49494 Y-2.82764
G01 X-4.48779 Y-2.82364
G01 X-4.48117 Y-2.82058
G01 X-4.47494 Y-2.81826
G01 X-4.46899 Y-2.81655
G01 X-4.46324 Y-2.81538
G01 X-4.45762 Y-2.81468
G01 X-4.45361 Y-2.81445
G01 X-4.44947 Y-2.81445
G01 X-4.44387 Y-2.81483
G01 X-4.43658 Y-2.81600
G01 X-4.43089 Y-2.81742
G01 X-4.42517 Y-2.81933
G01 X-4.29959 Y-2.81933
G01 X-4.29328 Y-2.81971
G01 X-4.28598 Y-2.82094
G01 X-4.28156 Y-2.82211
G01 X-4.27853 Y-2.82311
G01 X-4.27529 Y-2.82433
G01 X-4.27100 Y-2.82621
G01 X-4.26776 Y-2.82783
G01 X-4.26071 Y-2.83197
G01 X-4.25927 Y-2.83528
G01 X-4.25800 Y-2.83945
G01 X-4.25716 Y-2.84379
G01 X-4.25683 Y-2.84668
G01 X-4.25671 Y-2.89611
G01 X-4.02486 Y-3.12795
G01 X-3.45574 Y-3.12795
G01 X-3.45053 Y-3.12432
G01 X-3.44652 Y-3.12207
G01 X-3.44267 Y-3.12032
G01 X-3.43683 Y-3.11827
G01 X-3.43043 Y-3.11685
G01 X-3.42228 Y-3.11614
G01 X-3.37562 Y-3.11621
G01 X-3.37009 Y-3.11676
G01 X-3.36395 Y-3.11805
G01 X-3.35833 Y-3.11991
G01 X-3.35342 Y-3.12213
G01 X-3.35057 Y-3.12368
G01 X-3.34566 Y-3.12690
G01 X-3.34169 Y-3.13009
G01 X-3.33752 Y-3.13423
G01 X-3.33358 Y-3.13911
G01 X-3.33082 Y-3.14339
G01 X-3.32931 Y-3.14614
G01 X-3.32691 Y-3.15150
G01 X-3.32518 Y-3.15671
G01 X-3.32394 Y-3.16245
G01 X-3.32331 Y-3.16829
G01 X-3.32330 Y-3.17378
G01 X-3.32406 Y-3.18079
G01 X-3.32570 Y-3.18759
G01 X-3.32861 Y-3.19500
G01 X-3.33207 Y-3.20112
G01 X-3.33479 Y-3.20451
G01 X-3.33743 Y-3.20740
G01 X-3.34532 Y-3.21061
G01 X-3.45432 Y-3.21064
G01 X-3.45824 Y-3.21214
G01 X-3.46393 Y-3.21464
G01 X-3.46556 Y-3.21674
G01 X-3.46921 Y-3.22214
G01 X-3.47222 Y-3.22810
G01 X-3.47336 Y-3.23098
G01 X-3.47528 Y-3.23727
G01 X-3.47637 Y-3.24375
G01 X-3.47668 Y-3.24721
G01 X-3.47667 Y-3.25301
G01 X-3.47641 Y-3.25609
G01 X-3.47532 Y-3.26258
G01 X-3.47328 Y-3.26923
G01 X-3.47229 Y-3.27175
G01 X-3.46895 Y-3.27829
G01 X-3.46522 Y-3.28370
G01 X-3.46394 Y-3.28535
G01 X-3.46185 Y-3.28633
G01 X-3.46394 Y-3.28535
G01 X-3.46791 Y-3.27992
G01 X-3.46915 Y-3.27796
G01 X-3.47274 Y-3.27068
G01 X-3.47520 Y-3.26305
G01 X-3.48139 Y-3.25867
G01 X-3.48808 Y-3.25337
G01 X-3.49202 Y-3.25000
G01 X-3.48839 Y-3.24688
G01 X-3.48165 Y-3.24152
G01 X-3.47520 Y-3.23695
G01 X-3.47283 Y-3.22953
G01 X-3.46980 Y-3.22323
G01 X-3.46787 Y-3.22004
G01 X-3.46508 Y-3.21607
G01 X-3.46378 Y-3.21457
G01 X-3.49130 Y-3.21457
G01 X-3.49815 Y-3.21945
G01 X-3.50576 Y-3.22545
G01 X-3.51080 Y-3.22981
G01 X-3.51769 Y-3.23622
G01 X-3.65613 Y-3.23622
G01 X-3.66085 Y-3.23538
G01 X-3.66853 Y-3.23134
G01 X-3.67692 Y-3.22735
G01 X-3.69016 Y-3.22196
G01 X-3.70235 Y-3.21794
G01 X-3.70950 Y-3.21603
G01 X-3.71598 Y-3.21457
G01 X-4.04497 Y-3.21448
G01 X-4.05018 Y-3.21393
G01 X-4.05414 Y-3.21305
G01 X-4.05644 Y-3.21235
G01 X-4.06168 Y-3.21022
G01 X-4.06493 Y-3.20849
G01 X-4.06783 Y-3.20658
G01 X-4.07199 Y-3.20538
G01 X-4.07667 Y-3.20378
G01 X-4.08302 Y-3.20130
G01 X-4.09706 Y-3.19654
G01 X-4.11196 Y-3.19350
G01 X-4.12276 Y-3.18729
G01 X-4.12678 Y-3.18518
G01 X-4.13710 Y-3.18018
G01 X-4.14895 Y-3.17517
G01 X-4.15819 Y-3.17174
G01 X-4.16357 Y-3.16992
G01 X-4.17851 Y-3.16546
G01 X-4.19047 Y-3.16249
G01 X-4.19635 Y-3.16120
G01 X-4.21057 Y-3.15855
G01 X-4.21634 Y-3.15763
G01 X-4.23712 Y-3.15511
G01 X-4.26410 Y-3.12814
G01 X-4.25341 Y-3.15394
G01 X-4.23712 Y-3.15511
G01 X-4.26410 Y-3.12814
G01 X-4.27919 Y-3.09170
G01 X-4.28053 Y-3.08922
G01 X-4.28012 Y-3.08895
G01 X-4.28053 Y-3.08922
G01 X-4.28234 Y-3.08707
G01 X-4.28907 Y-3.08053
G01 X-4.30000 Y-3.06922
G01 X-4.30407 Y-3.06473
G01 X-4.31225 Y-3.05517
G01 X-4.31584 Y-3.05069
G01 X-4.32260 Y-3.04167
G01 X-4.31463 Y-3.04333
G01 X-4.30553 Y-3.04429
G01 X-4.30039 Y-3.04443
G01 X-4.29158 Y-3.04409
G01 X-4.28205 Y-3.04274
G01 X-4.27362 Y-3.04066
G01 X-4.27255 Y-3.03708
G01 X-4.27362 Y-3.04066
G01 X-4.13139 Y-3.18289
G01 X-4.13742 Y-3.18004
G01 X-4.14491 Y-3.17680
G01 X-4.14930 Y-3.17501
G01 X-4.15855 Y-3.17161
G01 X-4.17371 Y-3.16678
G01 X-4.19085 Y-3.16241
G01 X-4.28255 Y-3.07071
G01 X-4.28158 Y-3.06807
G01 X-4.28255 Y-3.07071
G01 X-4.29008 Y-3.07162
G01 X-4.29738 Y-3.07193
G01 X-4.30407 Y-3.06473
G01 X-4.31225 Y-3.05517
G01 X-4.31584 Y-3.05069
G01 X-4.32177 Y-3.04285
G01 X-4.32469 Y-3.03873
G01 X-4.33677 Y-3.02079
G01 X-4.34351 Y-3.01123
G01 X-4.34621 Y-3.00759
G01 X-4.34334 Y-3.01149
G01 X-4.35261 Y-2.99906
G01 X-4.36378 Y-2.98499
G01 X-4.36662 Y-2.98118
G01 X-4.36898 Y-2.97783
G01 X-4.37373 Y-2.97052
G01 X-4.37815 Y-2.96287
G01 X-4.38236 Y-2.95465
G01 X-4.38665 Y-2.94506
G01 X-4.38915 Y-2.93876
G01 X-4.39225 Y-2.92999
G01 X-4.39117 Y-2.92525
G01 X-4.38979 Y-2.92087
G01 X-4.37571 Y-2.91007
G01 X-4.38979 Y-2.92087
G01 X-4.39997 Y-2.92087
G01 X-4.39782 Y-2.92204
G01 X-4.39767 Y-2.92181
G01 X-4.39782 Y-2.92204
G01 X-4.39561 Y-2.92394
G01 X-4.39534 Y-2.92372
G01 X-4.39561 Y-2.92394
G01 X-4.39385 Y-2.92627
G01 X-4.39262 Y-2.92891
G01 X-4.39251 Y-2.92886
G01 X-4.39262 Y-2.92891
G01 X-4.39225 Y-2.92999
G01 X-4.39117 Y-2.92525
G01 X-4.38979 Y-2.92087
G01 X-4.39997 Y-2.92087
G01 X-4.40517 Y-2.91866
G01 X-4.40812 Y-2.91772
G01 X-4.41178 Y-2.91719
G01 X-4.42450 Y-2.91448
G01 X-4.43199 Y-2.91243
G01 X-4.44136 Y-2.90930
G01 X-4.45001 Y-2.90577
G01 X-4.45592 Y-2.90292
G01 X-4.45941 Y-2.90257
G01 X-4.46367 Y-2.90175
G01 X-4.46866 Y-2.90032
G01 X-4.47079 Y-2.89954
G01 X-4.47509 Y-2.89766
G01 X-4.47920 Y-2.89539
G01 X-4.48142 Y-2.89396
G01 X-4.48528 Y-2.89109
G01 X-4.48886 Y-2.88788
G01 X-4.49210 Y-2.88438
G01 X-4.49540 Y-2.88005
G01 X-4.49693 Y-2.87765
G01 X-4.49562 Y-2.87974
G01 X-4.49306 Y-2.88322
G01 X-4.48914 Y-2.88759
G01 X-4.48497 Y-2.89135
G01 X-4.48017 Y-2.89480
G01 X-4.47509 Y-2.89766
G01 X-4.46973 Y-2.89995
G01 X-4.46406 Y-2.90166
G01 X-4.45791 Y-2.90275
G01 X-4.45230 Y-2.90314
G01 X-4.44666 Y-2.90290
G01 X-4.44383 Y-2.90257
G01 X-4.43868 Y-2.90156
G01 X-4.43291 Y-2.89974
G01 X-4.43027 Y-2.89867
G01 X-4.42521 Y-2.89615
G01 X-4.42082 Y-2.89331
G01 X-4.34331 Y-2.89331
G01 X-4.34331 Y-2.89905
G01 X-4.34847 Y-2.90387
G01 X-4.35380 Y-2.91023
G01 X-4.35832 Y-2.91720
G01 X-4.36165 Y-2.92401
G01 X-4.36410 Y-2.93091
G01 X-4.36484 Y-2.93353
G01 X-4.36624 Y-2.94057
G01 X-4.36683 Y-2.94698
G01 X-4.36677 Y-2.95390
G01 X-4.36654 Y-2.95683
G01 X-4.36568 Y-2.96277
G01 X-4.36379 Y-2.97012
G01 X-4.36187 Y-2.97547
G01 X-4.35871 Y-2.98209
G01 X-4.35511 Y-2.98794
G01 X-4.35051 Y-2.99387
G01 X-4.34553 Y-2.99903
G01 X-4.34093 Y-3.00290
G01 X-4.33867 Y-3.00458
G01 X-4.33286 Y-3.00828
G01 X-4.32670 Y-3.01133
G01 X-4.32409 Y-3.01240
G01 X-4.31801 Y-3.01444
G01 X-4.31091 Y-3.01601
G01 X-4.30364 Y-3.01679
G01 X-4.30112 Y-3.01688
G01 X-4.29429 Y-3.01667
G01 X-4.28754 Y-3.01573
G01 X-4.28055 Y-3.01399
G01 X-4.27814 Y-3.01323
G01 X-4.27175 Y-3.01065
G01 X-4.26712 Y-3.00819
G01 X-4.07311 Y-3.20220
G01 X-4.06963 Y-3.20526
G01 X-4.06597 Y-3.20785
G01 X-4.06168 Y-3.21022
G01 X-4.05875 Y-3.21150
G01 X-4.05491 Y-3.21284
G01 X-4.05057 Y-3.21386
G01 X-4.04782 Y-3.21426
G01 X-4.04324 Y-3.21456
G01 X-3.91508 Y-3.21457
G01 X-3.92348 Y-3.21751
G01 X-3.93256 Y-3.22197
G01 X-3.96743 Y-3.22197
G01 X-3.97652 Y-3.21751
G01 X-3.98492 Y-3.21457
G01 X-3.78399 Y-3.21457
G01 X-3.78478 Y-3.21473
G01 X-3.78536 Y-3.21457
G01 X-3.46378 Y-3.21457
G01 X-3.46532 Y-3.21640
G01 X-3.46900 Y-3.22178
G01 X-3.47188 Y-3.22741
G01 X-3.47297 Y-3.22989
G01 X-3.47487 Y-3.23577
G01 X-3.47545 Y-3.23802
G01 X-3.47648 Y-3.24451
G01 X-3.47669 Y-3.24798
G01 X-3.47661 Y-3.25417
G01 X-3.47568 Y-3.26068
G01 X-3.47503 Y-3.26370
G01 X-3.47315 Y-3.26959
G01 X-3.47196 Y-3.27245
G01 X-3.46895 Y-3.27829
G01 X-3.46499 Y-3.28401
G01 X-3.46377 Y-3.28543
G01 X-3.49131 Y-3.28543
G01 X-3.49785 Y-3.28078
G01 X-3.50541 Y-3.27484
G01 X-3.51045 Y-3.27049
G01 X-3.51770 Y-3.26378
G01 X-3.65734 Y-3.26378
G01 X-3.65974 Y-3.26357
G01 X-3.65975 Y-3.26369
G01 X-3.65974 Y-3.26357
G01 X-3.66788 Y-3.26213
G01 X-3.67006 Y-3.26155
G01 X-3.67014 Y-3.26179
G01 X-3.67006 Y-3.26155
G01 X-3.67212 Y-3.26063
G01 X-3.68081 Y-3.25602
G01 X-3.68836 Y-3.25244
G01 X-3.69620 Y-3.24915
G01 X-3.70351 Y-3.24648
G01 X-3.71288 Y-3.24363
G01 X-3.72181 Y-3.24150
G01 X-3.72793 Y-3.23891
G01 X-3.73324 Y-3.23725
G01 X-3.74076 Y-3.23572
G01 X-3.74593 Y-3.23517
G01 X-3.75273 Y-3.23510
G01 X-3.75902 Y-3.23567
G01 X-3.76525 Y-3.23686
G01 X-3.77185 Y-3.23882
G01 X-3.77782 Y-3.24130
G01 X-3.78347 Y-3.24432
G01 X-3.78833 Y-3.24757
G01 X-3.78242 Y-3.24373
G01 X-3.77782 Y-3.24130
G01 X-3.77303 Y-3.23928
G01 X-3.77065 Y-3.23842
G01 X-3.76564 Y-3.23696
G01 X-3.75940 Y-3.23573
G01 X-3.75233 Y-3.23508
G01 X-3.74513 Y-3.23522
G01 X-3.73869 Y-3.23604
G01 X-3.73400 Y-3.23704
G01 X-3.72980 Y-3.23828
G01 X-3.72350 Y-3.24069
G01 X-3.71785 Y-3.24356
G01 X-3.71378 Y-3.24607
G01 X-3.71024 Y-3.24865
G01 X-3.70503 Y-3.25312
G01 X-3.70041 Y-3.25804
G01 X-3.69651 Y-3.26314
G01 X-3.69337 Y-3.26820
G01 X-3.69131 Y-3.27215
G01 X-3.68971 Y-3.27590
G01 X-3.66360 Y-3.28543
G01 X-3.46377 Y-3.28543
G01 X-3.45760 Y-3.28812
G01 X-3.45432 Y-3.28937
G01 X-3.34531 Y-3.28937
G01 X-3.34127 Y-3.29091
G01 X-3.33628 Y-3.29314
G01 X-3.33304 Y-3.29735
G01 X-3.33000 Y-3.30228
G01 X-3.32766 Y-3.30712
G01 X-3.32614 Y-3.31106
G01 X-3.32530 Y-3.31388
G01 X-3.32627 Y-3.31069
G01 X-3.32780 Y-3.30676
G01 X-3.33075 Y-3.30094
G01 X-3.33327 Y-3.29702
G01 X-3.33634 Y-3.29307
G01 X-3.33859 Y-3.29205
G01 X-3.33638 Y-3.29305
G01 X-3.31857 Y-3.29303
G01 X-3.31544 Y-3.29281
G01 X-3.31025 Y-3.29197
G01 X-3.30706 Y-3.29112
G01 X-3.30144 Y-3.28894
G01 X-3.29956 Y-3.28801
G01 X-3.29842 Y-3.28719
G01 X-3.29328 Y-3.28293
G01 X-3.28997 Y-3.27981
G01 X-3.21990 Y-3.20974
G01 X-3.21585 Y-3.20532
G01 X-3.21225 Y-3.20083
G01 X-3.21125 Y-3.19897
G01 X-3.21052 Y-3.19548
G01 X-3.21121 Y-3.19875
G01 X-3.21121 Y-3.19979
G01 X-3.21225 Y-3.20083
G01 X-3.21125 Y-3.19897
G01 X-3.21010 Y-3.19305
G01 X-3.20933 Y-3.18652
G01 X-3.20912 Y-3.18184
G01 X-3.20908 Y-3.00020
G01 X-3.20660 Y-2.99466
G01 X-3.20435 Y-2.98900
G01 X-3.20232 Y-2.98304
G01 X-3.20036 Y-2.97603
G01 X-3.19915 Y-2.97052
G01 X-3.19778 Y-2.96150
G01 X-3.19728 Y-2.95522
G01 X-3.19715 Y-2.94992
G01 X-3.19754 Y-2.94101
G01 X-3.19814 Y-2.93559
G01 X-3.19922 Y-2.92909
G01 X-3.20048 Y-2.92349
G01 X-3.20307 Y-2.91464
G01 X-3.20521 Y-2.90873
G01 X-3.20783 Y-2.90250
G01 X-3.21124 Y-2.89546
G01 X-3.21696 Y-2.89182
G01 X-3.22298 Y-2.88879
G01 X-3.22882 Y-2.88653
G01 X-3.23413 Y-2.88502
G01 X-3.23686 Y-2.88441
G01 X-3.24319 Y-2.88345
G01 X-3.24910 Y-2.88310
G01 X-3.25578 Y-2.88334
G01 X-3.32133 Y-2.81791
G01 X-3.32369 Y-2.81592
G01 X-3.32697 Y-2.81364
G01 X-3.33138 Y-2.81121
G01 X-3.22855 Y-2.81121
G01 X-3.21121 Y-2.82855
G01 X-3.21121 Y-2.86894
G01 X-3.21857 Y-2.85894
G01 X-3.22604 Y-2.84985
G01 X-3.23089 Y-2.84439
G01 X-3.23267 Y-2.84012
G01 X-3.23394 Y-2.83774
G01 X-3.23566 Y-2.83565
G01 X-3.23774 Y-2.83394
G01 X-3.24013 Y-2.83266
G01 X-3.29198 Y-2.81121
G01 X-3.24013 Y-2.83266
G01 X-3.23774 Y-2.83394
G01 X-3.23745 Y-2.83350
G01 X-3.23774 Y-2.83394
G01 X-3.23566 Y-2.83565
G01 X-3.23394 Y-2.83774
G01 X-3.23358 Y-2.83748
G01 X-3.23394 Y-2.83774
G01 X-3.23267 Y-2.84012
G01 X-3.23089 Y-2.84439
G01 X-3.22604 Y-2.84985
G01 X-3.21856 Y-2.85893
G01 X-3.21121 Y-2.86894
G01 X-3.21121 Y-2.89552
G01 X-3.21696 Y-2.89182
G01 X-3.22264 Y-2.88895
G01 X-3.22846 Y-2.88665
G01 X-3.23347 Y-2.88520
G01 X-3.23733 Y-2.87978
G01 X-3.24383 Y-2.87150
G01 X-3.25275 Y-2.86135
G01 X-3.25427 Y-2.85940
G01 X-3.25446 Y-2.85953
G01 X-3.25427 Y-2.85940
G01 X-3.25594 Y-2.85595
G01 X-3.30252 Y-2.83667
G01 X-3.32190 Y-2.81739
G01 X-3.32400 Y-2.81569
G01 X-3.32730 Y-2.81342
G01 X-3.33138 Y-2.81121
G01 X-3.33583 Y-2.81032
G01 X-3.34200 Y-2.80947
G01 X-3.34830 Y-2.80912
G01 X-3.35406 Y-2.80911
G01 X-3.36423 Y-2.80530
G01 X-3.37441 Y-2.80403
G01 X-3.42559 Y-2.80403
G01 X-3.43287 Y-2.80468
G01 X-3.44015 Y-2.80663
G01 X-3.44743 Y-2.80988
G01 X-3.44955 Y-2.81121
G01 X-3.46213 Y-2.81121
G01 X-3.45763 Y-2.81594
G01 X-3.45471 Y-2.81979
G01 X-3.45307 Y-2.82237
G01 X-3.45266 Y-2.81923
G01 X-3.45187 Y-2.81612
G01 X-3.45057 Y-2.81276
G01 X-3.44990 Y-2.81142
G01 X-3.44955 Y-2.81121
G01 X-3.44990 Y-2.81142
G01 X-3.45057 Y-2.81276
G01 X-3.45187 Y-2.81612
G01 X-3.45266 Y-2.81923
G01 X-3.45307 Y-2.82235
G01 X-3.45078 Y-2.83248
G01 X-3.44986 Y-2.83881
G01 X-3.44955 Y-2.84203
G01 X-3.44932 Y-2.84564
G01 X-3.44923 Y-2.85140
G01 X-3.44946 Y-2.85680
G01 X-3.44998 Y-2.86223
G01 X-3.45120 Y-2.86973
G01 X-3.45305 Y-2.87761
G01 X-3.45484 Y-2.88039
G01 X-3.45826 Y-2.88480
G01 X-3.46128 Y-2.88802
G01 X-3.46488 Y-2.89122
G01 X-3.46945 Y-2.89452
G01 X-3.47185 Y-2.89602
G01 X-3.47604 Y-2.89820
G01 X-3.48109 Y-2.90024
G01 X-3.48638 Y-2.90176
G01 X-3.48995 Y-2.90242
G01 X-3.56798 Y-2.98045
G01 X-3.57112 Y-2.98328
G01 X-3.57335 Y-2.98499
G01 X-3.57638 Y-2.98698
G01 X-3.57849 Y-2.98814
G01 X-3.58213 Y-2.98986
G01 X-3.58594 Y-2.99119
G01 X-3.58864 Y-2.99192
G01 X-3.59261 Y-2.99266
G01 X-3.59879 Y-2.99306
G01 X-3.60327 Y-2.99787
G01 X-3.60619 Y-3.00057
G01 X-3.60963 Y-3.00336
G01 X-3.61490 Y-3.00696
G01 X-3.62292 Y-3.01118
G01 X-3.62858 Y-3.01338
G01 X-3.63238 Y-3.01455
G01 X-3.63627 Y-3.01548
G01 X-3.64219 Y-3.01645
G01 X-3.64818 Y-3.01688
G01 X-3.65350 Y-3.01680
G01 X-3.66029 Y-3.01609
G01 X-3.66261 Y-3.01570
G01 X-3.67106 Y-3.01351
G01 X-3.67880 Y-3.01038
G01 X-3.68090 Y-3.00933
G01 X-3.68640 Y-3.00609
G01 X-3.68932 Y-3.00411
G01 X-3.69547 Y-2.99908
G01 X-3.70119 Y-2.99306
G01 X-3.99580 Y-2.99306
G01 X-4.00271 Y-2.99250
G01 X-4.00924 Y-2.99090
G01 X-4.01249 Y-2.98965
G01 X-4.01819 Y-2.98678
G01 X-4.02215 Y-2.98405
G01 X-4.02573 Y-2.98095
G01 X-4.17472 Y-2.83197
G01 X-4.23783 Y-2.83197
G01 X-4.23069 Y-2.83857
G01 X-4.20970 Y-2.85953
G01 X-4.18614 Y-2.85953
G01 X-4.18527 Y-2.85743
G01 X-4.18614 Y-2.85953
G01 X-4.04340 Y-3.00213
G01 X-4.03875 Y-3.00605
G01 X-4.03348 Y-3.00972
G01 X-4.02939 Y-3.01208
G01 X-4.02325 Y-3.01503
G01 X-4.01800 Y-3.01703
G01 X-4.01179 Y-3.01873
G01 X-4.00740 Y-3.01966
G01 X-4.00255 Y-3.02026
G01 X-3.99580 Y-3.02062
G01 X-3.71272 Y-3.02062
G01 X-3.71225 Y-3.01920
G01 X-3.71272 Y-3.02062
G01 X-3.70563 Y-3.02632
G01 X-3.70109 Y-3.02941
G01 X-3.69458 Y-3.03325
G01 X-3.69074 Y-3.03522
G01 X-3.68196 Y-3.03888
G01 X-3.67711 Y-3.04046
G01 X-3.66979 Y-3.04233
G01 X-3.66595 Y-3.04311
G01 X-3.65727 Y-3.04413
G01 X-3.65336 Y-3.04441
G01 X-3.64650 Y-3.04440
G01 X-3.64040 Y-3.04397
G01 X-3.63360 Y-3.04301
G01 X-3.62948 Y-3.04220
G01 X-3.62448 Y-3.04095
G01 X-3.61871 Y-3.03913
G01 X-3.61261 Y-3.03675
G01 X-3.60889 Y-3.03502
G01 X-3.60037 Y-3.03037
G01 X-3.59395 Y-3.02604
G01 X-3.58914 Y-3.02224
G01 X-3.58605 Y-3.01951
G01 X-3.58640 Y-3.01882
G01 X-3.58605 Y-3.01951
G01 X-3.58015 Y-3.01821
G01 X-3.57364 Y-3.01611
G01 X-3.56884 Y-3.01410
G01 X-3.56346 Y-3.01136
G01 X-3.55837 Y-3.00813
G01 X-3.55449 Y-3.00528
G01 X-3.55023 Y-3.00160
G01 X-3.47607 Y-2.92752
G01 X-3.47650 Y-2.92680
G01 X-3.47607 Y-2.92752
G01 X-3.47240 Y-2.92640
G01 X-3.47105 Y-2.90526
G01 X-3.47000 Y-2.89489
G01 X-3.46978 Y-2.89475
G01 X-3.47000 Y-2.89489
G01 X-3.47103 Y-2.90502
G01 X-3.47215 Y-2.92144
G01 X-3.47330 Y-2.95086
G01 X-3.47334 Y-2.95401
G01 X-3.47299 Y-2.95741
G01 X-3.47310 Y-2.95743
G01 X-3.47299 Y-2.95741
G01 X-3.46685 Y-2.98382
G01 X-3.46110 Y-3.00287
G01 X-3.46516 Y-3.00509
G01 X-3.47688 Y-3.01195
G01 X-3.48690 Y-3.01835
G01 X-3.51925 Y-3.03162
G01 X-3.53458 Y-3.03689
G01 X-3.54922 Y-3.04087
G01 X-3.56343 Y-3.04375
G01 X-3.56865 Y-3.04458
G01 X-3.57082 Y-3.04510
G01 X-3.57620 Y-3.04687
G01 X-3.57549 Y-3.04664
G01 X-3.57335 Y-3.04492
G01 X-3.57354 Y-3.04459
G01 X-3.57335 Y-3.04492
G01 X-3.57205 Y-3.04457
G01 X-3.56365 Y-3.04180
G01 X-3.55846 Y-3.03967
G01 X-3.55268 Y-3.03685
G01 X-3.54916 Y-3.03492
G01 X-3.54541 Y-3.03261
G01 X-3.54075 Y-3.02944
G01 X-3.53693 Y-3.02652
G01 X-3.53237 Y-3.02261
G01 X-3.52928 Y-3.01969
G01 X-3.47186 Y-2.96228
G01 X-3.46687 Y-2.98382
G01 X-3.46399 Y-2.99338
G01 X-3.49042 Y-3.01981
G01 X-3.51205 Y-3.02877
G01 X-3.52097 Y-3.03226
G01 X-3.53458 Y-3.03689
G01 X-3.54922 Y-3.04087
G01 X-3.56343 Y-3.04375
G01 X-3.57083 Y-3.04507
G01 X-3.57912 Y-3.04778
G01 X-3.58916 Y-3.05061
G01 X-3.59438 Y-3.05192
G01 X-3.60685 Y-3.05461
G01 X-3.61573 Y-3.05610
G01 X-3.62412 Y-3.05719
G01 X-3.63322 Y-3.05803
G01 X-3.64265 Y-3.05852
G01 X-3.65121 Y-3.05864
G01 X-3.65973 Y-3.05841
G01 X-3.66490 Y-3.05813
G01 X-3.67637 Y-3.05711
G01 X-3.68148 Y-3.05647
G01 X-3.69328 Y-3.05456
G01 X-3.69840 Y-3.05355
G01 X-3.71073 Y-3.05064
G01 X-3.72255 Y-3.04728
G01 X-3.72642 Y-3.04672
G01 X-3.72640 Y-3.04654
G01 X-3.72642 Y-3.04672
G01 X-3.99402 Y-3.04672
G01 X-3.99939 Y-3.04431
G01 X-4.01506 Y-3.03616
G01 X-4.02875 Y-3.02747
G01 X-4.04156 Y-3.01772
G01 X-4.04827 Y-3.01180
G01 X-4.05311 Y-3.00715
G01 X-4.18638 Y-2.87389
G01 X-4.18630 Y-2.87378
G01 X-4.18638 Y-2.87389
G01 X-4.18847 Y-2.87217
G01 X-4.19085 Y-2.87090
G01 X-4.19079 Y-2.87078
G01 X-4.19085 Y-2.87090
G01 X-4.20360 Y-2.86562
G01 X-4.23069 Y-2.83857
G01 X-4.23783 Y-2.83197
G01 X-4.26071 Y-2.83197
G01 X-4.25901 Y-2.83602
G01 X-4.25764 Y-2.84101
G01 X-4.25685 Y-2.84626
G01 X-4.25677 Y-2.85203
G01 X-4.24997 Y-2.85826
G01 X-4.22113 Y-2.88705
G01 X-4.21905 Y-2.88876
G01 X-4.21667 Y-2.89003
G01 X-4.20393 Y-2.89531
G01 X-4.07252 Y-3.02672
G01 X-4.06696 Y-3.03206
G01 X-4.05809 Y-3.03982
G01 X-4.04750 Y-3.04796
G01 X-4.04381 Y-3.05055
G01 X-4.02955 Y-3.05961
G01 X-4.02642 Y-3.06141
G01 X-4.01171 Y-3.06897
G01 X-4.00249 Y-3.07311
G01 X-3.99979 Y-3.07398
G01 X-3.99697 Y-3.07428
G01 X-3.72839 Y-3.07428
G01 X-3.71776 Y-3.07728
G01 X-3.70400 Y-3.08053
G01 X-3.69792 Y-3.08173
G01 X-3.68563 Y-3.08371
G01 X-3.67955 Y-3.08448
G01 X-3.66662 Y-3.08564
G01 X-3.65177 Y-3.08619
G01 X-3.63853 Y-3.08594
G01 X-3.62799 Y-3.08526
G01 X-3.62103 Y-3.08458
G01 X-3.61191 Y-3.08339
G01 X-3.59818 Y-3.08100
G01 X-3.58821 Y-3.07878
G01 X-3.58224 Y-3.07729
G01 X-3.57109 Y-3.07415
G01 X-3.56330 Y-3.07164
G01 X-3.55827 Y-3.07083
G01 X-3.54476 Y-3.06813
G01 X-3.52839 Y-3.06381
G01 X-3.50945 Y-3.05737
G01 X-3.47515 Y-3.04341
G01 X-3.47298 Y-3.04217
G01 X-3.46280 Y-3.03565
G01 X-3.45139 Y-3.02896
G01 X-3.44124 Y-3.02358
G01 X-3.41703 Y-3.02343
G01 X-3.40201 Y-3.03327
G01 X-3.38614 Y-3.04261
G01 X-3.37527 Y-3.05413
G01 X-3.36623 Y-3.06462
G01 X-3.36394 Y-3.06745
G01 X-3.35484 Y-3.07948
G01 X-3.34906 Y-3.08800
G01 X-3.34264 Y-3.09859
G01 X-3.33763 Y-3.10804
G01 X-3.33354 Y-3.11694
G01 X-3.33023 Y-3.12536
G01 X-3.32679 Y-3.13616
G01 X-3.32489 Y-3.14392
G01 X-3.32395 Y-3.14869
G01 X-3.32306 Y-3.15457
G01 X-3.32460 Y-3.15925
G01 X-3.32306 Y-3.15457
G01 X-3.32395 Y-3.14869
G01 X-3.32489 Y-3.14392
G01 X-3.32759 Y-3.13340
G01 X-3.33023 Y-3.12536
G01 X-3.33354 Y-3.11694
G01 X-3.33763 Y-3.10804
G01 X-3.34109 Y-3.10138
G01 X-3.34416 Y-3.09603
G01 X-3.34963 Y-3.09374
G01 X-3.35790 Y-3.09116
G01 X-3.36557 Y-3.08957
G01 X-3.37337 Y-3.08874
G01 X-3.37692 Y-3.08860
G01 X-3.42268 Y-3.08859
G01 X-3.42639 Y-3.08877
G01 X-3.43370 Y-3.08948
G01 X-3.43735 Y-3.09009
G01 X-3.44333 Y-3.09148
G01 X-3.45166 Y-3.09422
G01 X-3.45753 Y-3.09678
G01 X-3.46121 Y-3.09868
G01 X-3.46420 Y-3.10039
G01 X-3.46402 Y-3.10114
G01 X-3.46420 Y-3.10039
G01 X-4.01345 Y-3.10039
G01 X-4.01432 Y-3.10249
G01 X-4.01345 Y-3.10039
G01 X-4.22916 Y-2.88468
G01 X-4.23125 Y-2.88554
G01 X-4.22916 Y-2.88468
G01 X-4.22917 Y-2.87903
G01 X-4.22113 Y-2.88705
G01 X-4.21905 Y-2.88876
G01 X-4.21931 Y-2.88915
G01 X-4.21905 Y-2.88876
G01 X-4.21667 Y-2.89003
G01 X-4.20393 Y-2.89531
G01 X-4.07252 Y-3.02672
G01 X-4.06698 Y-3.03208
G01 X-4.05934 Y-3.03878
G01 X-4.04752 Y-3.04799
G01 X-4.04381 Y-3.05055
G01 X-4.02956 Y-3.05964
G01 X-4.02590 Y-3.06169
G01 X-4.01121 Y-3.06924
G01 X-4.00249 Y-3.07311
G01 X-3.99979 Y-3.07398
G01 X-3.99989 Y-3.07451
G01 X-3.99979 Y-3.07398
G01 X-3.99580 Y-3.07428
G01 X-3.72839 Y-3.07428
G01 X-3.71776 Y-3.07728
G01 X-3.70449 Y-3.08045
G01 X-3.69792 Y-3.08173
G01 X-3.68563 Y-3.08373
G01 X-3.67955 Y-3.08448
G01 X-3.66662 Y-3.08566
G01 X-3.65177 Y-3.08619
G01 X-3.64173 Y-3.08607
G01 X-3.63119 Y-3.08551
G01 X-3.62103 Y-3.08458
G01 X-3.61191 Y-3.08339
G01 X-3.59818 Y-3.08100
G01 X-3.58784 Y-3.07871
G01 X-3.58224 Y-3.07729
G01 X-3.57109 Y-3.07415
G01 X-3.56330 Y-3.07164
G01 X-3.55827 Y-3.07083
G01 X-3.54476 Y-3.06813
G01 X-3.52881 Y-3.06393
G01 X-3.52635 Y-3.06320
G01 X-3.50945 Y-3.05737
G01 X-3.50161 Y-3.05428
G01 X-3.47987 Y-3.04527
G01 X-3.47739 Y-3.04527
G01 X-3.47732 Y-3.04568
G01 X-3.47739 Y-3.04527
G01 X-3.47621 Y-3.04474
G01 X-3.47180 Y-3.04291
G01 X-3.46731 Y-3.04127
G01 X-3.45904 Y-3.03863
G01 X-3.45077 Y-3.03661
G01 X-3.44568 Y-3.03558
G01 X-3.44094 Y-3.03484
G01 X-3.42896 Y-3.03369
G01 X-3.42302 Y-3.03347
G01 X-3.40167 Y-3.03347
G01 X-3.38614 Y-3.04261
G01 X-3.37788 Y-3.05125
G01 X-3.36623 Y-3.06462
G01 X-3.35687 Y-3.07667
G01 X-3.34906 Y-3.08800
G01 X-3.34416 Y-3.09603
G01 X-3.34906 Y-3.08800
G01 X-3.35484 Y-3.07948
G01 X-3.36394 Y-3.06745
G01 X-3.36895 Y-3.06147
G01 X-3.37650 Y-3.06105
G01 X-3.42263 Y-3.06103
G01 X-3.42770 Y-3.06123
G01 X-3.43529 Y-3.06191
G01 X-3.44311 Y-3.06314
G01 X-3.44906 Y-3.06450
G01 X-3.45330 Y-3.06567
G01 X-3.46229 Y-3.06879
G01 X-3.47129 Y-3.07283
G01 X-3.56693 Y-3.07283
G01 X-3.56771 Y-3.07309
G01 X-3.56693 Y-3.07283
G01 X-3.47129 Y-3.07283
G01 X-3.47116 Y-3.07344
G01 X-3.47129 Y-3.07283
G01 X-3.46527 Y-3.07004
G01 X-3.46041 Y-3.06806
G01 X-3.45444 Y-3.06602
G01 X-3.44983 Y-3.06469
G01 X-3.44389 Y-3.06331
G01 X-3.43608 Y-3.06200
G01 X-3.42770 Y-3.06123
G01 X-3.42263 Y-3.06103
G01 X-3.37650 Y-3.06105
G01 X-3.36895 Y-3.06147
G01 X-3.36394 Y-3.06745
G01 X-3.35484 Y-3.07948
G01 X-3.34906 Y-3.08800
G01 X-3.34264 Y-3.09859
G01 X-3.33763 Y-3.10804
G01 X-3.33354 Y-3.11694
G01 X-3.33023 Y-3.12536
G01 X-3.32679 Y-3.13616
G01 X-3.32489 Y-3.14392
G01 X-3.32395 Y-3.14869
G01 X-3.32306 Y-3.15457
G01 X-3.32460 Y-3.15925
G01 X-3.32388 Y-3.16284
G01 X-3.32334 Y-3.16790
G01 X-3.32326 Y-3.17025
G01 X-3.32341 Y-3.17573
G01 X-3.32420 Y-3.18156
G01 X-3.32594 Y-3.18831
G01 X-3.32895 Y-3.19572
G01 X-3.33270 Y-3.20201
G01 X-3.29833 Y-3.16765
G01 X-3.29579 Y-3.15963
G01 X-3.29563 Y-3.15966
G01 X-3.29579 Y-3.15963
G01 X-3.29529 Y-3.15697
G01 X-3.29532 Y-3.15427
G01 X-3.29514 Y-3.15426
G01 X-3.29532 Y-3.15427
G01 X-3.29627 Y-3.14709
G01 X-3.29788 Y-3.13841
G01 X-3.30013 Y-3.12912
G01 X-3.30317 Y-3.11921
G01 X-3.30686 Y-3.10933
G01 X-3.31139 Y-3.09901
G01 X-3.31672 Y-3.08851
G01 X-3.32062 Y-3.08171
G01 X-3.32062 Y-3.01269
G01 X-3.31917 Y-3.01221
G01 X-3.32062 Y-3.01269
G01 X-3.32351 Y-3.00933
G01 X-3.32786 Y-3.00349
G01 X-3.33295 Y-2.99520
G01 X-3.33716 Y-2.98642
G01 X-3.34033 Y-2.97765
G01 X-3.34199 Y-2.97141
G01 X-3.34277 Y-2.96781
G01 X-3.34382 Y-2.96101
G01 X-3.34425 Y-2.95562
G01 X-3.34288 Y-2.95494
G01 X-3.34425 Y-2.95562
G01 X-3.36939 Y-2.93048
G01 X-3.36852 Y-2.92836
G01 X-3.36939 Y-2.93048
G01 X-3.37201 Y-2.93066
G01 X-3.42639 Y-2.93070
G01 X-3.43119 Y-2.93042
G01 X-3.43556 Y-2.92980
G01 X-3.44024 Y-2.92873
G01 X-3.44484 Y-2.92724
G01 X-3.44397 Y-2.91236
G01 X-3.44253 Y-2.89732
G01 X-3.44479 Y-2.89536
G01 X-3.44670 Y-2.89330
G01 X-3.44839 Y-2.89107
G01 X-3.44985 Y-2.88867
G01 X-3.45120 Y-2.88577
G01 X-3.45210 Y-2.88311
G01 X-3.45273 Y-2.88038
G01 X-3.45305 Y-2.87761
G01 X-3.45273 Y-2.88038
G01 X-3.45210 Y-2.88311
G01 X-3.45120 Y-2.88577
G01 X-3.44985 Y-2.88867
G01 X-3.44839 Y-2.89107
G01 X-3.44670 Y-2.89330
G01 X-3.44479 Y-2.89536
G01 X-3.44253 Y-2.89732
G01 X-3.44397 Y-2.91236
G01 X-3.44489 Y-2.92819
G01 X-3.44575 Y-2.95285
G01 X-3.44503 Y-2.95595
G01 X-3.44034 Y-2.95694
G01 X-3.43559 Y-2.95766
G01 X-3.43080 Y-2.95810
G01 X-3.42599 Y-2.95827
G01 X-3.38057 Y-2.95827
G01 X-3.37971 Y-2.95618
G01 X-3.38057 Y-2.95827
G01 X-3.37062 Y-2.96822
G01 X-3.36960 Y-2.96767
G01 X-3.37062 Y-2.96822
G01 X-3.36978 Y-2.97328
G01 X-3.36895 Y-2.97718
G01 X-3.36622 Y-2.98720
G01 X-3.36263 Y-2.99695
G01 X-3.35786 Y-3.00706
G01 X-3.35303 Y-3.01535
G01 X-3.35085 Y-3.01869
G01 X-3.34818 Y-3.02239
G01 X-3.34704 Y-3.02205
G01 X-3.34818 Y-3.02239
G01 X-3.34818 Y-3.04335
G01 X-3.34218 Y-3.05053
G01 X-3.33237 Y-3.06352
G01 X-3.32591 Y-3.07305
G01 X-3.31885 Y-3.08467
G01 X-3.32376 Y-3.07639
G01 X-3.33214 Y-3.06385
G01 X-3.33462 Y-3.06038
G01 X-3.34218 Y-3.05053
G01 X-3.34522 Y-3.04679
G01 X-3.35451 Y-3.03600
G01 X-3.36790 Y-3.02183
G01 X-3.36772 Y-3.02161
G01 X-3.36790 Y-3.02183
G01 X-3.37093 Y-3.01954
G01 X-3.37627 Y-3.01654
G01 X-3.38746 Y-3.00986
G01 X-3.40488 Y-2.99835
G01 X-3.40733 Y-2.99699
G01 X-3.40999 Y-2.99615
G01 X-3.41278 Y-2.99587
G01 X-3.43439 Y-2.99601
G01 X-3.44011 Y-2.97714
G01 X-3.44503 Y-2.95595
G01 X-3.44011 Y-2.97714
G01 X-3.43768 Y-2.98516
G01 X-3.43240 Y-2.98562
G01 X-3.42719 Y-2.98582
G01 X-3.39519 Y-2.98583
G01 X-3.39100 Y-2.98027
G01 X-3.39519 Y-2.98583
G01 X-3.39350 Y-2.99220
G01 X-3.39197 Y-2.99709
G01 X-3.38913 Y-3.00492
G01 X-3.38694 Y-3.01017
G01 X-3.39118 Y-3.00752
G01 X-3.40488 Y-2.99835
G01 X-3.40733 Y-2.99699
G01 X-3.40714 Y-2.99655
G01 X-3.40733 Y-2.99699
G01 X-3.40999 Y-2.99615
G01 X-3.41278 Y-2.99587
G01 X-3.41276 Y-2.99572
G01 X-3.41278 Y-2.99587
G01 X-3.43439 Y-2.99601
G01 X-3.44011 Y-2.97714
G01 X-3.44575 Y-2.95285
G01 X-3.44463 Y-2.92290
G01 X-3.44359 Y-2.90756
G01 X-3.44253 Y-2.89732
G01 X-3.44450 Y-2.89564
G01 X-3.44644 Y-2.89361
G01 X-3.44816 Y-2.89140
G01 X-3.44965 Y-2.88902
G01 X-3.45090 Y-2.88651
G01 X-3.45187 Y-2.88388
G01 X-3.45258 Y-2.88116
G01 X-3.45296 Y-2.87879
G01 X-3.45307 Y-2.87769
G01 X-3.45120 Y-2.86973
G01 X-3.45032 Y-2.86473
G01 X-3.44946 Y-2.85680
G01 X-3.44923 Y-2.85140
G01 X-3.44932 Y-2.84564
G01 X-3.44955 Y-2.84203
G01 X-3.45028 Y-2.83561
G01 X-3.45141 Y-2.82927
G01 X-3.45307 Y-2.82237
G01 X-3.45471 Y-2.81979
G01 X-3.45763 Y-2.81594
G01 X-3.46213 Y-2.81121
G01 X-3.46886 Y-2.80880
G01 X-3.47803 Y-2.80630
G01 X-3.48124 Y-2.80565
G01 X-3.48717 Y-2.80473
G01 X-3.49628 Y-2.80407
G01 X-3.50221 Y-2.80412
G01 X-3.50581 Y-2.80434
G01 X-3.51449 Y-2.80544
G01 X-3.52073 Y-2.80675
G01 X-3.52433 Y-2.80769
G01 X-3.52779 Y-2.80874
G01 X-3.53469 Y-2.81121
G01 X-3.57295 Y-2.81121
G01 X-3.57717 Y-2.81099
G01 X-3.57995 Y-2.81062
G01 X-3.58467 Y-2.80958
G01 X-3.58924 Y-2.80801
G01 X-3.59289 Y-2.80629
G01 X-3.59534 Y-2.80492
G01 X-3.59868 Y-2.80267
G01 X-3.60308 Y-2.79891
G01 X-3.71854 Y-2.68345
G01 X-3.71854 Y-2.69530
G01 X-3.71883 Y-2.69889
G01 X-3.71938 Y-2.70164
G01 X-3.72020 Y-2.70432
G01 X-3.72130 Y-2.70691
G01 X-3.72244 Y-2.70903
G01 X-3.72424 Y-2.71168
G01 X-3.72605 Y-2.71381
G01 X-3.72838 Y-2.71601
G01 X-3.73062 Y-2.71770
G01 X-3.73337 Y-2.71935
G01 X-3.73592 Y-2.72051
G01 X-3.73897 Y-2.72152
G01 X-3.74171 Y-2.72211
G01 X-3.74610 Y-2.72246
G01 X-3.88550 Y-2.72241
G01 X-3.88829 Y-2.72211
G01 X-3.89103 Y-2.72152
G01 X-3.89370 Y-2.72066
G01 X-3.89627 Y-2.71953
G01 X-3.89938 Y-2.71770
G01 X-3.90192 Y-2.71575
G01 X-3.90300 Y-2.71476
G01 X-3.90354 Y-2.71332
G01 X-3.90359 Y-2.81460
G01 X-3.90411 Y-2.81857
G01 X-3.90534 Y-2.82280
G01 X-3.90723 Y-2.82678
G01 X-3.90973 Y-2.83040
G01 X-3.91161 Y-2.83249
G01 X-3.91338 Y-2.83411
G01 X-3.91562 Y-2.83580
G01 X-3.91802 Y-2.83726
G01 X-3.92055 Y-2.83846
G01 X-3.92320 Y-2.83940
G01 X-3.92553 Y-2.83999
G01 X-3.92830 Y-2.84042
G01 X-3.93110 Y-2.84056
G01 X-4.00834 Y-2.84056
G01 X-3.96147 Y-2.85997
G01 X-3.93152 Y-2.85997
G01 X-3.91781 Y-2.85913
G01 X-3.90444 Y-2.85665
G01 X-3.89347 Y-2.85327
G01 X-3.89298 Y-2.85282
G01 X-3.89019 Y-2.84994
G01 X-3.88737 Y-2.84655
G01 X-3.88483 Y-2.84295
G01 X-3.88278 Y-2.83951
G01 X-3.88098 Y-2.83593
G01 X-3.87931 Y-2.83185
G01 X-3.87807 Y-2.82804
G01 X-3.87712 Y-2.82415
G01 X-3.87635 Y-2.81940
G01 X-3.87600 Y-2.81420
G01 X-3.87598 Y-2.76951
G01 X-3.89364 Y-2.75184
G01 X-3.90354 Y-2.74058
G01 X-3.89365 Y-2.75185
G01 X-3.83118 Y-2.81430
G01 X-3.83528 Y-2.81809
G01 X-3.85017 Y-2.82993
G01 X-3.84908 Y-2.82339
G01 X-3.84854 Y-2.81741
G01 X-3.84842 Y-2.79706
G01 X-3.84854 Y-2.81741
G01 X-3.84908 Y-2.82339
G01 X-3.85017 Y-2.82993
G01 X-3.86345 Y-2.83893
G01 X-3.87729 Y-2.84660
G01 X-3.89095 Y-2.85250
G01 X-3.90444 Y-2.85665
G01 X-3.91781 Y-2.85913
G01 X-3.93152 Y-2.85997
G01 X-3.96147 Y-2.85997
G01 X-4.00834 Y-2.84056
G01 X-4.04434 Y-2.84056
G01 X-4.01889 Y-2.86602
G01 X-3.96949 Y-2.88648
G01 X-3.96690 Y-2.88726
G01 X-3.96700 Y-2.88776
G01 X-3.96690 Y-2.88726
G01 X-3.96421 Y-2.88753
G01 X-3.93110 Y-2.88754
G01 X-3.91527 Y-2.88663
G01 X-3.89864 Y-2.88365
G01 X-3.88212 Y-2.87861
G01 X-3.86575 Y-2.87164
G01 X-3.84850 Y-2.86209
G01 X-3.83263 Y-2.85130
G01 X-3.81766 Y-2.83931
G01 X-3.80592 Y-2.82848
G01 X-3.74610 Y-2.82848
G01 X-3.73348 Y-2.82826
G01 X-3.72945 Y-2.82754
G01 X-3.71857 Y-2.82368
G01 X-3.71082 Y-2.82510
G01 X-3.69803 Y-2.82787
G01 X-3.68671 Y-2.83077
G01 X-3.67588 Y-2.83400
G01 X-3.66578 Y-2.83748
G01 X-3.66042 Y-2.83949
G01 X-3.65001 Y-2.84380
G01 X-3.62176 Y-2.85670
G01 X-3.61928 Y-2.85753
G01 X-3.61669 Y-2.85789
G01 X-3.61408 Y-2.85775
G01 X-3.60447 Y-2.85618
G01 X-3.61191 Y-2.86361
G01 X-3.61080 Y-2.86856
G01 X-3.61191 Y-2.86361
G01 X-3.61663 Y-2.86163
G01 X-3.62386 Y-2.85926
G01 X-3.62922 Y-2.85787
G01 X-3.63822 Y-2.85627
G01 X-3.64737 Y-2.85559
G01 X-3.65263 Y-2.85561
G01 X-3.66189 Y-2.85629
G01 X-3.66994 Y-2.85766
G01 X-3.67753 Y-2.85963
G01 X-3.68568 Y-2.86254
G01 X-3.69288 Y-2.86586
G01 X-3.69985 Y-2.86979
G01 X-3.70297 Y-2.87178
G01 X-3.70825 Y-2.87563
G01 X-3.71274 Y-2.87938
G01 X-3.71225 Y-2.88083
G01 X-3.71274 Y-2.87938
G01 X-3.88461 Y-2.87938
G01 X-3.89710 Y-2.88323
G01 X-3.88071 Y-2.87814
G01 X-3.86451 Y-2.87107
G01 X-3.84849 Y-2.86211
G01 X-3.83337 Y-2.85182
G01 X-3.72242 Y-2.85182
G01 X-3.72205 Y-2.85304
G01 X-3.72242 Y-2.85182
G01 X-3.71913 Y-2.84945
G01 X-3.71372 Y-2.84597
G01 X-3.70498 Y-2.84108
G01 X-3.70028 Y-2.83882
G01 X-3.69369 Y-2.83606
G01 X-3.68657 Y-2.83359
G01 X-3.68180 Y-2.83221
G01 X-3.67588 Y-2.83400
G01 X-3.66578 Y-2.83748
G01 X-3.66042 Y-2.83949
G01 X-3.65001 Y-2.84380
G01 X-3.62176 Y-2.85670
G01 X-3.62180 Y-2.85681
G01 X-3.62176 Y-2.85670
G01 X-3.61928 Y-2.85753
G01 X-3.61669 Y-2.85789
G01 X-3.61672 Y-2.85831
G01 X-3.61669 Y-2.85789
G01 X-3.61408 Y-2.85775
G01 X-3.60914 Y-2.85702
G01 X-3.59604 Y-2.85451
G01 X-3.58172 Y-2.85074
G01 X-3.57351 Y-2.84792
G01 X-3.56787 Y-2.84577
G01 X-3.56417 Y-2.84420
G01 X-3.56120 Y-2.84262
G01 X-3.55628 Y-2.83886
G01 X-3.54912 Y-2.83406
G01 X-3.54656 Y-2.82748
G01 X-3.54394 Y-2.82258
G01 X-3.54224 Y-2.81998
G01 X-3.53890 Y-2.81555
G01 X-3.53476 Y-2.81123
G01 X-3.53140 Y-2.80996
G01 X-3.53469 Y-2.81121
G01 X-3.56452 Y-2.81121
G01 X-3.56860 Y-2.81386
G01 X-3.57628 Y-2.81939
G01 X-3.57812 Y-2.82015
G01 X-3.58300 Y-2.82204
G01 X-3.59171 Y-2.82493
G01 X-3.59974 Y-2.82708
G01 X-3.60886 Y-2.82895
G01 X-3.61334 Y-2.82605
G01 X-3.61594 Y-2.82417
G01 X-3.62231 Y-2.81865
G01 X-3.70711 Y-2.73386
G01 X-3.70670 Y-2.72398
G01 X-3.70711 Y-2.73386
G01 X-3.71036 Y-2.73686
G01 X-3.71319 Y-2.73911
G01 X-3.71615 Y-2.74117
G01 X-3.71924 Y-2.74303
G01 X-3.72244 Y-2.74468
G01 X-3.72612 Y-2.74627
G01 X-3.72953 Y-2.74747
G01 X-3.73300 Y-2.74844
G01 X-3.73653 Y-2.74918
G01 X-3.74130 Y-2.74981
G01 X-3.74570 Y-2.75002
G01 X-3.85649 Y-2.75002
G01 X-3.80559 Y-2.80092
G01 X-3.74628 Y-2.80092
G01 X-3.73626 Y-2.80066
G01 X-3.72447 Y-2.79652
G01 X-3.72217 Y-2.79590
G01 X-3.72223 Y-2.79554
G01 X-3.72217 Y-2.79590
G01 X-3.71979 Y-2.79570
G01 X-3.71741 Y-2.79591
G01 X-3.71739 Y-2.79577
G01 X-3.71741 Y-2.79591
G01 X-3.70525 Y-2.79811
G01 X-3.69169 Y-2.80103
G01 X-3.67936 Y-2.80421
G01 X-3.66710 Y-2.80788
G01 X-3.65663 Y-2.81148
G01 X-3.65051 Y-2.81378
