( pcb2gcode 2.5.0 )
( Software-independent Gcode )

G94 ( Millimeters per minute feed rate. )
G21 ( Units == Millimeters. )

G90 ( Absolute coordinates. )
G00 S1000 ( RPM spindle speed. )
G64 P0.01016 ( set maximum deviation from commanded toolpath )
G01 F30.00000 ( Feedrate. )


G00 Z10.00000 (Retract to tool change height)
T1
M5      (Spindle stop.)
G04 P5.00000 (Wait for spindle to stop)
(MSG, Change tool bit to mill diameter 1.00000mm)
M6      (Tool change.)
M0      (Temporary machine stop.)
M3 ( Spindle on clockwise. )
G04 P3.00000 (Wait for spindle to get up to speed)
G04 P0 ( dwell for no time -- G64 should not smooth over this point )
G00 Z1.00000 ( retract )

G00 X-43.17649 Y0.00000 ( rapid move to begin. )
G01 F20.00000
( Mill infeed pass 1/1 )
G01 Z-0.30000
G04 P0 ( dwell for no time -- G64 should not smooth over this point )
G01 F30.00000
G01 X-43.17649 Y0.00000
G01 X-42.46740 Y0.71001
G01 X-42.30774 Y0.87991
G01 X-42.15381 Y1.05504
G01 X-41.96669 Y1.28212
G01 X-41.78330 Y1.52436
G01 X-41.61620 Y1.76588
G01 X-41.44894 Y2.03159
G01 X-41.28224 Y2.32230
G01 X-41.13355 Y2.61094
G01 X-40.99441 Y2.91551
G01 X-40.87287 Y3.21694
G01 X-40.76751 Y3.51335
G01 X-40.67556 Y3.81417
G01 X-40.60187 Y4.09905
G01 X-40.53088 Y4.42671
G01 X-40.47945 Y4.72674
G01 X-40.43904 Y5.04891
G01 X-40.41135 Y5.40349
G01 X-40.40058 Y5.71861
G01 X-40.40012 Y15.01069
G01 X-40.42494 Y15.01884
G01 X-40.40012 Y15.01069
G01 X-40.34297 Y15.08374
G01 X-40.17378 Y15.31173
G01 X-40.00294 Y15.56342
G01 X-39.87424 Y15.76997
G01 X-39.76759 Y15.95427
G01 X-39.65725 Y16.15976
G01 X-39.55819 Y16.35963
G01 X-39.45633 Y16.58145
G01 X-39.37617 Y16.76842
G01 X-39.29789 Y16.96715
G01 X-39.22570 Y17.16816
G01 X-39.15969 Y17.37131
G01 X-39.09720 Y17.58617
G01 X-39.04163 Y17.80291
G01 X-38.99223 Y18.02127
G01 X-38.93180 Y18.34030
G01 X-38.88864 Y18.64162
G01 X-38.85865 Y18.94454
G01 X-38.83972 Y19.26976
G01 X-38.83513 Y19.51406
G01 X-38.83589 Y22.45195
G01 X-38.84483 Y22.72566
G01 X-38.86266 Y22.97859
G01 X-38.89218 Y23.25086
G01 X-38.93028 Y23.51235
G01 X-38.97396 Y23.76206
G01 X-39.02441 Y24.00013
G01 X-39.08308 Y24.23632
G01 X-39.14991 Y24.47031
G01 X-39.22817 Y24.71146
G01 X-39.31506 Y24.94958
G01 X-39.42210 Y25.21323
G01 X-39.52913 Y25.45458
G01 X-39.64054 Y25.68268
G01 X-39.76014 Y25.90658
G01 X-39.89306 Y26.13470
G01 X-40.02331 Y26.34066
G01 X-40.21371 Y26.61694
G01 X-40.38991 Y26.85285
G01 X-40.58247 Y27.08890
G01 X-40.78511 Y27.31635
G01 X-40.99024 Y27.52763
G01 X-41.20406 Y27.73009
G01 X-41.45570 Y27.95153
G01 X-41.70878 Y28.15460
G01 X-41.96265 Y28.33995
G01 X-42.21602 Y28.50827
G01 X-42.47647 Y28.66545
G01 X-42.77050 Y28.82638
G01 X-43.03365 Y28.95760
G01 X-43.32077 Y29.08551
G01 X-43.59432 Y29.19339
G01 X-43.87522 Y29.29065
G01 X-43.61183 Y29.73006
G01 X-43.34954 Y29.63550
G01 X-43.09445 Y29.53271
G01 X-42.83410 Y29.41630
G01 X-42.58742 Y29.29476
G01 X-42.30017 Y29.14023
G01 X-42.06268 Y29.00157
G01 X-41.80497 Y28.83743
G01 X-41.56238 Y28.66890
G01 X-41.32664 Y28.49095
G01 X-41.09806 Y28.30385
G01 X-40.83909 Y28.07391
G01 X-40.64056 Y27.88501
G01 X-40.44211 Y27.68158
G01 X-40.24485 Y27.46312
G01 X-40.05631 Y27.23708
G01 X-39.88887 Y27.02011
G01 X-39.69987 Y26.75545
G01 X-39.54295 Y26.51849
G01 X-39.39004 Y26.26698
G01 X-39.25186 Y26.01864
G01 X-39.12761 Y25.77437
G01 X-39.00421 Y25.50714
G01 X-38.87503 Y25.19716
G01 X-38.77490 Y24.93013
G01 X-38.68804 Y24.66919
G01 X-38.60546 Y24.38560
G01 X-38.53637 Y24.10892
G01 X-38.47597 Y23.81979
G01 X-38.41905 Y23.47793
G01 X-38.38303 Y23.20506
G01 X-38.35705 Y22.93104
G01 X-38.34074 Y22.64606
G01 X-38.33531 Y22.37087
G01 X-38.33513 Y19.51401
G01 X-38.33881 Y19.28848
G01 X-38.35829 Y18.93044
G01 X-38.38705 Y18.62587
G01 X-38.42979 Y18.31261
G01 X-38.48570 Y18.00146
G01 X-38.53995 Y17.75224
G01 X-38.59337 Y17.53484
G01 X-38.65039 Y17.32890
G01 X-38.71956 Y17.10530
G01 X-38.79566 Y16.88399
G01 X-38.87488 Y16.67459
G01 X-38.96032 Y16.46768
G01 X-39.05171 Y16.26296
G01 X-39.15202 Y16.05125
G01 X-39.25890 Y15.84279
G01 X-39.37221 Y15.63776
G01 X-39.49189 Y15.43637
G01 X-39.65166 Y15.18793
G01 X-39.82108 Y14.94597
G01 X-39.90010 Y14.83972
G01 X-39.92326 Y14.84699
G01 X-39.90010 Y14.83972
G01 X-39.90038 Y5.73852
G01 X-39.91077 Y5.40065
G01 X-39.93612 Y5.05419
G01 X-39.97526 Y4.71993
G01 X-40.02565 Y4.40784
G01 X-40.08244 Y4.12801
G01 X-40.16632 Y3.78089
G01 X-40.24798 Y3.49664
G01 X-40.34760 Y3.19656
G01 X-40.47096 Y2.87241
G01 X-40.58671 Y2.60025
G01 X-40.71765 Y2.32374
G01 X-40.86964 Y2.03495
G01 X-41.03842 Y1.74407
G01 X-41.19593 Y1.49499
G01 X-41.37497 Y1.23579
G01 X-41.55846 Y0.99233
G01 X-41.77149 Y0.73284
G01 X-41.95994 Y0.51930
G01 X-42.13494 Y0.33482
G01 X-42.46936 Y0.00000
G01 X-41.76306 Y0.00000
G01 X-41.57099 Y0.20378
G01 X-41.38915 Y0.41064
G01 X-41.18803 Y0.65466
G01 X-41.00860 Y0.88956
G01 X-40.78125 Y1.21562
G01 X-40.57556 Y1.54379
G01 X-40.46311 Y1.73754
G01 X-40.36545 Y1.91572
G01 X-40.27236 Y2.09631
G01 X-40.17528 Y2.29763
G01 X-40.01717 Y2.66090
G01 X-39.93167 Y2.87868
G01 X-39.86220 Y3.06964
G01 X-39.79761 Y3.26227
G01 X-39.73792 Y3.45648
G01 X-39.68318 Y3.65216
G01 X-39.63109 Y3.85905
G01 X-39.57744 Y4.09727
G01 X-39.53591 Y4.30652
G01 X-39.49840 Y4.52686
G01 X-39.46835 Y4.73807
G01 X-39.44394 Y4.95000
G01 X-39.42519 Y5.16252
G01 X-39.40985 Y5.40555
G01 X-39.40157 Y5.64822
G01 X-39.40012 Y14.67472
G01 X-39.42171 Y14.68128
G01 X-39.40012 Y14.67472
G01 X-39.27503 Y14.85242
G01 X-39.15133 Y15.03888
G01 X-38.96540 Y15.34244
G01 X-38.78374 Y15.67200
G01 X-38.63929 Y15.96365
G01 X-38.48504 Y16.30749
G01 X-38.36032 Y16.61940
G01 X-38.24879 Y16.93629
G01 X-38.15903 Y17.22818
G01 X-38.07564 Y17.54309
G01 X-37.99596 Y17.90068
G01 X-37.93815 Y18.22056
G01 X-37.89459 Y18.53247
G01 X-37.86416 Y18.83570
G01 X-37.84252 Y19.18010
G01 X-37.83515 Y19.50405
G01 X-37.83625 Y22.48258
G01 X-37.84234 Y22.69574
G01 X-37.85413 Y22.90867
G01 X-37.87257 Y23.13132
G01 X-37.89594 Y23.34329
G01 X-37.94846 Y23.70562
G01 X-38.00483 Y24.01583
G01 X-38.07821 Y24.34333
G01 X-38.16243 Y24.65771
G01 X-38.25936 Y24.96843
G01 X-38.36886 Y25.27491
G01 X-38.50610 Y25.61458
G01 X-38.63866 Y25.91095
G01 X-38.73216 Y26.10241
G01 X-38.82111 Y26.27346
G01 X-39.01123 Y26.60884
G01 X-39.11773 Y26.78156
G01 X-39.22857 Y26.95153
G01 X-39.47422 Y27.30033
G01 X-39.59685 Y27.46200
G01 X-39.72354 Y27.62052
G01 X-39.98196 Y27.92016
G01 X-40.25489 Y28.20665
G01 X-40.54163 Y28.47927
G01 X-40.84828 Y28.74711
G01 X-41.00634 Y28.87513
G01 X-41.16763 Y28.99910
G01 X-41.34030 Y29.12483
G01 X-41.49938 Y29.23456
G01 X-41.83398 Y29.44759
G01 X-42.01838 Y29.55536
G01 X-42.23268 Y29.67297
G01 X-42.42209 Y29.77170
G01 X-42.59567 Y29.85663
G01 X-42.78056 Y29.94149
G01 X-42.96753 Y30.02161
G01 X-43.15650 Y30.09697
G01 X-43.34924 Y30.16816
G01 X-43.08732 Y30.60512
G01 X-42.77484 Y30.48300
G01 X-42.48617 Y30.35722
G01 X-42.21140 Y30.22539
G01 X-41.90535 Y30.06441
G01 X-41.64020 Y29.91419
G01 X-41.38061 Y29.75455
G01 X-41.12692 Y29.58572
G01 X-40.87127 Y29.40182
G01 X-40.63845 Y29.22133
G01 X-40.40434 Y29.02623
G01 X-40.13929 Y28.78887
G01 X-39.90520 Y28.56405
G01 X-39.68676 Y28.33789
G01 X-39.48349 Y28.11148
G01 X-39.28209 Y27.87002
G01 X-39.08976 Y27.62128
G01 X-38.88290 Y27.33218
G01 X-38.70886 Y27.07033
G01 X-38.54460 Y26.80221
G01 X-38.39040 Y26.52822
G01 X-38.25090 Y26.25778
G01 X-38.11702 Y25.97328
G01 X-37.97016 Y25.62725
G01 X-37.86762 Y25.36195
G01 X-37.77084 Y25.08372
G01 X-37.67531 Y24.77300
G01 X-37.59906 Y24.48847
G01 X-37.52642 Y24.17163
G01 X-37.46937 Y23.87227
G01 X-37.41341 Y23.50981
G01 X-37.37851 Y23.21608
G01 X-37.35319 Y22.91116
G01 X-37.34013 Y22.64628
G01 X-37.33538 Y22.39134
G01 X-37.33782 Y19.31027
G01 X-37.35294 Y18.97426
G01 X-37.38390 Y18.60029
G01 X-37.42657 Y18.25871
G01 X-37.48303 Y17.91917
G01 X-37.53114 Y17.68099
G01 X-37.59027 Y17.42305
G01 X-37.64879 Y17.19626
G01 X-37.71059 Y16.98092
G01 X-37.78126 Y16.75760
G01 X-37.85804 Y16.53631
G01 X-37.93716 Y16.32669
G01 X-38.02576 Y16.10987
G01 X-38.14145 Y15.84896
G01 X-38.24110 Y15.63764
G01 X-38.35596 Y15.41115
G01 X-38.47752 Y15.18816
G01 X-38.63210 Y14.92555
G01 X-38.79601 Y14.66863
G01 X-38.90015 Y14.51534
G01 X-38.92042 Y14.52131
G01 X-38.90015 Y14.51534
G01 X-38.90053 Y5.71851
G01 X-38.91089 Y5.37243
G01 X-38.93447 Y5.02765
G01 X-38.96850 Y4.70548
G01 X-39.01478 Y4.38480
G01 X-39.06924 Y4.08600
G01 X-39.14092 Y3.75912
G01 X-39.21321 Y3.47454
G01 X-39.29830 Y3.18298
G01 X-39.38704 Y2.91374
G01 X-39.49205 Y2.62875
G01 X-39.61023 Y2.33749
G01 X-39.73863 Y2.05110
G01 X-39.86825 Y1.78765
G01 X-40.00688 Y1.52883
G01 X-40.18036 Y1.23055
G01 X-40.34246 Y0.97287
G01 X-40.51958 Y0.71285
G01 X-40.69999 Y0.46764
G01 X-40.88265 Y0.23691
G01 X-41.08293 Y0.00000
G01 X-40.43108 Y0.00000
G01 X-40.27947 Y0.19464
G01 X-40.14064 Y0.38306
G01 X-40.00675 Y0.57503
G01 X-39.87790 Y0.77041
G01 X-39.75946 Y0.96037
G01 X-39.64536 Y1.15329
G01 X-39.45390 Y1.50056
G01 X-39.27361 Y1.86515
G01 X-39.10998 Y2.23749
G01 X-38.95524 Y2.63583
G01 X-38.82199 Y3.03083
G01 X-38.70719 Y3.43159
G01 X-38.60833 Y3.84739
G01 X-38.56545 Y4.05658
G01 X-38.52421 Y4.28678
G01 X-38.49035 Y4.50792
G01 X-38.46200 Y4.72981
G01 X-38.43828 Y4.96247
G01 X-38.41976 Y5.20624
G01 X-38.40813 Y5.42105
G01 X-38.40165 Y5.63608
G01 X-38.40015 Y14.36106
G01 X-38.41920 Y14.36647
G01 X-38.40015 Y14.36106
G01 X-38.26921 Y14.56238
G01 X-38.14717 Y14.76131
G01 X-37.95695 Y15.09669
G01 X-37.78570 Y15.43080
G01 X-37.61918 Y15.79075
G01 X-37.49269 Y16.09118
G01 X-37.37028 Y16.41518
G01 X-37.26043 Y16.74368
G01 X-37.16599 Y17.06629
G01 X-37.08829 Y17.37238
G01 X-37.01021 Y17.73050
G01 X-36.94783 Y18.08086
G01 X-36.90297 Y18.40314
G01 X-36.86978 Y18.72684
G01 X-36.84557 Y19.09084
G01 X-36.83572 Y19.42351
G01 X-36.83742 Y22.55390
G01 X-36.84750 Y22.82815
G01 X-36.86429 Y23.08169
G01 X-36.89160 Y23.36498
G01 X-36.92495 Y23.62716
G01 X-36.99104 Y24.03859
G01 X-37.06579 Y24.40650
G01 X-37.15847 Y24.78077
G01 X-37.26404 Y25.14105
G01 X-37.38799 Y25.50617
G01 X-37.52748 Y25.86563
G01 X-37.69672 Y26.25700
G01 X-37.86980 Y26.61257
G01 X-38.07343 Y26.98656
G01 X-38.29454 Y27.35049
G01 X-38.42283 Y27.54526
G01 X-38.56213 Y27.74544
G01 X-38.80378 Y28.07114
G01 X-39.07305 Y28.40106
G01 X-39.35067 Y28.71048
G01 X-39.64955 Y29.01381
G01 X-39.95494 Y29.29674
G01 X-40.26319 Y29.56075
G01 X-40.59118 Y29.81665
G01 X-40.93065 Y30.05714
G01 X-41.28087 Y30.28168
G01 X-41.62328 Y30.48003
G01 X-41.84713 Y30.60045
G01 X-42.04614 Y30.70162
G01 X-42.43273 Y30.88091
G01 X-42.82008 Y31.03890
G01 X-43.01645 Y30.72336
G01 X-44.15025 Y28.83190
G01 X-44.28429 Y28.59829
G01 X-44.88785 Y27.51036
G01 X-45.39364 Y26.52075
G01 X-46.51936 Y24.21339
G01 X-46.51896 Y23.05174
G01 X-46.59914 Y23.00130
G01 X-46.65614 Y22.95573
G01 X-46.74918 Y22.86251
G01 X-46.76983 Y22.83633
G01 X-46.76966 Y22.81916
G01 X-46.76983 Y22.83633
G01 X-46.77451 Y22.84237
G01 X-46.87001 Y22.94468
G01 X-46.95571 Y23.01182
G01 X-47.05883 Y23.07097
G01 X-47.15093 Y23.10849
G01 X-47.25993 Y23.13661
G01 X-47.39340 Y23.14933
G01 X-47.48715 Y23.14504
G01 X-47.43803 Y23.20963
G01 X-47.32050 Y23.34641
G01 X-47.01949 Y23.65629
G01 X-47.01964 Y23.59122
G01 X-47.06882 Y23.60511
G01 X-47.01964 Y23.59122
G01 X-47.01896 Y23.05047
G01 X-47.13247 Y23.10214
G01 X-47.23943 Y23.13267
G01 X-47.38299 Y23.14877
G01 X-47.45596 Y23.14814
G01 X-47.57433 Y23.13140
G01 X-47.65162 Y23.11100
G01 X-47.71725 Y23.08603
G01 X-47.77031 Y23.06142
G01 X-47.84781 Y23.01624
G01 X-47.87494 Y22.99673
G01 X-47.88510 Y22.97628
G01 X-47.87494 Y22.99673
G01 X-47.87496 Y23.58992
G01 X-47.88207 Y23.69307
G01 X-47.89355 Y23.75926
G01 X-47.92040 Y23.85499
G01 X-47.95464 Y23.93790
G01 X-48.00313 Y24.02421
G01 X-48.09515 Y24.14107
G01 X-49.03475 Y25.08039
G01 X-49.10656 Y25.14087
G01 X-49.15045 Y25.17115
G01 X-49.23762 Y25.22057
G01 X-49.31984 Y25.25448
G01 X-49.37488 Y25.27145
G01 X-49.46241 Y25.29042
G01 X-49.58507 Y25.29997
G01 X-56.16859 Y25.29997
G01 X-56.20001 Y25.33137
G01 X-56.20024 Y25.92055
G01 X-56.21467 Y26.04971
G01 X-56.23090 Y26.11951
G01 X-56.26532 Y26.21625
G01 X-56.28731 Y26.26355
G01 X-56.32879 Y26.33505
G01 X-56.37248 Y26.39558
G01 X-56.44970 Y26.48092
G01 X-56.53862 Y26.55402
G01 X-56.63542 Y26.61234
G01 X-56.74380 Y26.65827
G01 X-56.84906 Y26.68542
G01 X-56.92287 Y26.69637
G01 X-57.02729 Y26.70000
G01 X-57.15226 Y26.68580
G01 X-57.27141 Y26.65278
G01 X-57.37921 Y26.60475
G01 X-57.45546 Y26.55758
G01 X-57.49491 Y26.52890
G01 X-57.55516 Y26.47635
G01 X-57.62211 Y26.40305
G01 X-57.68906 Y26.30554
G01 X-57.72409 Y26.23962
G01 X-57.75810 Y26.15565
G01 X-57.78139 Y26.06980
G01 X-57.79178 Y26.01318
G01 X-57.79894 Y25.93246
G01 X-57.79958 Y24.98004
G01 X-57.78317 Y24.83838
G01 X-57.74936 Y24.72017
G01 X-57.69968 Y24.61214
G01 X-57.63445 Y24.51270
G01 X-57.56557 Y24.43419
G01 X-57.04416 Y23.91357
G01 X-56.92435 Y23.82185
G01 X-56.91729 Y23.81745
G01 X-56.89684 Y23.81987
G01 X-56.91314 Y23.81794
G01 X-57.18106 Y23.55002
G01 X-57.95482 Y23.54989
G01 X-58.06803 Y23.37021
G01 X-57.88833 Y23.54989
G01 X-58.06803 Y23.37021
G01 X-58.28353 Y23.09457
G01 X-58.47707 Y22.89747
G01 X-58.48457 Y22.46676
G01 X-58.49661 Y22.35832
G01 X-58.52127 Y22.21001
G01 X-58.87359 Y21.85754
G01 X-58.88512 Y21.82965
G01 X-58.87502 Y21.85601
G01 X-58.88340 Y21.96175
G01 X-58.89579 Y22.02165
G01 X-58.92297 Y22.10907
G01 X-58.94078 Y22.15685
G01 X-58.96338 Y22.20255
G01 X-59.04222 Y22.32124
G01 X-59.07522 Y22.36010
G01 X-59.11200 Y22.39541
G01 X-59.19043 Y22.46020
G01 X-59.23247 Y22.48906
G01 X-59.28644 Y22.51784
G01 X-59.37928 Y22.55766
G01 X-59.47392 Y22.58388
G01 X-59.56841 Y22.59678
G01 X-59.62597 Y22.59998
G01 X-60.91156 Y22.59744
G01 X-60.98207 Y22.59231
G01 X-61.07148 Y22.57346
G01 X-61.12980 Y22.55505
G01 X-61.21413 Y22.51893
G01 X-61.28443 Y22.47770
G01 X-61.34242 Y22.43612
G01 X-61.41070 Y22.37489
G01 X-61.44865 Y22.33135
G01 X-61.46013 Y22.29884
G01 X-61.44999 Y22.32784
G01 X-61.44999 Y23.12815
G01 X-61.35715 Y23.00171
G01 X-61.44999 Y22.87267
G01 X-61.44999 Y23.67056
G01 X-61.46013 Y23.70028
G01 X-61.44979 Y23.67008
G01 X-61.41070 Y23.62510
G01 X-61.37321 Y23.59055
G01 X-61.28466 Y23.52192
G01 X-61.23191 Y23.49099
G01 X-61.14870 Y23.45263
G01 X-61.10092 Y23.43483
G01 X-61.04374 Y23.42043
G01 X-60.91842 Y23.24915
G01 X-58.83166 Y23.24997
G01 X-58.66158 Y23.42299
G01 X-58.49826 Y23.62792
G01 X-58.36580 Y23.83587
G01 X-58.39546 Y23.93241
G01 X-58.42871 Y23.78809
G01 X-58.47697 Y23.65786
G01 X-58.42871 Y23.78809
G01 X-58.39546 Y23.93241
G01 X-58.46389 Y24.15004
G01 X-58.50710 Y24.31268
G01 X-58.55000 Y24.52654
G01 X-58.57918 Y24.78936
G01 X-58.60113 Y25.19126
G01 X-58.64398 Y25.45890
G01 X-58.72508 Y25.74920
G01 X-59.19960 Y27.02316
G01 X-59.92259 Y28.92567
G01 X-60.19312 Y29.68843
G01 X-60.27905 Y29.44416
G01 X-60.37222 Y29.19966
G01 X-60.02038 Y29.19959
G01 X-60.37222 Y29.19966
G01 X-60.64540 Y28.48300
G01 X-60.86516 Y27.92306
G01 X-61.02721 Y27.45504
G01 X-61.07298 Y27.31270
G01 X-61.20658 Y26.85367
G01 X-61.29833 Y26.43848
G01 X-61.31522 Y26.34485
G01 X-61.36879 Y25.90808
G01 X-61.37308 Y25.83144
G01 X-61.37384 Y25.58651
G01 X-61.36912 Y25.51278
G01 X-61.43142 Y25.45237
G01 X-61.51136 Y25.34684
G01 X-61.57846 Y25.20965
G01 X-61.58433 Y25.19340
G01 X-61.58118 Y25.16899
G01 X-61.58433 Y25.19340
G01 X-61.59335 Y25.20696
G01 X-61.67684 Y25.30805
G01 X-62.90163 Y26.53281
G01 X-62.98806 Y26.60515
G01 X-63.03081 Y26.63505
G01 X-63.12146 Y26.68460
G01 X-63.18921 Y26.71168
G01 X-63.30838 Y26.74541
G01 X-63.43978 Y26.75969
G01 X-64.74523 Y26.75979
G01 X-64.81331 Y26.75512
G01 X-64.89433 Y26.74356
G01 X-64.95402 Y26.72903
G01 X-65.05044 Y26.69476
G01 X-65.11481 Y26.66332
G01 X-65.20226 Y26.60912
G01 X-65.25125 Y26.57018
G01 X-65.32606 Y26.49901
G01 X-65.38971 Y26.41793
G01 X-65.44219 Y26.33198
G01 X-65.48394 Y26.23942
G01 X-65.50569 Y26.17323
G01 X-65.52728 Y26.06383
G01 X-65.53317 Y26.01377
G01 X-65.52882 Y25.86119
G01 X-65.52029 Y25.81069
G01 X-65.49212 Y25.70173
G01 X-65.43383 Y25.57130
G01 X-65.40246 Y25.51956
G01 X-65.34031 Y25.43894
G01 X-65.30718 Y25.40089
G01 X-65.27043 Y25.36642
G01 X-65.18084 Y25.29576
G01 X-65.08298 Y25.23962
G01 X-64.97234 Y25.19599
G01 X-64.85646 Y25.16932
G01 X-64.74531 Y25.16012
G01 X-63.79139 Y25.16000
G01 X-63.04999 Y24.41859
G01 X-63.04999 Y18.96194
G01 X-63.20218 Y19.13004
G01 X-63.04999 Y19.39981
G01 X-63.04996 Y18.53575
G01 X-63.03983 Y18.51772
G01 X-63.05123 Y18.53801
G01 X-63.16436 Y18.58698
G01 X-63.23340 Y18.60497
G01 X-63.35395 Y18.62358
G01 X-64.21506 Y18.62483
G01 X-64.33668 Y18.61116
G01 X-64.39657 Y18.59877
G01 X-64.45451 Y18.57916
G01 X-64.55692 Y18.53397
G01 X-64.61808 Y18.49727
G01 X-64.69822 Y18.43443
G01 X-64.74277 Y18.39252
G01 X-64.81895 Y18.29699
G01 X-64.85004 Y18.24899
G01 X-64.88125 Y18.56628
G01 X-64.88603 Y18.63839
G01 X-64.88681 Y18.74769
G01 X-64.53167 Y18.79953
G01 X-64.37892 Y18.81698
G01 X-64.20018 Y18.82518
G01 X-63.84823 Y18.82536
G01 X-63.61725 Y18.83827
G01 X-63.56497 Y18.78597
G01 X-63.41969 Y18.62452
G01 X-64.21506 Y18.62483
G01 X-64.26609 Y18.62120
G01 X-64.37678 Y18.60372
G01 X-64.43546 Y18.58648
G01 X-64.52921 Y18.54698
G01 X-64.60968 Y18.50304
G01 X-64.72850 Y18.40710
G01 X-64.76304 Y18.36961
G01 X-64.81282 Y18.30517
G01 X-64.86159 Y18.22755
G01 X-64.91008 Y18.11536
G01 X-64.92949 Y18.04673
G01 X-64.94810 Y17.92595
G01 X-64.94937 Y16.59440
G01 X-64.93322 Y16.47332
G01 X-64.91961 Y16.41368
G01 X-64.89883 Y16.35618
G01 X-64.84160 Y16.23690
G01 X-64.80122 Y16.17807
G01 X-64.72842 Y16.09296
G01 X-64.68300 Y16.05196
G01 X-64.59235 Y15.98618
G01 X-64.52974 Y15.95199
G01 X-64.42583 Y15.91013
G01 X-64.36680 Y15.89410
G01 X-64.28646 Y15.88054
G01 X-64.22570 Y15.87556
G01 X-63.83193 Y15.87525
G01 X-63.93525 Y15.78709
G01 X-64.03927 Y15.68917
G01 X-64.30693 Y15.42179
G01 X-64.44165 Y15.59900
G01 X-64.47450 Y15.64787
G01 X-64.59586 Y15.85382
G01 X-64.68661 Y16.05488
G01 X-64.59235 Y15.98618
G01 X-64.52042 Y15.94785
G01 X-64.39657 Y15.90121
G01 X-64.27638 Y15.87922
G01 X-64.21554 Y15.87546
G01 X-63.40470 Y15.87505
G01 X-63.38776 Y15.88526
G01 X-63.40500 Y15.87485
G01 X-63.43851 Y15.80434
G01 X-63.45814 Y15.75018
G01 X-63.48529 Y15.64932
G01 X-63.49970 Y15.51724
G01 X-63.49995 Y6.53539
G01 X-63.99992 Y7.74167
G01 X-63.99980 Y15.02186
G01 X-63.69362 Y15.32788
G01 X-63.60074 Y15.41549
G01 X-63.49980 Y15.50091
G01 X-63.60074 Y15.41549
G01 X-63.69362 Y15.32788
G01 X-64.07483 Y14.94828
G01 X-64.07501 Y12.49832
G01 X-64.08290 Y12.27552
G01 X-64.11346 Y11.99749
G01 X-64.16492 Y11.72507
G01 X-64.24333 Y11.43307
G01 X-64.34991 Y11.13622
G01 X-64.34993 Y8.58672
G01 X-63.49995 Y6.53539
G01 X-63.49893 Y6.41797
G01 X-63.48425 Y6.29310
G01 X-63.45009 Y6.17207
G01 X-63.39776 Y6.05874
G01 X-63.32832 Y5.95587
G01 X-63.28720 Y5.90702
G01 X-62.38098 Y4.99999
G01 X-62.35647 Y4.98983
G01 X-62.38098 Y4.99999
G01 X-62.61859 Y4.99999
G01 X-65.69997 Y8.08137
G01 X-65.69997 Y11.63777
G01 X-65.35504 Y11.98448
G01 X-65.32077 Y12.02439
G01 X-65.27919 Y12.08268
G01 X-65.24536 Y12.14069
G01 X-65.20000 Y12.23950
G01 X-65.17124 Y12.33373
G01 X-65.15471 Y12.43147
G01 X-65.15019 Y12.49845
G01 X-65.14970 Y15.86611
G01 X-65.07554 Y15.69522
G01 X-65.03825 Y15.62070
G01 X-64.90150 Y15.38765
G01 X-64.84412 Y15.30223
G01 X-64.64983 Y15.04724
G01 X-64.65024 Y12.48814
G01 X-64.66048 Y12.35558
G01 X-64.67691 Y12.25456
G01 X-64.69604 Y12.17488
G01 X-64.74523 Y12.02941
G01 X-64.82151 Y11.87303
G01 X-64.85885 Y11.81184
G01 X-64.91138 Y11.73693
G01 X-65.00109 Y11.63127
G01 X-65.20000 Y11.43135
G01 X-65.23716 Y11.44656
G01 X-65.20000 Y11.43135
G01 X-65.20000 Y8.28845
G01 X-65.23805 Y8.27270
G01 X-65.20000 Y8.28845
G01 X-64.46185 Y7.55030
G01 X-63.96149 Y6.34286
G01 X-64.83091 Y8.44133
G01 X-64.84513 Y8.48822
G01 X-64.85456 Y8.48634
G01 X-64.84513 Y8.48822
G01 X-64.84993 Y8.53699
G01 X-64.84991 Y11.18362
G01 X-64.85550 Y11.18446
G01 X-64.84991 Y11.18362
G01 X-64.84513 Y11.23224
G01 X-64.83099 Y11.27902
G01 X-64.72174 Y11.57986
G01 X-64.66294 Y11.79292
G01 X-64.61351 Y12.03797
G01 X-64.58247 Y12.30912
G01 X-64.57500 Y12.50315
G01 X-64.57480 Y14.96030
G01 X-64.65821 Y15.05770
G01 X-64.84412 Y15.30223
G01 X-64.90208 Y15.38724
G01 X-65.03886 Y15.62039
G01 X-65.07554 Y15.69522
G01 X-65.14970 Y15.86611
G01 X-65.15115 Y17.71089
G01 X-65.16840 Y17.84276
G01 X-65.21173 Y17.97926
G01 X-65.27917 Y18.10601
G01 X-65.34729 Y18.19516
G01 X-65.36720 Y18.38145
G01 X-65.38582 Y18.61264
G01 X-65.38747 Y18.83921
G01 X-65.56251 Y18.97664
G01 X-65.75793 Y19.16463
G01 X-65.80320 Y19.21134
G01 X-66.00213 Y19.45470
G01 X-66.04516 Y19.51251
G01 X-66.25179 Y19.84759
G01 X-66.29270 Y19.92343
G01 X-66.40159 Y20.15876
G01 X-66.80817 Y21.13948
G01 X-66.95069 Y21.53491
G01 X-67.08993 Y22.07329
G01 X-67.10576 Y22.14634
G01 X-67.19430 Y22.77430
G01 X-67.37063 Y22.84385
G01 X-68.35668 Y23.25223
G01 X-68.67114 Y23.36891
G01 X-68.96816 Y23.45657
G01 X-69.37726 Y23.54064
G01 X-69.74276 Y23.58159
G01 X-69.98376 Y23.58984
G01 X-70.25716 Y23.58159
G01 X-70.53138 Y23.55449
G01 X-70.77542 Y23.51352
G01 X-70.98106 Y23.36170
G01 X-71.16973 Y23.20282
G01 X-71.36717 Y23.01349
G01 X-71.48584 Y22.88515
G01 X-71.53123 Y22.73480
G01 X-71.60674 Y22.41984
G01 X-71.64667 Y22.16925
G01 X-71.67344 Y21.78421
G01 X-71.66059 Y21.40976
G01 X-71.65525 Y21.35314
G01 X-71.59534 Y20.96783
G01 X-71.58291 Y20.91045
G01 X-71.47771 Y20.53006
G01 X-71.35020 Y20.18906
G01 X-68.19102 Y17.02953
G01 X-68.06093 Y16.89318
G01 X-68.02819 Y16.85051
G01 X-68.02003 Y16.85544
G01 X-68.02819 Y16.85051
G01 X-68.00532 Y16.80185
G01 X-67.94492 Y16.62481
G01 X-67.84726 Y16.27622
G01 X-67.78503 Y15.97043
G01 X-67.74782 Y15.68986
G01 X-67.73847 Y15.58841
G01 X-67.67076 Y15.36885
G01 X-67.63885 Y15.25224
G01 X-67.64056 Y15.25994
G01 X-67.66862 Y15.36154
G01 X-67.63885 Y15.25224
G01 X-67.56669 Y14.93840
G01 X-67.53177 Y14.73683
G01 X-67.49908 Y14.48567
G01 X-67.48262 Y14.27020
G01 X-67.47469 Y14.05092
G01 X-67.47777 Y13.83736
G01 X-67.48983 Y13.62255
G01 X-67.52107 Y13.33508
G01 X-67.53482 Y13.24094
G01 X-67.54752 Y13.19093
G01 X-67.53865 Y13.18786
G01 X-67.54752 Y13.19093
G01 X-67.57022 Y13.14458
G01 X-67.80248 Y12.75961
G01 X-67.97126 Y12.46162
G01 X-68.12963 Y11.76155
G01 X-68.22519 Y11.45062
G01 X-68.24990 Y11.38116
G01 X-68.25877 Y11.13180
G01 X-68.29631 Y10.78581
G01 X-68.30789 Y10.71281
G01 X-68.39191 Y10.31453
G01 X-68.49110 Y9.98266
G01 X-68.51579 Y9.91131
G01 X-68.65529 Y9.55911
G01 X-68.79938 Y9.26376
G01 X-68.79994 Y7.74073
G01 X-68.79641 Y7.63092
G01 X-68.77464 Y7.42036
G01 X-68.75127 Y7.28017
G01 X-68.71525 Y7.13227
G01 X-68.65927 Y6.95828
G01 X-68.61447 Y6.84545
G01 X-68.56324 Y6.73486
G01 X-68.51703 Y6.64484
G01 X-68.46103 Y6.54870
G01 X-68.39453 Y6.44657
G01 X-68.32956 Y6.35622
G01 X-68.25966 Y6.26963
G01 X-68.17017 Y6.16892
G01 X-64.57630 Y2.57366
G01 X-64.49606 Y2.49773
G01 X-64.34102 Y2.36863
G01 X-64.19286 Y2.26515
G01 X-64.00803 Y2.15806
G01 X-63.83155 Y2.07615
G01 X-63.62946 Y2.00269
G01 X-63.53081 Y1.97505
G01 X-63.41110 Y1.94747
G01 X-63.22929 Y1.91706
G01 X-63.02339 Y1.90137
G01 X-49.26907 Y1.90160
G01 X-49.12713 Y1.90665
G01 X-48.94583 Y1.92791
G01 X-48.72797 Y1.97236
G01 X-48.56444 Y2.02128
G01 X-48.36696 Y2.09789
G01 X-48.20496 Y2.17795
G01 X-48.02152 Y2.28818
G01 X-47.88075 Y2.39065
G01 X-47.72520 Y2.52367
G01 X-46.06666 Y4.18066
G01 X-45.99107 Y4.26136
G01 X-45.89968 Y4.36949
G01 X-45.82097 Y4.47363
G01 X-45.75447 Y4.57413
G01 X-45.67253 Y4.71482
G01 X-45.61279 Y4.83382
G01 X-45.54977 Y4.98505
G01 X-45.50880 Y5.10095
G01 X-45.47504 Y5.21914
G01 X-45.44123 Y5.36895
G01 X-45.41258 Y5.56141
G01 X-45.40275 Y5.69496
G01 X-45.40001 Y5.79999
G01 X-45.40001 Y17.00614
G01 X-45.43803 Y17.02186
G01 X-45.40001 Y17.00614
G01 X-44.49463 Y17.91162
G01 X-44.36250 Y18.06057
G01 X-44.27502 Y18.17284
G01 X-44.21071 Y18.26435
G01 X-44.13641 Y18.38582
G01 X-44.07535 Y18.50306
G01 X-43.99999 Y18.67085
G01 X-43.94380 Y18.82478
G01 X-43.90512 Y18.96285
G01 X-43.86864 Y19.13303
G01 X-43.84863 Y19.27502
G01 X-43.83677 Y19.43981
G01 X-43.83529 Y22.38083
G01 X-43.84566 Y22.56480
G01 X-43.87812 Y22.78718
G01 X-43.91894 Y22.96561
G01 X-43.97588 Y23.13955
G01 X-44.06669 Y23.35456
G01 X-44.15704 Y23.52355
G01 X-44.21099 Y23.60879
G01 X-44.28665 Y23.71692
G01 X-44.39282 Y23.85157
G01 X-44.51734 Y23.98365
G01 X-44.68353 Y24.13307
G01 X-44.82112 Y24.23775
G01 X-44.96725 Y24.33010
G01 X-45.15615 Y24.43048
G01 X-45.32445 Y24.50236
G01 X-45.47903 Y24.55309
G01 X-45.69625 Y24.60719
G01 X-45.85658 Y24.63300
G01 X-46.04901 Y24.64811
G01 X-46.18050 Y24.64943
G01 X-46.31058 Y24.64260
G01 X-46.51936 Y24.21339
G01 X-46.51964 Y23.59061
G01 X-46.51972 Y24.10719
G01 X-46.41807 Y24.12749
G01 X-46.32830 Y24.13940
G01 X-46.13499 Y24.14996
G01 X-45.94164 Y24.13940
G01 X-45.78269 Y24.11448
G01 X-45.59562 Y24.06630
G01 X-45.45089 Y24.01486
G01 X-45.31220 Y23.94890
G01 X-45.14360 Y23.85212
G01 X-45.00349 Y23.74887
G01 X-44.85262 Y23.61217
G01 X-44.74434 Y23.49256
G01 X-44.61965 Y23.32032
G01 X-44.53390 Y23.17189
G01 X-44.44883 Y22.97643
G01 X-44.39503 Y22.81090
G01 X-44.37250 Y22.71098
G01 X-44.35135 Y22.57991
G01 X-44.33600 Y22.41039
G01 X-44.33555 Y19.48289
G01 X-44.34365 Y19.35061
G01 X-44.35739 Y19.24126
G01 X-44.38815 Y19.09285
G01 X-44.41477 Y18.99394
G01 X-44.47527 Y18.83075
G01 X-44.53072 Y18.70987
G01 X-44.57370 Y18.62831
G01 X-44.66214 Y18.49041
G01 X-44.78762 Y18.33126
G01 X-44.86219 Y18.25102
G01 X-45.89998 Y17.21322
G01 X-45.93750 Y17.22864
G01 X-45.89998 Y17.21322
G01 X-45.89998 Y5.79999
G01 X-45.90778 Y5.63677
G01 X-45.92404 Y5.50756
G01 X-45.95538 Y5.35950
G01 X-45.98200 Y5.26288
G01 X-46.01497 Y5.16829
G01 X-46.07349 Y5.02892
G01 X-46.12432 Y4.93113
G01 X-46.20344 Y4.80002
G01 X-46.26905 Y4.70842
G01 X-46.34700 Y4.61399
G01 X-46.42726 Y4.52712
G01 X-48.04921 Y2.90563
G01 X-48.18814 Y2.78503
G01 X-48.30989 Y2.69697
G01 X-48.43150 Y2.62410
G01 X-48.53153 Y2.57228
G01 X-48.63516 Y2.52809
G01 X-48.77013 Y2.47988
G01 X-48.87882 Y2.45021
G01 X-49.01890 Y2.42263
G01 X-49.12855 Y2.40820
G01 X-49.23894 Y2.40187
G01 X-62.94981 Y2.40000
G01 X-63.04209 Y2.40284
G01 X-63.17300 Y2.41389
G01 X-63.27198 Y2.42938
G01 X-63.39045 Y2.45539
G01 X-63.48707 Y2.48201
G01 X-63.58166 Y2.51498
G01 X-63.69373 Y2.56090
G01 X-63.80132 Y2.61455
G01 X-63.91544 Y2.68133
G01 X-64.00051 Y2.73837
G01 X-64.08146 Y2.80109
G01 X-64.19454 Y2.89971
G01 X-67.78714 Y6.49176
G01 X-67.86959 Y6.58292
G01 X-67.92801 Y6.65424
G01 X-67.98193 Y6.72899
G01 X-68.05361 Y6.84116
G01 X-68.10258 Y6.93113
G01 X-68.15892 Y7.05175
G01 X-68.19245 Y7.13763
G01 X-68.22999 Y7.25404
G01 X-68.25300 Y7.34162
G01 X-68.27070 Y7.43041
G01 X-68.29730 Y7.66069
G01 X-68.29997 Y7.75053
G01 X-68.29885 Y10.76940
G01 X-68.39133 Y10.31438
G01 X-68.51543 Y9.91118
G01 X-68.65496 Y9.55896
G01 X-68.87014 Y9.12170
G01 X-68.90837 Y9.05165
G01 X-69.16743 Y8.62741
G01 X-69.20819 Y8.56745
G01 X-69.56209 Y8.08558
G01 X-69.79991 Y7.80512
G01 X-69.79821 Y7.64835
G01 X-69.78904 Y7.49450
G01 X-69.76748 Y7.30093
G01 X-69.74777 Y7.16923
G01 X-69.72003 Y7.02854
G01 X-69.68561 Y6.88932
G01 X-69.63532 Y6.72264
G01 X-69.59181 Y6.59679
G01 X-69.53471 Y6.45414
G01 X-69.46179 Y6.29605
G01 X-69.39625 Y6.16849
G01 X-69.32470 Y6.04423
G01 X-69.23054 Y5.89778
G01 X-69.14784 Y5.78061
G01 X-69.05963 Y5.66755
G01 X-68.95970 Y5.55089
G01 X-68.83339 Y5.41658
G01 X-65.28338 Y1.86657
G01 X-65.14907 Y1.74026
G01 X-64.99228 Y1.60848
G01 X-64.84460 Y1.49814
G01 X-64.69916 Y1.40238
G01 X-64.51328 Y1.29428
G01 X-64.35799 Y1.21549
G01 X-64.18890 Y1.14203
G01 X-64.00665 Y1.07384
G01 X-63.82047 Y1.01719
G01 X-63.59116 Y0.96350
G01 X-63.40947 Y0.93218
G01 X-63.20577 Y0.91054
G01 X-62.97016 Y0.90010
G01 X-49.26894 Y0.90160
G01 X-49.13589 Y0.90457
G01 X-48.98271 Y0.91531
G01 X-48.85055 Y0.93096
G01 X-48.72929 Y0.95059
G01 X-48.55860 Y0.98476
G01 X-48.42939 Y1.01694
G01 X-48.30173 Y1.05484
G01 X-48.03257 Y1.15357
G01 X-47.90122 Y1.21115
G01 X-47.78187 Y1.27018
G01 X-47.66523 Y1.33444
G01 X-47.52470 Y1.41867
G01 X-47.41372 Y1.49228
G01 X-47.31428 Y1.56451
G01 X-47.20196 Y1.65359
G01 X-47.09300 Y1.74671
G01 X-46.97407 Y1.85928
G01 X-45.35226 Y3.48094
G01 X-45.23351 Y3.60853
G01 X-45.10852 Y3.75768
G01 X-45.00994 Y3.88861
G01 X-44.91319 Y4.03339
G01 X-44.80911 Y4.20977
G01 X-44.73321 Y4.35501
G01 X-44.66537 Y4.50421
G01 X-44.59422 Y4.68531
G01 X-44.54251 Y4.84083
G01 X-44.49696 Y5.00891
G01 X-44.45556 Y5.19900
G01 X-44.42673 Y5.38109
G01 X-44.40634 Y5.60548
G01 X-44.40009 Y5.77949
G01 X-44.40001 Y16.59191
G01 X-44.43745 Y16.60728
G01 X-44.40001 Y16.59191
G01 X-43.79432 Y17.19765
G01 X-43.70951 Y17.28661
G01 X-43.59575 Y17.41843
G01 X-43.46374 Y17.58808
G01 X-43.36453 Y17.73118
G01 X-43.27891 Y17.87091
G01 X-43.18732 Y18.04261
G01 X-43.09339 Y18.24726
G01 X-43.02923 Y18.40913
G01 X-42.97164 Y18.58429
G01 X-42.92496 Y18.76265
G01 X-42.87972 Y18.98333
G01 X-42.85463 Y19.16598
G01 X-42.83895 Y19.37024
G01 X-42.83502 Y19.52399
G01 X-42.83519 Y22.36041
G01 X-42.84292 Y22.57527
G01 X-42.85912 Y22.73828
G01 X-42.88635 Y22.92045
G01 X-42.91099 Y23.05131
G01 X-42.94662 Y23.20077
G01 X-42.98671 Y23.33843
G01 X-43.03334 Y23.47404
G01 X-43.10979 Y23.66394
G01 X-43.16430 Y23.78545
G01 X-43.25854 Y23.96731
G01 X-43.36496 Y24.14234
G01 X-43.50616 Y24.34346
G01 X-43.62767 Y24.49546
G01 X-43.75879 Y24.63924
G01 X-43.89897 Y24.77425
G01 X-44.07670 Y24.92860
G01 X-44.24873 Y25.05768
G01 X-44.42958 Y25.17412
G01 X-44.63565 Y25.28794
G01 X-44.81096 Y25.37242
G01 X-44.99140 Y25.44536
G01 X-45.18599 Y25.50932
G01 X-45.42371 Y25.57127
G01 X-45.61472 Y25.60858
G01 X-45.82648 Y25.63513
G01 X-46.06272 Y25.14887
G01 X-45.84215 Y25.13442
G01 X-45.65018 Y25.10742
G01 X-45.47072 Y25.06817
G01 X-45.23631 Y25.00137
G01 X-45.06554 Y24.93762
G01 X-44.89087 Y24.85700
G01 X-44.68597 Y24.74486
G01 X-44.51617 Y24.63455
G01 X-44.35582 Y24.51082
G01 X-44.18218 Y24.35502
G01 X-44.04878 Y24.21743
G01 X-43.93245 Y24.07803
G01 X-43.79679 Y23.88883
G01 X-43.69626 Y23.72566
G01 X-43.60855 Y23.55525
G01 X-43.51754 Y23.34062
G01 X-43.44866 Y23.13948
G01 X-43.39712 Y22.93318
G01 X-43.35480 Y22.67283
G01 X-43.33766 Y22.47151
G01 X-43.33502 Y19.52396
G01 X-43.34434 Y19.30227
G01 X-43.35988 Y19.15145
G01 X-43.38650 Y18.99194
G01 X-43.42976 Y18.80306
G01 X-43.47621 Y18.64591
G01 X-43.53288 Y18.49214
G01 X-43.61574 Y18.30535
G01 X-43.68932 Y18.16100
G01 X-43.77210 Y18.02171
G01 X-43.85775 Y17.89626
G01 X-43.95694 Y17.76733
G01 X-44.04246 Y17.66425
G01 X-44.12620 Y17.57332
G01 X-44.90001 Y16.79903
G01 X-44.93796 Y16.81472
G01 X-44.90001 Y16.79903
G01 X-44.90004 Y5.78993
G01 X-44.90517 Y5.63938
G01 X-44.92229 Y5.44766
G01 X-44.94761 Y5.28795
G01 X-44.98462 Y5.11950
G01 X-45.02483 Y4.97332
G01 X-45.07029 Y4.83931
G01 X-45.13428 Y4.67926
G01 X-45.19407 Y4.55102
G01 X-45.26102 Y4.42636
G01 X-45.35559 Y4.26949
G01 X-45.44220 Y4.14409
G01 X-45.52983 Y4.03200
G01 X-45.62246 Y3.92349
G01 X-45.70590 Y3.83441
G01 X-47.32759 Y2.21285
G01 X-47.43945 Y2.10769
G01 X-47.56501 Y2.00294
G01 X-47.66153 Y1.92949
G01 X-47.75304 Y1.86632
G01 X-47.95296 Y1.74597
G01 X-48.15281 Y1.64584
G01 X-48.35126 Y1.56657
G01 X-48.54456 Y1.50386
G01 X-48.74227 Y1.45702
G01 X-48.97387 Y1.41912
G01 X-49.19759 Y1.40261
G01 X-62.96980 Y1.40010
G01 X-63.18159 Y1.41011
G01 X-63.36236 Y1.43058
G01 X-63.53132 Y1.46195
G01 X-63.74760 Y1.51610
G01 X-63.89167 Y1.56334
G01 X-64.05209 Y1.62634
G01 X-64.18082 Y1.68509
G01 X-64.31483 Y1.75603
G01 X-64.46335 Y1.84462
G01 X-64.58946 Y1.93022
G01 X-64.70226 Y2.01694
G01 X-64.84155 Y2.13601
G01 X-64.92984 Y2.22011
G01 X-68.48693 Y5.77723
G01 X-68.57642 Y5.87228
G01 X-68.68775 Y6.00273
G01 X-68.77268 Y6.11475
G01 X-68.86285 Y6.24868
G01 X-68.94060 Y6.37766
G01 X-69.00159 Y6.49313
G01 X-69.07004 Y6.63931
G01 X-69.12267 Y6.76971
G01 X-69.17733 Y6.93242
G01 X-69.21609 Y7.06994
G01 X-69.24302 Y7.18942
G01 X-69.26405 Y7.31007
G01 X-69.28449 Y7.47245
G01 X-69.29519 Y7.59597
G01 X-69.29986 Y7.73024
G01 X-69.29968 Y8.44278
G01 X-69.56186 Y8.08540
G01 X-69.99188 Y7.58200
G01 X-74.72098 Y2.41714
G01 X-74.52340 Y2.12354
G01 X-74.32076 Y1.84475
G01 X-74.08890 Y1.54993
G01 X-73.85891 Y1.27927
G01 X-73.68253 Y1.08344
G01 X-73.50079 Y0.89253
G01 X-72.60900 Y0.00000
G01 X-69.07355 Y0.00000
G01 X-71.67613 Y2.60261
G01 X-71.93417 Y2.87650
G01 X-72.08777 Y3.05331
G01 X-72.21672 Y3.21059
G01 X-72.35320 Y3.38793
G01 X-72.48395 Y3.56951
G01 X-72.62576 Y3.78089
G01 X-72.73966 Y3.96159
G01 X-72.85299 Y4.15453
G01 X-72.95601 Y4.34327
G01 X-73.31354 Y3.95356
G01 X-73.19439 Y3.74739
G01 X-73.07138 Y3.54919
G01 X-72.93699 Y3.34579
G01 X-72.79668 Y3.14688
G01 X-72.64375 Y2.94465
G01 X-72.48406 Y2.74770
G01 X-72.31065 Y2.54744
G01 X-72.12993 Y2.35181
G01 X-69.78063 Y0.00000
G01 X-66.18201 Y0.00000
G01 X-66.44500 Y0.21669
G01 X-66.67594 Y0.43089
G01 X-70.24759 Y4.00238
G01 X-70.44741 Y4.21422
G01 X-70.61911 Y4.41531
G01 X-70.76869 Y4.60886
G01 X-70.90301 Y4.80098
G01 X-71.05061 Y5.03344
G01 X-71.18073 Y5.26430
G01 X-71.29871 Y5.50177
G01 X-71.40179 Y5.73479
G01 X-71.48479 Y5.95023
G01 X-72.59566 Y4.73758
G01 X-72.51728 Y4.58318
G01 X-72.41461 Y4.39509
G01 X-72.30580 Y4.21048
G01 X-72.19655 Y4.03809
G01 X-72.06536 Y3.84332
G01 X-71.93966 Y3.66977
G01 X-71.81469 Y3.50843
G01 X-71.68472 Y3.35107
G01 X-71.53074 Y3.17561
G01 X-71.31535 Y2.94889
G01 X-68.36644 Y0.00000
G01 X-67.65935 Y0.00000
G01 X-71.00507 Y3.34630
G01 X-71.14568 Y3.49532
G01 X-71.28769 Y3.65615
G01 X-71.40435 Y3.79600
G01 X-71.52282 Y3.94739
G01 X-71.71682 Y4.21907
G01 X-71.91271 Y4.52666
G01 X-72.07583 Y4.81795
G01 X-72.23178 Y5.13667
G01 X-71.86216 Y5.53974
G01 X-71.77174 Y5.33296
G01 X-71.65175 Y5.08617
G01 X-71.54052 Y4.88089
G01 X-71.42069 Y4.68051
G01 X-71.27575 Y4.45953
G01 X-71.13968 Y4.26979
G01 X-70.98929 Y4.07815
G01 X-70.82391 Y3.88521
G01 X-70.60113 Y3.64884
G01 X-66.94968 Y0.00000
G01 X-43.88366 Y0.00000
G01 X-42.86362 Y1.02004
G01 X-42.64233 Y1.25547
G01 X-42.45097 Y1.47856
G01 X-42.28005 Y1.69385
G01 X-42.11838 Y1.91615
G01 X-41.97172 Y2.13650
G01 X-41.79811 Y2.42446
G01 X-41.65168 Y2.69283
G01 X-41.51800 Y2.96781
G01 X-41.39743 Y3.24871
G01 X-41.28191 Y3.55389
G01 X-41.18442 Y3.85440
G01 X-41.10655 Y4.13949
G01 X-41.03045 Y4.47774
G01 X-40.97724 Y4.77881
G01 X-40.93825 Y5.08203
G01 X-40.91081 Y5.42689
G01 X-40.90038 Y5.73943
G01 X-40.90010 Y15.18610
G01 X-40.92661 Y15.19509
G01 X-40.90010 Y15.18610
G01 X-40.88173 Y15.20855
G01 X-40.67465 Y15.47350
G01 X-40.49789 Y15.72158
G01 X-40.38117 Y15.90004
G01 X-40.26525 Y16.09103
G01 X-40.15595 Y16.28585
G01 X-40.05793 Y16.47523
G01 X-39.97041 Y16.65849
G01 X-39.86687 Y16.89097
G01 X-39.79029 Y17.07932
G01 X-39.72303 Y17.26037
G01 X-39.65499 Y17.46270
G01 X-39.59088 Y17.67695
G01 X-39.53901 Y17.87355
G01 X-39.49070 Y18.08190
G01 X-39.43182 Y18.38190
G01 X-39.38969 Y18.66412
G01 X-39.35913 Y18.95808
G01 X-39.33960 Y19.28190
G01 X-39.33510 Y19.51411
G01 X-39.33548 Y22.41156
G01 X-39.34297 Y22.67631
G01 X-39.36215 Y22.95070
G01 X-39.39294 Y23.22403
G01 X-39.43744 Y23.51601
G01 X-39.48679 Y23.77537
G01 X-39.54414 Y24.02266
G01 X-39.61397 Y24.27727
G01 X-39.69083 Y24.51920
G01 X-39.78803 Y24.78639
G01 X-39.89995 Y25.05931
G01 X-40.00899 Y25.29990
G01 X-40.12296 Y25.52685
G01 X-40.24572 Y25.74920
G01 X-40.38796 Y25.98374
G01 X-40.52258 Y26.18704
G01 X-40.70012 Y26.43525
G01 X-40.86880 Y26.65156
G01 X-41.03301 Y26.84531
G01 X-41.20464 Y27.03253
G01 X-41.39077 Y27.21996
G01 X-41.61475 Y27.42725
G01 X-41.81457 Y27.59982
G01 X-42.02123 Y27.76411
G01 X-42.22608 Y27.91404
G01 X-42.44515 Y28.06136
G01 X-42.67004 Y28.19966
G01 X-42.94541 Y28.35313
G01 X-43.17126 Y28.46901
G01 X-43.40146 Y28.57599
G01 X-43.64512 Y28.67762
G01 X-43.88312 Y28.76593
G01 X-44.13966 Y28.84950
G01 X-44.39280 Y28.40266
G01 X-44.08635 Y28.30713
G01 X-43.78132 Y28.19367
G01 X-43.48289 Y28.06383
G01 X-43.19194 Y27.91800
G01 X-42.88996 Y27.74884
G01 X-42.59816 Y27.56332
G01 X-42.31754 Y27.36129
G01 X-42.04904 Y27.14343
G01 X-41.77718 Y26.89776
G01 X-41.55448 Y26.67485
G01 X-41.33060 Y26.42504
G01 X-41.12717 Y26.17125
G01 X-40.90812 Y25.86507
G01 X-40.73289 Y25.59103
G01 X-40.56802 Y25.29893
G01 X-40.41549 Y24.98880
G01 X-40.29517 Y24.70815
G01 X-40.21412 Y24.49960
G01 X-40.13154 Y24.25913
G01 X-40.05920 Y24.01537
G01 X-39.99954 Y23.77867
G01 X-39.94584 Y23.51974
G01 X-39.89842 Y23.22850
G01 X-39.86708 Y22.97727
G01 X-39.84516 Y22.70473
G01 X-39.83548 Y22.41123
G01 X-39.83596 Y19.42165
G01 X-39.84579 Y19.16552
G01 X-39.87015 Y18.86153
G01 X-39.90467 Y18.59021
G01 X-39.95153 Y18.32072
G01 X-40.01714 Y18.02318
G01 X-40.08768 Y17.75813
G01 X-40.17353 Y17.48696
G01 X-40.26840 Y17.22961
G01 X-40.37079 Y16.98612
G01 X-40.51808 Y16.67294
G01 X-40.65199 Y16.42163
G01 X-40.79768 Y16.17693
G01 X-40.89174 Y16.03185
G01 X-40.99585 Y15.88125
G01 X-41.21094 Y15.59730
G01 X-41.40010 Y15.36918
G01 X-41.42852 Y15.37919
G01 X-41.40010 Y15.36918
G01 X-41.40065 Y5.71802
G01 X-41.40647 Y5.52348
G01 X-41.41757 Y5.33956
G01 X-41.45150 Y4.99681
G01 X-41.50505 Y4.65658
G01 X-41.58447 Y4.28976
G01 X-41.66095 Y4.00609
G01 X-41.74787 Y3.73609
G01 X-41.86248 Y3.43240
G01 X-41.97030 Y3.18097
G01 X-42.09410 Y2.92580
G01 X-42.22476 Y2.68549
G01 X-42.38135 Y2.42418
G01 X-42.54439 Y2.17940
G01 X-42.66987 Y2.00729
G01 X-42.80134 Y1.83972
G01 X-42.96570 Y1.64462
G01 X-43.11711 Y1.47744
G01 X-43.24561 Y1.34496
G01 X-44.59079 Y0.00000
G01 X-39.80091 Y0.00000
G01 X-39.63005 Y0.24011
G01 X-39.45616 Y0.50185
G01 X-39.31183 Y0.73442
G01 X-39.14844 Y1.01519
G01 X-39.01305 Y1.26464
G01 X-38.88072 Y1.52715
G01 X-38.76076 Y1.78438
G01 X-38.64463 Y2.05445
G01 X-38.53266 Y2.33764
G01 X-38.43259 Y2.61404
G01 X-38.34112 Y2.89342
G01 X-38.25834 Y3.17546
G01 X-38.18433 Y3.46001
G01 X-38.10998 Y3.78666
G01 X-38.05161 Y4.08511
G01 X-38.00429 Y4.37525
G01 X-37.96139 Y4.70700
G01 X-37.93099 Y5.02996
G01 X-37.90970 Y5.37434
G01 X-37.90051 Y5.71889
G01 X-37.90018 Y14.21138
G01 X-37.91821 Y14.21635
G01 X-37.90018 Y14.21138
G01 X-37.75918 Y14.43632
G01 X-37.59982 Y14.70881
G01 X-37.45431 Y14.97739
G01 X-37.33523 Y15.21384
G01 X-37.23122 Y15.43497
G01 X-37.10719 Y15.71462
G01 X-37.00318 Y15.96934
G01 X-36.91694 Y16.19819
G01 X-36.83663 Y16.42920
G01 X-36.75934 Y16.67195
G01 X-36.69127 Y16.90685
G01 X-36.62683 Y17.15331
G01 X-36.56437 Y17.42133
G01 X-36.51461 Y17.65948
G01 X-36.47097 Y17.89882
G01 X-36.41705 Y18.25973
G01 X-36.37793 Y18.61236
G01 X-36.34923 Y19.00718
G01 X-36.33638 Y19.37220
G01 X-36.33589 Y22.46213
G01 X-36.34943 Y22.87735
G01 X-36.38012 Y23.28149
G01 X-36.42383 Y23.65385
G01 X-36.48629 Y24.05578
G01 X-36.55593 Y24.41567
G01 X-36.63442 Y24.75286
G01 X-36.72799 Y25.09672
G01 X-36.83439 Y25.43686
G01 X-36.95708 Y25.78227
G01 X-37.09680 Y26.13243
G01 X-37.23940 Y26.45918
G01 X-37.38954 Y26.77124
G01 X-37.55588 Y27.08656
G01 X-37.73919 Y27.40414
G01 X-37.94023 Y27.72291
G01 X-38.15956 Y28.04213
G01 X-38.37120 Y28.32900
G01 X-38.59345 Y28.60777
G01 X-38.87371 Y28.93096
G01 X-39.17544 Y29.24843
G01 X-39.47645 Y29.53789
G01 X-39.67330 Y29.71538
G01 X-39.84292 Y29.86169
G01 X-40.17617 Y30.12971
G01 X-40.51277 Y30.37662
G01 X-40.86850 Y30.61398
G01 X-41.22572 Y30.83001
G01 X-41.55587 Y31.01203
G01 X-41.85514 Y31.16483
G01 X-42.15033 Y31.30281
G01 X-42.46263 Y31.43567
G01 X-42.63405 Y31.33794
G01 X-42.82008 Y31.03890
G04 P0 ( dwell for no time -- G64 should not smooth over this point )
G00 Z1.00000 ( retract )

G00 X-44.64258 Y27.95240 ( rapid move to begin. )
G01 F20.00000
( Mill infeed pass 1/1 )
G01 Z-0.30000
G04 P0 ( dwell for no time -- G64 should not smooth over this point )
G01 F30.00000
G01 X-44.64258 Y27.95240
G01 X-44.42577 Y27.89133
G01 X-44.22226 Y27.82514
G01 X-44.01200 Y27.74737
G01 X-43.80507 Y27.66108
G01 X-43.61101 Y27.57091
G01 X-43.42955 Y27.47808
G01 X-43.19753 Y27.34973
G01 X-42.99748 Y27.22763
G01 X-42.81114 Y27.10297
G01 X-42.64627 Y26.98313
G01 X-42.47807 Y26.85082
G01 X-42.31516 Y26.71206
G01 X-42.12697 Y26.54038
G01 X-41.96763 Y26.38323
G01 X-41.80807 Y26.21214
G01 X-41.66235 Y26.04229
G01 X-41.51142 Y25.85039
G01 X-41.36271 Y25.64371
G01 X-41.23842 Y25.45758
G01 X-41.12181 Y25.26660
G01 X-41.01308 Y25.07099
G01 X-40.91678 Y24.88032
G01 X-40.82799 Y24.68603
G01 X-40.73047 Y24.45060
G01 X-40.65577 Y24.25007
G01 X-40.58595 Y24.03704
G01 X-40.52486 Y23.82131
G01 X-40.47480 Y23.61326
G01 X-40.42931 Y23.38334
G01 X-40.38961 Y23.13155
G01 X-40.36479 Y22.92952
G01 X-40.34681 Y22.71657
G01 X-40.33832 Y22.54374
G01 X-40.33530 Y22.38093
G01 X-40.33690 Y19.38190
G01 X-40.35212 Y19.08731
G01 X-40.37874 Y18.81370
G01 X-40.41727 Y18.55180
G01 X-40.46835 Y18.29206
G01 X-40.51465 Y18.09392
G01 X-40.56771 Y17.89793
G01 X-40.62479 Y17.71371
G01 X-40.69535 Y17.51254
G01 X-40.76586 Y17.33301
G01 X-40.84262 Y17.15607
G01 X-40.93743 Y16.95270
G01 X-41.03997 Y16.75333
G01 X-41.14018 Y16.57586
G01 X-41.24688 Y16.40220
G01 X-41.36575 Y16.22425
G01 X-41.48534 Y16.05920
G01 X-41.68031 Y15.81170
G01 X-41.87289 Y15.59055
G01 X-41.90007 Y15.56118
G01 X-41.93189 Y15.57310
G01 X-41.90007 Y15.56118
G01 X-41.90007 Y5.79999
G01 X-41.90279 Y5.62742
G01 X-41.91155 Y5.44490
G01 X-41.92631 Y5.25186
G01 X-41.94884 Y5.04947
G01 X-41.97718 Y4.85811
G01 X-42.01020 Y4.67784
G01 X-42.05587 Y4.46867
G01 X-42.09755 Y4.30068
G01 X-42.14744 Y4.12432
G01 X-42.19992 Y3.95938
G01 X-42.25757 Y3.79618
G01 X-42.32389 Y3.62509
G01 X-42.39491 Y3.45613
G01 X-42.46710 Y3.29875
G01 X-42.54421 Y3.14383
G01 X-42.62615 Y2.99138
G01 X-42.72831 Y2.81480
G01 X-42.82486 Y2.65852
G01 X-42.92658 Y2.50553
G01 X-43.03337 Y2.35603
G01 X-43.15780 Y2.19420
G01 X-43.28798 Y2.03680
G01 X-43.40903 Y1.89837
G01 X-43.52755 Y1.77145
G01 X-45.30014 Y0.00000
G01 X-46.06793 Y0.00000
G01 X-45.79907 Y0.22113
G01 X-45.67024 Y0.33810
G01 X-45.56001 Y0.44498
G01 X-43.90974 Y2.09553
G01 X-43.72341 Y2.29723
G01 X-43.52811 Y2.53187
G01 X-43.37599 Y2.73533
G01 X-43.22892 Y2.95483
G01 X-43.07799 Y3.20787
G01 X-42.95910 Y3.43090
G01 X-42.84353 Y3.67812
G01 X-42.74081 Y3.93154
G01 X-42.65696 Y4.16994
G01 X-42.58526 Y4.41226
G01 X-42.50629 Y4.74736
G01 X-42.47441 Y4.91622
G01 X-42.45112 Y5.06606
G01 X-42.41744 Y5.37759
G01 X-42.40540 Y5.56905
G01 X-42.40055 Y5.72968
G01 X-42.40007 Y15.76352
G01 X-42.43497 Y15.77729
G01 X-42.40007 Y15.76352
G01 X-42.23337 Y15.93723
G01 X-42.03525 Y16.16753
G01 X-41.90962 Y16.32725
G01 X-41.81315 Y16.45745
G01 X-41.66558 Y16.67551
G01 X-41.52969 Y16.90103
G01 X-41.40584 Y17.13342
G01 X-41.29354 Y17.37230
G01 X-41.19494 Y17.60588
G01 X-41.11153 Y17.83456
G01 X-41.04213 Y18.05724
G01 X-40.98087 Y18.29283
G01 X-40.92557 Y18.55051
G01 X-40.88613 Y18.78988
G01 X-40.85834 Y19.03090
G01 X-40.83952 Y19.31307
G01 X-40.83507 Y19.51406
G01 X-40.83540 Y22.40095
G01 X-40.84216 Y22.62314
G01 X-40.86078 Y22.86493
G01 X-40.88813 Y23.08555
G01 X-40.93439 Y23.36587
G01 X-40.98326 Y23.59363
G01 X-41.04269 Y23.81885
G01 X-41.10929 Y24.03147
G01 X-41.18897 Y24.25035
G01 X-41.29408 Y24.50407
G01 X-41.39308 Y24.71626
G01 X-41.52682 Y24.96797
G01 X-41.67469 Y25.21166
G01 X-41.85963 Y25.48019
G01 X-42.02692 Y25.69827
G01 X-42.21279 Y25.91435
G01 X-42.40342 Y26.11237
G01 X-42.64233 Y26.33393
G01 X-42.84378 Y26.50350
G01 X-43.07035 Y26.67399
G01 X-43.30624 Y26.83137
G01 X-43.53293 Y26.96530
G01 X-43.82933 Y27.12110
G01 X-44.08749 Y27.23835
G01 X-44.35191 Y27.34076
G01 X-44.60227 Y27.42230
G01 X-44.89280 Y27.50061
G01 X-45.12721 Y27.04196
G01 X-44.87520 Y26.97963
G01 X-44.68023 Y26.92336
G01 X-44.47845 Y26.85489
G01 X-44.28012 Y26.77696
G01 X-44.08574 Y26.68971
G01 X-43.90464 Y26.59814
G01 X-43.69112 Y26.47998
G01 X-43.50126 Y26.36258
G01 X-43.32567 Y26.24188
G01 X-43.14807 Y26.10665
G01 X-42.99260 Y25.97622
G01 X-42.80436 Y25.80462
G01 X-42.66004 Y25.66071
G01 X-42.52237 Y25.51041
G01 X-42.38531 Y25.34605
G01 X-42.25623 Y25.17536
G01 X-42.14505 Y25.01656
G01 X-42.05082 Y24.87117
G01 X-41.96733 Y24.73112
G01 X-41.88422 Y24.57910
G01 X-41.81140 Y24.43320
G01 X-41.73987 Y24.27539
G01 X-41.66205 Y24.08712
G01 X-41.59829 Y23.91598
G01 X-41.54449 Y23.75207
G01 X-41.49964 Y23.59604
G01 X-41.46045 Y23.43851
G01 X-41.42504 Y23.26968
G01 X-41.39921 Y23.11969
G01 X-41.36748 Y22.89795
G01 X-41.35013 Y22.72602
G01 X-41.33939 Y22.55357
G01 X-41.33525 Y22.37067
G01 X-41.33733 Y19.38056
G01 X-41.35377 Y19.10489
G01 X-41.38084 Y18.86237
G01 X-41.42105 Y18.62168
G01 X-41.47566 Y18.37337
G01 X-41.52219 Y18.19704
G01 X-41.57581 Y18.02275
G01 X-41.63291 Y17.86026
G01 X-41.69618 Y17.70009
G01 X-41.79092 Y17.48650
G01 X-41.86603 Y17.33121
G01 X-41.95199 Y17.17004
G01 X-42.03911 Y17.02117
G01 X-42.14315 Y16.85887
G01 X-42.24805 Y16.70936
G01 X-42.40312 Y16.50797
G01 X-42.51980 Y16.36743
G01 X-42.66999 Y16.20230
G01 X-42.90007 Y15.97061
G01 X-42.93629 Y15.98521
G01 X-42.90007 Y15.97061
G01 X-42.90007 Y5.78973
G01 X-42.90383 Y5.61564
G01 X-42.91404 Y5.44190
G01 X-42.92844 Y5.27985
G01 X-42.94726 Y5.12849
G01 X-42.97296 Y4.96783
G01 X-43.00446 Y4.80822
G01 X-43.04556 Y4.62953
G01 X-43.08744 Y4.47233
G01 X-43.13814 Y4.30708
G01 X-43.19514 Y4.14388
G01 X-43.26179 Y3.97312
G01 X-43.32590 Y3.82359
G01 X-43.39537 Y3.67647
G01 X-43.47009 Y3.53197
G01 X-43.54487 Y3.39903
G01 X-43.64947 Y3.22529
G01 X-43.74393 Y3.08176
G01 X-43.84383 Y2.94190
G01 X-43.93634 Y2.82176
G01 X-44.05272 Y2.68110
G01 X-44.24944 Y2.46342
G01 X-45.94992 Y0.76258
G01 X-46.12254 Y0.60249
G01 X-46.31878 Y0.43873
G01 X-46.49699 Y0.30353
G01 X-46.68169 Y0.17734
G01 X-46.81985 Y0.09141
G01 X-46.97758 Y0.00000
G01 X-48.38085 Y0.00000
G01 X-48.12515 Y0.06365
G01 X-47.99830 Y0.10198
G01 X-47.85363 Y0.15143
G01 X-47.57849 Y0.25987
G01 X-47.32094 Y0.38275
G01 X-47.05452 Y0.53373
G01 X-46.82307 Y0.68511
G01 X-46.60265 Y0.85209
G01 X-46.48457 Y0.95021
G01 X-46.37019 Y1.05265
G01 X-44.63138 Y2.78783
G01 X-44.49432 Y2.93487
G01 X-44.35015 Y3.10505
G01 X-44.23778 Y3.25006
G01 X-44.12651 Y3.40855
G01 X-44.02828 Y3.56349
G01 X-43.92092 Y3.74955
G01 X-43.84515 Y3.89486
G01 X-43.76710 Y4.06192
G01 X-43.68551 Y4.26090
G01 X-43.62933 Y4.41488
G01 X-43.58239 Y4.56118
G01 X-43.53857 Y4.71912
G01 X-43.49214 Y4.91858
G01 X-43.46100 Y5.07949
G01 X-43.43646 Y5.24154
G01 X-43.41858 Y5.40446
G01 X-43.40568 Y5.58759
G01 X-43.40050 Y5.73928
G01 X-43.40004 Y16.17772
G01 X-43.43758 Y16.19313
G01 X-43.40004 Y16.17772
G01 X-43.04457 Y16.53408
G01 X-42.88051 Y16.71480
G01 X-42.71447 Y16.92102
G01 X-42.59997 Y17.07670
G01 X-42.48775 Y17.24635
G01 X-42.37932 Y17.43037
G01 X-42.28089 Y17.61990
G01 X-42.18328 Y17.83250
G01 X-42.10703 Y18.01993
G01 X-42.04348 Y18.20134
G01 X-41.98343 Y18.40512
G01 X-41.92714 Y18.64241
G01 X-41.89090 Y18.83362
G01 X-41.86398 Y19.02638
G01 X-41.84241 Y19.28114
G01 X-41.83510 Y19.50380
G01 X-41.83527 Y22.38096
G01 X-41.84551 Y22.64694
G01 X-41.86542 Y22.85075
G01 X-41.89974 Y23.08332
G01 X-41.93372 Y23.26322
G01 X-41.97848 Y23.45118
G01 X-42.02923 Y23.62711
G01 X-42.08795 Y23.80049
G01 X-42.15064 Y23.96162
G01 X-42.24787 Y24.18651
G01 X-42.35806 Y24.40521
G01 X-42.48140 Y24.61674
G01 X-42.64693 Y24.86215
G01 X-42.79471 Y25.05740
G01 X-42.95417 Y25.24328
G01 X-43.12468 Y25.41902
G01 X-43.33540 Y25.61179
G01 X-43.52427 Y25.76637
G01 X-43.72224 Y25.90914
G01 X-43.92854 Y26.03957
G01 X-44.18726 Y26.18186
G01 X-44.40738 Y26.28732
G01 X-44.63351 Y26.37920
G01 X-44.85510 Y26.45410
G01 X-45.13006 Y26.52918
G01 X-45.36343 Y26.57978
G01 X-45.59272 Y26.11100
G01 X-45.41446 Y26.08049
G01 X-45.24672 Y26.04298
G01 X-45.03024 Y25.98466
G01 X-44.84599 Y25.92446
G01 X-44.67479 Y25.85809
G01 X-44.51650 Y25.78725
G01 X-44.37088 Y25.71349
G01 X-44.16593 Y25.59903
G01 X-44.01086 Y25.50071
G01 X-43.85300 Y25.38824
G01 X-43.70941 Y25.27379
G01 X-43.55640 Y25.13858
G01 X-43.43070 Y25.01862
G01 X-43.31109 Y24.89261
G01 X-43.19143 Y24.75286
G01 X-43.09138 Y24.62352
G01 X-42.92298 Y24.37958
G01 X-42.85364 Y24.26625
G01 X-42.78384 Y24.14133
G01 X-42.72366 Y24.02286
G01 X-42.66392 Y23.89284
G01 X-42.58965 Y23.71354
G01 X-42.54002 Y23.57961
G01 X-42.46255 Y23.32596
G01 X-42.40449 Y23.06721
G01 X-42.35757 Y22.75520
G01 X-42.34368 Y22.60369
G01 X-42.33700 Y22.47199
G01 X-42.33675 Y19.41439
G01 X-42.35066 Y19.18340
G01 X-42.37535 Y18.97177
G01 X-42.40875 Y18.78190
G01 X-42.46367 Y18.54482
G01 X-42.50827 Y18.38952
G01 X-42.56347 Y18.22694
G01 X-42.62656 Y18.06727
G01 X-42.69697 Y17.90967
G01 X-42.75912 Y17.78107
G01 X-42.83146 Y17.64622
G01 X-42.90964 Y17.51467
G01 X-42.99349 Y17.38666
G01 X-43.08284 Y17.26245
G01 X-43.19598 Y17.11762
G01 X-43.28777 Y17.00820
G01 X-43.39097 Y16.89522
G01 X-43.90004 Y16.38483
G01 X-43.93804 Y16.40055
G01 X-43.90004 Y16.38483
G01 X-43.90004 Y5.79001
G01 X-43.90514 Y5.61083
G01 X-43.92699 Y5.34853
G01 X-43.96778 Y5.08795
G01 X-44.03667 Y4.79102
G01 X-44.07672 Y4.65473
G01 X-44.11883 Y4.52973
G01 X-44.22384 Y4.26540
G01 X-44.33880 Y4.02798
G01 X-44.49163 Y3.76453
G01 X-44.56377 Y3.65440
G01 X-44.64604 Y3.53891
G01 X-44.72656 Y3.43474
G01 X-44.83776 Y3.30159
G01 X-45.01319 Y3.11282
G01 X-46.64969 Y1.47693
G01 X-46.81573 Y1.32486
G01 X-47.00590 Y1.17089
G01 X-47.20458 Y1.03017
G01 X-47.40394 Y0.90802
G01 X-47.60877 Y0.79718
G01 X-47.80186 Y0.70808
G01 X-48.03838 Y0.61631
G01 X-48.25040 Y0.54788
G01 X-48.46632 Y0.49306
G01 X-48.70539 Y0.44734
G01 X-48.84544 Y0.42738
G01 X-48.98621 Y0.41308
G01 X-49.12744 Y0.40449
G01 X-49.25878 Y0.40162
G01 X-62.96952 Y0.40008
G01 X-63.10914 Y0.40366
G01 X-63.24991 Y0.41242
G01 X-63.50201 Y0.44036
G01 X-63.73160 Y0.48212
G01 X-64.00777 Y0.55034
G01 X-64.23932 Y0.62573
G01 X-64.47526 Y0.71979
G01 X-64.70401 Y0.82934
G01 X-64.94236 Y0.96500
G01 X-65.14546 Y1.09847
G01 X-65.33096 Y1.23932
G01 X-65.49471 Y1.37853
G01 X-65.62964 Y1.50574
G01 X-69.19397 Y5.07007
G01 X-69.29702 Y5.17822
G01 X-69.41012 Y5.30713
G01 X-69.50613 Y5.42567
G01 X-69.59102 Y5.53999
G01 X-69.69364 Y5.69191
G01 X-69.76372 Y5.80403
G01 X-69.83926 Y5.93659
G01 X-69.90895 Y6.07228
G01 X-69.98211 Y6.22925
G01 X-70.04055 Y6.37017
G01 X-70.09277 Y6.51350
G01 X-70.14525 Y6.67817
G01 X-70.18546 Y6.82442
G01 X-70.21929 Y6.97227
G01 X-70.24670 Y7.12145
G01 X-70.26849 Y7.27888
G01 X-70.69628 Y6.81192
G01 X-70.68955 Y6.78221
G01 X-70.62485 Y6.53682
G01 X-70.53255 Y6.25762
G01 X-70.43359 Y6.01393
G01 X-70.31528 Y5.76722
G01 X-70.18696 Y5.53763
G01 X-70.03862 Y5.30771
G01 X-69.88914 Y5.10372
G01 X-69.72026 Y4.90146
G01 X-69.54764 Y4.71665
G01 X-65.98336 Y1.15237
G01 X-65.84495 Y1.02105
G01 X-65.68427 Y0.88255
G01 X-65.49169 Y0.73175
G01 X-65.28168 Y0.58748
G01 X-65.04518 Y0.44585
G01 X-64.82751 Y0.33162
G01 X-64.59375 Y0.22710
G01 X-64.34478 Y0.13266
G01 X-64.11003 Y0.05969
G01 X-63.86695 Y0.00000
G01 X-65.27236 Y0.00000
G01 X-65.54173 Y0.16030
G01 X-65.66819 Y0.24394
G01 X-65.79179 Y0.33180
G01 X-66.01427 Y0.50676
G01 X-66.13771 Y0.61219
G01 X-66.25709 Y0.72131
G01 X-69.89404 Y4.35592
G01 X-70.01477 Y4.48142
G01 X-70.19712 Y4.68932
G01 X-70.34919 Y4.88246
G01 X-70.49615 Y5.09217
G01 X-70.64306 Y5.32643
G01 X-70.76628 Y5.55092
G01 X-70.88157 Y5.79095
G01 X-70.98010 Y6.02729
G01 X-71.06188 Y6.25912
G01 X-71.09800 Y6.37403
G01 X-70.18152 Y8.12818
G01 X-69.95584 Y8.39379
G01 X-69.58630 Y8.90110
G01 X-69.31536 Y9.34931
G01 X-69.13268 Y9.71608
G01 X-68.98274 Y10.09012
G01 X-68.87530 Y10.44240
G01 X-68.79900 Y10.80691
G01 X-68.75783 Y11.16774
G01 X-68.74553 Y11.47046
G01 X-68.74988 Y11.47122
G01 X-68.74553 Y11.47046
G01 X-68.73418 Y11.51268
G01 X-68.70085 Y11.60475
G01 X-68.61350 Y11.88916
G01 X-68.45046 Y12.60831
G01 X-68.45402 Y12.60958
G01 X-68.45046 Y12.60831
G01 X-68.42585 Y12.67259
G01 X-68.33720 Y12.83307
G01 X-68.02194 Y13.36525
G01 X-67.99387 Y13.59700
G01 X-67.97744 Y13.85519
G01 X-67.97525 Y14.04653
G01 X-67.97845 Y14.17236
G01 X-67.99047 Y14.36479
G01 X-68.01391 Y14.57716
G01 X-68.05750 Y14.84097
G01 X-68.12412 Y15.13172
G01 X-68.14988 Y15.22590
G01 X-68.22333 Y15.45620
G01 X-68.23413 Y15.51600
G01 X-68.24406 Y15.62857
G01 X-68.27893 Y15.89011
G01 X-68.33433 Y16.16182
G01 X-68.42204 Y16.47396
G01 X-68.46032 Y16.58747
G01 X-68.54673 Y16.67794
G01 X-71.73895 Y19.87070
G01 X-71.77001 Y19.90857
G01 X-71.77905 Y19.90268
G01 X-71.77001 Y19.90857
G01 X-71.79313 Y19.95180
G01 X-71.83293 Y20.04830
G01 X-71.95853 Y20.38998
G01 X-72.06668 Y20.78396
G01 X-72.08825 Y20.88370
G01 X-72.15345 Y21.29864
G01 X-72.16003 Y21.38517
G01 X-72.17425 Y21.78952
G01 X-72.14862 Y22.18052
G01 X-72.14349 Y22.23325
G01 X-72.10461 Y22.47811
G01 X-72.05000 Y22.71552
G01 X-72.05000 Y23.15439
G01 X-72.08807 Y23.17016
G01 X-72.05000 Y23.15439
G01 X-71.04438 Y24.15997
G01 X-71.06013 Y24.19795
G01 X-71.04438 Y24.15997
G01 X-67.19308 Y24.16221
G01 X-67.07187 Y24.17158
G01 X-66.96283 Y24.18751
G01 X-66.81419 Y24.22040
G01 X-66.70611 Y24.25228
G01 X-66.61020 Y24.28822
G01 X-66.46972 Y24.35019
G01 X-66.37078 Y24.40407
G01 X-66.25466 Y24.47755
G01 X-66.25448 Y23.65530
G01 X-66.98755 Y23.23056
G01 X-67.18132 Y23.30661
G01 X-68.16928 Y23.71578
G01 X-68.03456 Y23.66000
G01 X-67.24348 Y23.66023
G01 X-67.03642 Y23.67257
G01 X-66.84396 Y23.70122
G01 X-66.62727 Y23.75317
G01 X-66.45615 Y23.81128
G01 X-66.25575 Y23.89823
G01 X-66.25468 Y25.94417
G01 X-66.47569 Y25.93734
G01 X-66.48005 Y25.87351
G01 X-66.49532 Y25.78095
G01 X-66.53708 Y25.65105
G01 X-66.60027 Y25.53017
G01 X-66.68313 Y25.42179
G01 X-66.79159 Y25.32250
G01 X-66.90693 Y25.24966
G01 X-67.03296 Y25.19743
G01 X-67.16182 Y25.16800
G01 X-67.27500 Y25.15994
G01 X-71.45861 Y25.15994
G01 X-73.04997 Y23.56858
G01 X-73.04997 Y19.43130
G01 X-69.38802 Y15.76514
G01 X-69.32381 Y15.67739
G01 X-69.28086 Y15.59951
G01 X-69.25704 Y15.54610
G01 X-69.22607 Y15.45239
G01 X-69.20852 Y15.36390
G01 X-69.20258 Y15.31290
G01 X-69.20080 Y15.02374
G01 X-69.12318 Y14.95966
G01 X-69.03060 Y14.86573
G01 X-68.91899 Y14.72194
G01 X-68.85132 Y14.60812
G01 X-68.82780 Y14.56065
G01 X-68.77642 Y14.43919
G01 X-68.73347 Y14.29316
G01 X-68.71269 Y14.18128
G01 X-68.70329 Y14.08829
G01 X-68.70228 Y13.92819
G01 X-68.71048 Y13.83508
G01 X-68.73027 Y13.72108
G01 X-68.76009 Y13.60929
G01 X-68.79557 Y13.51092
G01 X-68.85968 Y13.37638
G01 X-68.90718 Y13.29588
G01 X-68.96738 Y13.21036
G01 X-69.05683 Y13.10541
G01 X-69.13176 Y13.03244
G01 X-69.20006 Y12.97577
G01 X-69.20052 Y12.72004
G01 X-69.21467 Y12.60069
G01 X-69.23738 Y12.51148
G01 X-69.26532 Y12.43414
G01 X-69.29229 Y12.37770
G01 X-69.34396 Y12.29210
G01 X-69.40608 Y12.21405
G01 X-69.70001 Y11.91862
G01 X-69.70174 Y11.36241
G01 X-69.72115 Y11.23031
G01 X-69.75150 Y11.13180
G01 X-69.77085 Y11.08337
G01 X-69.83103 Y10.97371
G01 X-69.91530 Y10.86645
G01 X-70.01657 Y10.77504
G01 X-70.12249 Y10.70719
G01 X-70.22777 Y10.66063
G01 X-70.28876 Y10.64128
G01 X-70.39105 Y10.61994
G01 X-70.50596 Y10.61268
G01 X-70.62064 Y10.62233
G01 X-70.68353 Y10.63401
G01 X-70.78048 Y10.66335
G01 X-70.86176 Y10.69945
G01 X-70.92124 Y10.73290
G01 X-71.00242 Y10.79025
G01 X-71.06910 Y10.85027
G01 X-71.14035 Y10.93300
G01 X-71.19488 Y11.01616
G01 X-71.23852 Y11.10518
G01 X-71.27278 Y11.20836
G01 X-71.28690 Y11.26929
G01 X-71.29986 Y11.40224
G01 X-71.29998 Y12.24999
G01 X-71.29315 Y12.35408
G01 X-71.27405 Y12.45166
G01 X-71.22803 Y12.58136
G01 X-71.18612 Y12.66050
G01 X-71.15495 Y12.70894
G01 X-71.08680 Y12.79337
G01 X-70.85716 Y13.02365
G01 X-70.96666 Y13.13083
G01 X-71.04304 Y13.22421
G01 X-71.11096 Y13.32530
G01 X-71.19849 Y13.49662
G01 X-71.23433 Y13.59205
G01 X-71.25985 Y13.67963
G01 X-71.29000 Y13.84656
G01 X-71.29678 Y13.92250
G01 X-71.29836 Y14.05491
G01 X-71.29521 Y14.10703
G01 X-71.27415 Y14.25783
G01 X-71.23471 Y14.40439
G01 X-71.21510 Y14.46101
G01 X-71.15338 Y14.59969
G01 X-71.07499 Y14.72966
G01 X-71.04050 Y14.77866
G01 X-70.94289 Y14.89492
G01 X-70.85675 Y14.97536
G01 X-74.43043 Y18.54970
G01 X-74.51471 Y18.65513
G01 X-74.56589 Y18.74439
G01 X-74.58773 Y18.79069
G01 X-74.63325 Y18.93720
G01 X-74.64956 Y19.07949
G01 X-74.64999 Y23.89998
G01 X-74.63846 Y24.03330
G01 X-74.61138 Y24.14471
G01 X-74.57496 Y24.23719
G01 X-74.54356 Y24.29777
G01 X-74.49541 Y24.37254
G01 X-74.42312 Y24.45802
G01 X-72.34128 Y26.53942
G01 X-72.21408 Y26.63822
G01 X-72.16186 Y26.66721
G01 X-72.06889 Y26.70914
G01 X-72.01068 Y26.72872
G01 X-71.92208 Y26.74877
G01 X-71.81271 Y26.75943
G01 X-67.27500 Y26.75997
G01 X-67.19029 Y26.75524
G01 X-67.14198 Y26.74859
G01 X-67.05503 Y26.72913
G01 X-66.92181 Y26.67772
G01 X-66.80500 Y26.60729
G01 X-66.73266 Y26.54755
G01 X-66.68740 Y26.50226
G01 X-66.63408 Y26.43848
G01 X-66.59832 Y26.38542
G01 X-66.55252 Y26.30355
G01 X-66.51790 Y26.21636
G01 X-66.49933 Y26.15509
G01 X-66.48181 Y26.06294
G01 X-66.47569 Y25.93734
G01 X-66.25468 Y25.94417
G01 X-66.25519 Y26.76525
G01 X-66.31114 Y26.83154
G01 X-66.39588 Y26.91714
G01 X-66.51308 Y27.01323
G01 X-66.64122 Y27.09403
G01 X-66.73032 Y27.14031
G01 X-66.87208 Y27.19558
G01 X-66.97058 Y27.22354
G01 X-67.10317 Y27.24854
G01 X-67.25547 Y27.25976
G01 X-71.84847 Y27.25824
G01 X-71.95005 Y27.25001
G01 X-72.04095 Y27.23482
G01 X-72.16036 Y27.20599
G01 X-72.25708 Y27.17236
G01 X-72.38802 Y27.11320
G01 X-72.46983 Y27.06799
G01 X-72.54710 Y27.01531
G01 X-72.65822 Y26.92674
G01 X-74.79873 Y24.78839
G01 X-74.89802 Y24.66901
G01 X-74.97615 Y24.54857
G01 X-75.02931 Y24.44600
G01 X-75.08659 Y24.30043
G01 X-75.11430 Y24.20168
G01 X-75.13048 Y24.12299
G01 X-75.14572 Y23.99203
G01 X-75.14991 Y23.91021
G01 X-75.14951 Y19.06925
G01 X-75.13734 Y18.92648
G01 X-75.12279 Y18.83547
G01 X-75.09988 Y18.74622
G01 X-75.05032 Y18.60093
G01 X-75.00666 Y18.50832
G01 X-74.93434 Y18.38330
G01 X-74.87968 Y18.30700
G01 X-74.79873 Y18.21157
G01 X-71.53110 Y14.94264
G01 X-71.40382 Y14.95986
G01 X-71.53110 Y14.94264
G01 X-71.57946 Y14.86281
G01 X-71.61591 Y14.79169
G01 X-71.69488 Y14.60604
G01 X-71.75152 Y14.41244
G01 X-71.77319 Y14.30472
G01 X-71.79711 Y14.10078
G01 X-71.79625 Y13.89578
G01 X-71.78774 Y13.79444
G01 X-71.75320 Y13.59286
G01 X-71.70875 Y13.43421
G01 X-71.63808 Y13.25461
G01 X-71.52663 Y13.04641
G01 X-71.44258 Y13.04120
G01 X-71.52663 Y13.04641
G01 X-71.59440 Y12.95149
G01 X-71.65985 Y12.83564
G01 X-71.70664 Y12.73317
G01 X-71.75033 Y12.60577
G01 X-71.78030 Y12.47366
G01 X-71.79407 Y12.36955
G01 X-71.79991 Y12.25974
G01 X-71.79991 Y11.40224
G01 X-71.78845 Y11.24918
G01 X-71.76788 Y11.12576
G01 X-71.72470 Y10.97722
G01 X-71.68647 Y10.88222
G01 X-71.61995 Y10.75263
G01 X-71.54525 Y10.63963
G01 X-71.45886 Y10.53529
G01 X-71.38500 Y10.46063
G01 X-71.28129 Y10.37349
G01 X-71.16882 Y10.29795
G01 X-71.07649 Y10.24793
G01 X-70.95454 Y10.19462
G01 X-70.81820 Y10.15241
G01 X-70.71009 Y10.12995
G01 X-70.55940 Y10.11387
G01 X-70.45902 Y10.11398
G01 X-70.31799 Y10.12530
G01 X-70.17929 Y10.15335
G01 X-70.08287 Y10.18131
G01 X-69.94248 Y10.23836
G01 X-69.84495 Y10.29015
G01 X-69.75940 Y10.34451
G01 X-69.69465 Y10.39208
G01 X-69.60334 Y10.47212
G01 X-69.54647 Y10.52886
G01 X-69.49435 Y10.58997
G01 X-69.42130 Y10.68697
G01 X-69.38394 Y10.74651
G01 X-69.33047 Y10.84560
G01 X-69.28874 Y10.94115
G01 X-69.24411 Y11.07892
G01 X-69.22097 Y11.18060
G01 X-69.20616 Y11.29289
G01 X-69.20022 Y11.39205
G01 X-69.20009 Y11.71156
G01 X-69.23476 Y11.72535
G01 X-69.20009 Y11.71156
G01 X-69.05211 Y11.86028
G01 X-68.94789 Y11.98639
G01 X-68.86070 Y12.12520
G01 X-68.82681 Y12.18989
G01 X-68.79399 Y12.26663
G01 X-68.75640 Y12.37315
G01 X-68.73230 Y12.46210
G01 X-68.70946 Y12.60353
G01 X-68.70106 Y12.69746
G01 X-68.70017 Y12.75504
G01 X-68.72117 Y12.76426
G01 X-68.70017 Y12.75504
G01 X-68.68010 Y12.77612
G01 X-68.58259 Y12.89053
G01 X-68.50611 Y12.99629
G01 X-68.40847 Y13.15908
G01 X-68.33250 Y13.32225
G01 X-68.28470 Y13.45430
G01 X-68.24751 Y13.58974
G01 X-68.21952 Y13.73741
G01 X-68.20987 Y13.81592
G01 X-68.20085 Y13.94615
G01 X-68.20258 Y14.09647
G01 X-68.21691 Y14.24610
G01 X-68.24177 Y14.38488
G01 X-68.26153 Y14.46383
G01 X-68.30964 Y14.61849
G01 X-68.37289 Y14.76830
G01 X-68.41569 Y14.85351
G01 X-68.51038 Y15.01043
G01 X-68.61388 Y15.14785
G01 X-68.70144 Y15.24432
G01 X-68.72432 Y15.23540
G01 X-68.70144 Y15.24432
G01 X-68.70611 Y15.37586
G01 X-68.73065 Y15.52768
G01 X-68.76219 Y15.64640
G01 X-68.80972 Y15.77269
G01 X-68.87032 Y15.89296
G01 X-68.92473 Y15.97972
G01 X-69.00464 Y16.08607
G01 X-69.06666 Y16.15415
G01 X-72.54999 Y19.63837
G01 X-72.58792 Y19.62269
G01 X-72.54999 Y19.63837
G01 X-72.54999 Y23.36150
G01 X-72.58804 Y23.37725
G01 X-72.54999 Y23.36150
G01 X-71.25150 Y24.65997
G01 X-71.26722 Y24.69782
G01 X-71.25150 Y24.65997
G01 X-67.27500 Y24.65997
G01 X-67.14546 Y24.66670
G01 X-67.03403 Y24.68298
G01 X-66.88651 Y24.71938
G01 X-66.74503 Y24.77361
G01 X-66.65476 Y24.81755
G01 X-66.53441 Y24.89197
G01 X-66.44643 Y24.95870
G01 X-66.33527 Y25.06172
G01 X-66.25496 Y25.15578
G01 X-66.25620 Y31.96356
G01 X-66.25008 Y34.69983
G01 X-66.50177 Y34.72538
G01 X-66.77624 Y34.74514
G01 X-67.01023 Y34.75566
G01 X-67.26481 Y34.75977
G01 X-71.85106 Y34.75957
G01 X-72.24801 Y34.74743
G01 X-72.67316 Y34.71515
G01 X-73.08507 Y34.66394
G01 X-73.48408 Y34.59465
G01 X-73.93023 Y34.49493
G01 X-74.13714 Y34.44075
G01 X-74.33285 Y34.38434
G01 X-74.53681 Y34.32007
G01 X-74.72952 Y34.25411
G01 X-75.10991 Y34.10844
G01 X-75.30668 Y34.02470
G01 X-75.53858 Y33.91946
G01 X-75.90259 Y33.73900
G01 X-76.13442 Y33.61243
G01 X-76.36218 Y33.47872
G01 X-76.58567 Y33.33801
G01 X-76.80470 Y33.19041
G01 X-77.02720 Y33.03001
G01 X-77.26083 Y32.84987
G01 X-77.45019 Y32.69630
G01 X-77.65026 Y32.52389
G01 X-77.82270 Y32.36623
G01 X-77.99075 Y32.20392
G01 X-80.09400 Y30.10070
G01 X-80.29910 Y29.88678
G01 X-80.51663 Y29.64259
G01 X-80.68633 Y29.43977
G01 X-80.83088 Y29.25719
G01 X-80.96440 Y29.07891
G01 X-81.10469 Y28.88049
G01 X-81.25021 Y28.66113
G01 X-81.38401 Y28.44569
G01 X-81.50776 Y28.23489
G01 X-81.61581 Y28.03863
G01 X-81.72773 Y27.82136
G01 X-81.82910 Y27.61018
G01 X-81.94091 Y27.35875
G01 X-82.02671 Y27.15179
G01 X-82.11406 Y26.92352
G01 X-82.18833 Y26.71214
G01 X-82.26295 Y26.47940
G01 X-82.33649 Y26.22492
G01 X-82.39557 Y25.99911
G01 X-82.45272 Y25.75192
G01 X-82.50062 Y25.51311
G01 X-82.54322 Y25.26299
G01 X-82.57959 Y25.00168
G01 X-82.60829 Y24.73897
G01 X-82.62810 Y24.50696
G01 X-82.64200 Y24.26437
G01 X-82.64980 Y23.91009
G01 X-82.64807 Y18.92785
G01 X-82.63473 Y18.59402
G01 X-82.60829 Y18.26097
G01 X-82.56506 Y17.88658
G01 X-82.50753 Y17.52453
G01 X-82.43669 Y17.17523
G01 X-82.35391 Y16.83903
G01 X-82.26354 Y16.52593
G01 X-82.14606 Y16.16766
G01 X-82.04350 Y15.89070
G01 X-81.92734 Y15.60812
G01 X-81.80548 Y15.33911
G01 X-81.67436 Y15.07449
G01 X-81.53410 Y14.81460
G01 X-81.36037 Y14.51534
G01 X-81.19740 Y14.25750
G01 X-81.01940 Y13.99738
G01 X-80.85658 Y13.77635
G01 X-80.67388 Y13.54493
G01 X-80.46989 Y13.30325
G01 X-80.27827 Y13.09073
G01 X-80.10124 Y12.90653
G01 X-79.29979 Y12.10495
G01 X-79.26271 Y12.12022
G01 X-79.29979 Y12.10495
G01 X-79.29844 Y11.26061
G01 X-79.29062 Y11.01776
G01 X-79.27663 Y10.78530
G01 X-79.24140 Y10.41146
G01 X-79.19618 Y10.06874
G01 X-79.13708 Y9.72812
G01 X-79.06182 Y9.38032
G01 X-78.97482 Y9.04578
G01 X-78.86931 Y8.69574
G01 X-78.76062 Y8.37982
G01 X-78.63573 Y8.05904
G01 X-78.50221 Y7.75279
G01 X-78.34318 Y7.42295
G01 X-78.18039 Y7.11736
G01 X-78.00530 Y6.81866
G01 X-77.82961 Y6.54393
G01 X-77.66251 Y6.30047
G01 X-77.48702 Y6.06290
G01 X-77.29692 Y5.82374
G01 X-77.08496 Y5.57596
G01 X-76.88572 Y5.35795
G01 X-76.67178 Y5.13987
G01 X-76.45011 Y4.92961
G01 X-76.20569 Y4.71376
G01 X-75.96998 Y4.51940
G01 X-75.73564 Y4.33969
G01 X-75.47839 Y4.15671
G01 X-75.19749 Y3.97185
G01 X-74.93655 Y3.81295
G01 X-74.66109 Y3.65872
G01 X-74.39007 Y3.51970
G01 X-73.32449 Y4.68130
G01 X-73.57046 Y4.79039
G01 X-73.85385 Y4.92892
G01 X-74.09543 Y5.05948
G01 X-74.33170 Y5.19943
G01 X-74.58812 Y5.36532
G01 X-74.80470 Y5.51703
G01 X-75.03137 Y5.68942
G01 X-75.25083 Y5.87091
G01 X-75.46381 Y6.06036
G01 X-75.67612 Y6.26511
G01 X-75.87275 Y6.47111
G01 X-76.07460 Y6.70027
G01 X-76.26076 Y6.92907
G01 X-76.42525 Y7.14896
G01 X-76.57539 Y7.36666
G01 X-76.74493 Y7.63278
G01 X-76.89756 Y7.89699
G01 X-77.04300 Y8.17672
G01 X-77.18085 Y8.47133
G01 X-77.30526 Y8.77126
G01 X-77.41882 Y9.08624
G01 X-77.51801 Y9.40676
G01 X-77.59649 Y9.70224
G01 X-77.66202 Y10.00084
G01 X-77.71135 Y10.28187
G01 X-77.75034 Y10.57481
G01 X-77.78090 Y10.89787
G01 X-77.79692 Y11.21052
G01 X-77.79982 Y12.26015
G01 X-77.79522 Y12.50422
G01 X-77.78463 Y12.71107
G01 X-77.74264 Y12.72756
G01 X-77.78463 Y12.71107
G01 X-79.10398 Y14.03218
G01 X-79.28978 Y14.23279
G01 X-79.47490 Y14.44864
G01 X-79.63431 Y14.64737
G01 X-79.78043 Y14.84351
G01 X-79.95331 Y15.09563
G01 X-80.11500 Y15.35509
G01 X-80.28554 Y15.65666
G01 X-80.42453 Y15.92829
G01 X-80.55155 Y16.20571
G01 X-80.66999 Y16.49791
G01 X-80.76555 Y16.76618
G01 X-80.86301 Y17.07705
G01 X-80.92984 Y17.32239
G01 X-80.98340 Y17.55010
G01 X-81.03116 Y17.78950
G01 X-81.07053 Y18.03039
G01 X-81.10149 Y18.27253
G01 X-81.12938 Y18.56522
G01 X-81.14414 Y18.81726
G01 X-81.14972 Y19.05958
G01 X-81.14982 Y23.91006
G01 X-81.14528 Y24.15240
G01 X-81.13509 Y24.35413
G01 X-81.12095 Y24.53538
G01 X-81.09811 Y24.75741
G01 X-81.07070 Y24.96830
G01 X-81.04040 Y25.15834
G01 X-81.00286 Y25.35740
G01 X-80.96189 Y25.54541
G01 X-80.91061 Y25.75184
G01 X-80.85054 Y25.96721
G01 X-80.79679 Y26.14224
G01 X-80.73174 Y26.33497
G01 X-80.66479 Y26.51625
G01 X-80.58892 Y26.70500
G01 X-80.50799 Y26.89192
G01 X-80.42676 Y27.06728
G01 X-80.33609 Y27.24937
G01 X-80.24505 Y27.41983
G01 X-80.14937 Y27.58773
G01 X-80.03329 Y27.77912
G01 X-79.92897 Y27.94127
G01 X-79.81437 Y28.10876
G01 X-79.70106 Y28.26474
G01 X-79.57718 Y28.42550
G01 X-79.45524 Y28.57482
G01 X-79.25595 Y28.80487
G01 X-79.04742 Y29.02582
G01 X-76.94450 Y31.12897
G01 X-76.75314 Y31.31266
G01 X-76.60899 Y31.44225
G01 X-76.45342 Y31.57428
G01 X-76.25403 Y31.73331
G01 X-76.10056 Y31.84980
G01 X-75.94394 Y31.96199
G01 X-75.78428 Y32.06986
G01 X-75.61311 Y32.17860
G01 X-75.43884 Y32.28233
G01 X-75.10884 Y32.46077
G01 X-74.75085 Y32.63029
G01 X-74.42258 Y32.76793
G01 X-74.09739 Y32.88551
G01 X-73.92299 Y32.94121
G01 X-73.72759 Y32.99772
G01 X-73.35197 Y33.08975
G01 X-73.00349 Y33.15810
G01 X-72.64192 Y33.20986
G01 X-72.44001 Y33.23046
G01 X-72.22706 Y33.24616
G01 X-71.85099 Y33.25955
G01 X-67.18346 Y33.25922
G01 X-66.94962 Y33.25226
G01 X-66.69557 Y33.23628
G01 X-66.48290 Y33.21660
G01 X-66.25366 Y33.18800
G01 X-66.25608 Y32.16577
G01 X-66.25128 Y34.19640
G01 X-66.50497 Y34.22371
G01 X-66.75935 Y34.24316
G01 X-67.00187 Y34.25513
G01 X-67.23451 Y34.25970
G01 X-71.85066 Y34.25957
G01 X-72.19450 Y34.24956
G01 X-72.55901 Y34.22378
G01 X-72.94248 Y34.17938
G01 X-73.33333 Y34.11464
G01 X-73.74098 Y34.02645
G01 X-74.12467 Y33.92457
G01 X-74.50285 Y33.80379
G01 X-74.86513 Y33.66821
G01 X-75.06238 Y33.58581
G01 X-75.26703 Y33.49414
G01 X-75.60559 Y33.32991
G01 X-75.82982 Y33.20999
G01 X-76.05885 Y33.07781
G01 X-76.27485 Y32.94362
G01 X-76.48646 Y32.80265
G01 X-76.68529 Y32.66105
G01 X-76.87970 Y32.51345
G01 X-77.09449 Y32.34177
G01 X-77.31087 Y32.15660
G01 X-77.47617 Y32.00578
G01 X-77.63718 Y31.85041
G01 X-79.71881 Y29.76888
G01 X-79.91003 Y29.57096
G01 X-80.10103 Y29.35889
G01 X-80.25907 Y29.17223
G01 X-80.39913 Y28.99804
G01 X-80.53426 Y28.82001
G01 X-80.66435 Y28.63827
G01 X-80.78932 Y28.45298
G01 X-80.90906 Y28.26426
G01 X-81.02989 Y28.06296
G01 X-81.14993 Y27.84930
G01 X-81.25879 Y27.64117
G01 X-81.35280 Y27.44843
G01 X-81.44162 Y27.25323
G01 X-81.54533 Y27.00871
G01 X-81.62331 Y26.80894
G01 X-81.70250 Y26.58783
G01 X-81.76915 Y26.38400
G01 X-81.83583 Y26.15877
G01 X-81.89938 Y25.92238
G01 X-81.95130 Y25.70419
G01 X-81.99902 Y25.47470
G01 X-82.04164 Y25.23381
G01 X-82.07946 Y24.97150
G01 X-82.10890 Y24.70800
G01 X-82.12905 Y24.47618
G01 X-82.14197 Y24.25398
G01 X-82.14980 Y23.92020
G01 X-82.14873 Y18.96844
G01 X-82.13687 Y18.64492
G01 X-82.11289 Y18.33222
G01 X-82.07291 Y17.97822
G01 X-82.01782 Y17.62620
G01 X-81.95597 Y17.31675
G01 X-81.87677 Y16.99029
G01 X-81.79295 Y16.69661
G01 X-81.67606 Y16.33827
G01 X-81.57342 Y16.06146
G01 X-81.46471 Y15.79799
G01 X-81.34228 Y15.52933
G01 X-81.21005 Y15.26540
G01 X-81.04320 Y14.96200
G01 X-80.89796 Y14.71767
G01 X-80.73281 Y14.46179
G01 X-80.56402 Y14.22060
G01 X-80.41150 Y14.01778
G01 X-80.24612 Y13.81209
G01 X-80.05402 Y13.58743
G01 X-79.86116 Y13.37709
G01 X-78.79956 Y12.31184
G01 X-78.76200 Y12.32731
G01 X-78.79959 Y12.31069
G01 X-78.79928 Y11.32144
G01 X-78.79443 Y11.11913
G01 X-78.78445 Y10.91705
G01 X-78.75890 Y10.60445
G01 X-78.71325 Y10.22101
G01 X-78.66268 Y9.91042
G01 X-78.59545 Y9.58225
G01 X-78.51455 Y9.25718
G01 X-78.41458 Y8.91573
G01 X-78.30444 Y8.58837
G01 X-78.18796 Y8.28487
G01 X-78.05080 Y7.96788
G01 X-77.90048 Y7.65546
G01 X-77.74211 Y7.35802
G01 X-77.57671 Y7.07619
G01 X-77.40020 Y6.80108
G01 X-77.24358 Y6.57418
G01 X-77.07300 Y6.34469
G01 X-76.88781 Y6.11363
G01 X-76.67409 Y5.86628
G01 X-76.47965 Y5.65666
G01 X-76.26317 Y5.43989
G01 X-76.04618 Y5.23837
G01 X-75.81453 Y5.03776
G01 X-75.58392 Y4.85196
G01 X-75.35489 Y4.68079
G01 X-75.11138 Y4.51226
G01 X-74.83627 Y4.33575
G01 X-74.58116 Y4.18536
G01 X-74.31156 Y4.03984
G01 X-74.03689 Y3.90472
G01 X-73.32449 Y4.68130
G01 X-73.68200 Y4.29158
G01 X-73.88636 Y4.38681
G01 X-74.06813 Y4.47688
G01 X-74.24738 Y4.57185
G01 X-74.41522 Y4.66651
G01 X-74.58057 Y4.76547
G01 X-74.75182 Y4.87418
G01 X-74.93762 Y4.99842
G01 X-75.10308 Y5.11579
G01 X-75.27331 Y5.24380
G01 X-75.42413 Y5.36374
G01 X-75.57953 Y5.49415
G01 X-75.75469 Y5.64876
G01 X-75.89566 Y5.78015
G01 X-76.04034 Y5.92231
G01 X-76.17419 Y6.06097
G01 X-76.31118 Y6.21055
G01 X-76.45131 Y6.37144
G01 X-76.58067 Y6.52770
G01 X-76.71186 Y6.69549
G01 X-76.83233 Y6.85869
G01 X-76.94267 Y7.01667
G01 X-77.07137 Y7.21169
G01 X-77.17869 Y7.38383
G01 X-77.28633 Y7.56763
G01 X-77.43558 Y7.84433
G01 X-77.57373 Y8.12749
G01 X-77.70150 Y8.41667
G01 X-77.81343 Y8.70140
G01 X-77.91366 Y8.99046
G01 X-78.01094 Y9.31205
G01 X-78.09001 Y9.61606
G01 X-78.15240 Y9.90321
G01 X-78.20348 Y10.19259
G01 X-78.24201 Y10.47369
G01 X-78.27531 Y10.80658
G01 X-78.29370 Y11.10930
G01 X-78.29977 Y11.38215
G01 X-78.29730 Y12.44460
G01 X-78.29514 Y12.51450
G01 X-78.25689 Y12.53020
G01 X-78.29514 Y12.51450
G01 X-79.47200 Y13.69352
G01 X-79.65161 Y13.88732
G01 X-79.83766 Y14.10302
G01 X-79.99730 Y14.29972
G01 X-80.15021 Y14.50170
G01 X-80.31891 Y14.74229
G01 X-80.48338 Y14.99794
G01 X-80.62742 Y15.24239
G01 X-80.78805 Y15.53756
G01 X-80.91401 Y15.79314
G01 X-81.03017 Y16.05328
G01 X-81.13636 Y16.31767
G01 X-81.23570 Y16.59555
G01 X-81.33105 Y16.89656
G01 X-81.40977 Y17.18097
G01 X-81.47936 Y17.47820
G01 X-81.53334 Y17.75795
G01 X-81.58066 Y18.06981
G01 X-81.61647 Y18.39336
G01 X-81.63781 Y18.67560
G01 X-81.64868 Y18.96857
G01 X-81.64982 Y23.91009
G01 X-81.64523 Y24.16277
G01 X-81.63542 Y24.36470
G01 X-81.61927 Y24.57638
G01 X-81.59316 Y24.82901
G01 X-81.56545 Y25.04059
G01 X-81.53347 Y25.24133
G01 X-81.49405 Y25.45105
G01 X-81.45097 Y25.64968
G01 X-81.39996 Y25.85692
G01 X-81.33773 Y26.08242
G01 X-81.27571 Y26.28618
G01 X-81.20454 Y26.49766
G01 X-81.13077 Y26.69746
G01 X-81.05137 Y26.89509
G01 X-80.95008 Y27.12796
G01 X-80.85958 Y27.32075
G01 X-80.75892 Y27.51991
G01 X-80.65242 Y27.71597
G01 X-80.54533 Y27.90010
G01 X-80.42773 Y28.09108
G01 X-80.29898 Y28.28714
G01 X-80.17612 Y28.46258
G01 X-80.04208 Y28.64251
G01 X-79.90919 Y28.81046
G01 X-79.75867 Y28.99032
G01 X-79.57642 Y29.19542
G01 X-79.37962 Y29.40093
G01 X-77.27638 Y31.50405
G01 X-77.12961 Y31.64533
G01 X-76.98669 Y31.77581
G01 X-76.78575 Y31.94827
G01 X-76.57884 Y32.11398
G01 X-76.39240 Y32.25579
G01 X-76.20160 Y32.39173
G01 X-76.00666 Y32.52163
G01 X-75.79901 Y32.65063
G01 X-75.60506 Y32.76288
G01 X-75.38977 Y32.87865
G01 X-75.07856 Y33.03052
G01 X-74.87409 Y33.12249
G01 X-74.69584 Y33.19737
G01 X-74.34344 Y33.32988
G01 X-73.99462 Y33.44167
G01 X-73.63084 Y33.53869
G01 X-73.24222 Y33.62300
G01 X-72.86998 Y33.68467
G01 X-72.50529 Y33.72663
G01 X-72.14837 Y33.75124
G01 X-71.83095 Y33.75970
G01 X-67.23400 Y33.75970
G01 X-66.98823 Y33.75431
G01 X-66.72232 Y33.73953
G01 X-66.47978 Y33.71898
G01 X-66.25247 Y33.69249
G01 X-66.25608 Y32.16577
G01 X-66.25605 Y32.17677
G01 X-66.29204 Y32.18261
G01 X-66.48234 Y32.20977
G01 X-66.65328 Y32.22887
G01 X-66.94734 Y32.25089
G01 X-67.21353 Y32.25952
G01 X-71.83095 Y32.25970
G01 X-72.08693 Y32.25249
G01 X-72.36145 Y32.23354
G01 X-72.69348 Y32.19470
G01 X-73.03277 Y32.13542
G01 X-73.38911 Y32.05307
G01 X-73.72076 Y31.95665
G01 X-74.03681 Y31.84500
G01 X-74.34616 Y31.71584
G01 X-74.67709 Y31.55846
G01 X-74.84770 Y31.46773
G01 X-74.99782 Y31.38193
G01 X-75.27343 Y31.20885
G01 X-75.53924 Y31.02107
G01 X-75.83421 Y30.78874
G01 X-76.08463 Y30.56885
G01 X-76.24463 Y30.41467
G01 X-78.31910 Y28.34018
G01 X-78.46794 Y28.18486
G01 X-78.61778 Y28.01650
G01 X-78.83675 Y27.74927
G01 X-79.02837 Y27.48780
G01 X-79.20030 Y27.22499
G01 X-79.29969 Y27.05981
G01 X-79.38417 Y26.91000
G01 X-79.54010 Y26.60343
G01 X-79.68305 Y26.27897
G01 X-79.80119 Y25.96672
G01 X-79.89900 Y25.65811
G01 X-79.95018 Y25.47206
G01 X-79.99573 Y25.28481
G01 X-80.03522 Y25.09619
G01 X-80.06702 Y24.91643
G01 X-80.09720 Y24.70559
G01 X-80.12046 Y24.49317
G01 X-80.13588 Y24.30943
G01 X-80.14564 Y24.12528
G01 X-80.14985 Y23.91021
G01 X-80.14899 Y18.99755
G01 X-80.13916 Y18.74164
G01 X-80.11945 Y18.49658
G01 X-80.08793 Y18.22364
G01 X-80.04447 Y17.95282
G01 X-79.99547 Y17.71399
G01 X-79.93416 Y17.46753
G01 X-79.86552 Y17.23357
G01 X-79.76888 Y16.94411
G01 X-79.67767 Y16.70710
G01 X-79.58071 Y16.48341
G01 X-79.47015 Y16.25476
G01 X-79.35501 Y16.03985
G01 X-79.22245 Y15.81112
G01 X-79.08610 Y15.59707
G01 X-78.93482 Y15.38079
G01 X-78.78054 Y15.17932
G01 X-78.57081 Y14.92928
G01 X-78.36936 Y14.71097
G01 X-76.74427 Y13.08489
G01 X-76.69657 Y13.10241
G01 X-76.74427 Y13.08489
G01 X-76.74849 Y13.05268
G01 X-76.76985 Y12.86162
G01 X-76.78656 Y12.64923
G01 X-76.79563 Y12.47531
G01 X-76.79972 Y12.29096
G01 X-76.79972 Y11.37150
G01 X-76.79347 Y11.13599
G01 X-76.78054 Y10.93152
G01 X-76.76002 Y10.71768
G01 X-76.73795 Y10.53630
G01 X-76.71036 Y10.35566
G01 X-76.65441 Y10.06665
G01 X-76.58166 Y9.77095
G01 X-76.48578 Y9.44987
G01 X-76.38824 Y9.17273
G01 X-76.27320 Y8.89145
G01 X-76.13559 Y8.59760
G01 X-75.99876 Y8.33808
G01 X-75.84402 Y8.07700
G01 X-75.68268 Y7.83138
G01 X-75.54107 Y7.63415
G01 X-75.37879 Y7.42714
G01 X-75.20089 Y7.21921
G01 X-75.02208 Y7.02630
G01 X-74.84234 Y6.84837
G01 X-74.65525 Y6.67817
G01 X-74.43031 Y6.48907
G01 X-74.22954 Y6.33524
G01 X-74.03089 Y6.19564
G01 X-73.78388 Y6.03644
G01 X-73.56554 Y5.90878
G01 X-73.33298 Y5.78589
G01 X-73.07656 Y5.66397
G01 X-72.84354 Y5.56473
G01 X-72.60123 Y5.47357
G01 X-71.27121 Y6.92600
G01 X-71.46734 Y6.71106
G01 X-71.64410 Y6.75114
G01 X-71.81007 Y6.79567
G01 X-72.00466 Y6.85505
G01 X-72.18700 Y6.91886
G01 X-72.34771 Y6.98254
G01 X-72.50585 Y7.05234
G01 X-72.68992 Y7.14154
G01 X-72.85246 Y7.22859
G01 X-73.08063 Y7.36592
G01 X-73.34278 Y7.54502
G01 X-73.55276 Y7.70882
G01 X-73.76853 Y7.89770
G01 X-73.97270 Y8.09909
G01 X-74.17074 Y8.32046
G01 X-74.33691 Y8.52856
G01 X-74.48481 Y8.73760
G01 X-74.61689 Y8.94489
G01 X-74.74265 Y9.16795
G01 X-74.86439 Y9.41583
G01 X-74.96813 Y9.65898
G01 X-75.05741 Y9.90780
G01 X-75.13876 Y10.18113
G01 X-75.19589 Y10.41870
G01 X-75.24158 Y10.66909
G01 X-75.26452 Y10.84064
G01 X-75.28479 Y11.04412
G01 X-75.29568 Y11.21791
G01 X-75.29985 Y11.39200
G01 X-75.29985 Y12.27046
G01 X-75.29474 Y12.46502
G01 X-75.28199 Y12.65921
G01 X-75.26437 Y12.83244
G01 X-75.23338 Y13.04534
G01 X-75.22213 Y13.10884
G01 X-75.21705 Y13.10884
G01 X-75.22213 Y13.10884
G01 X-75.25644 Y13.32801
G01 X-75.28608 Y13.61935
G01 X-75.29337 Y13.75527
G01 X-75.26302 Y13.76919
G01 X-75.29337 Y13.75527
G01 X-77.24404 Y15.70591
G01 X-77.42436 Y15.89710
G01 X-77.60779 Y16.11450
G01 X-77.74341 Y16.29278
G01 X-77.87549 Y16.48615
G01 X-77.98717 Y16.66847
G01 X-78.11978 Y16.90870
G01 X-78.21323 Y17.09981
G01 X-78.30510 Y17.31394
G01 X-78.37919 Y17.51338
G01 X-78.45077 Y17.73570
G01 X-78.49492 Y17.89168
G01 X-78.53563 Y18.05902
G01 X-78.56621 Y18.20789
G01 X-78.59326 Y18.36771
G01 X-78.61341 Y18.51833
G01 X-78.63479 Y18.73161
G01 X-78.64523 Y18.89516
G01 X-78.64970 Y19.05899
G01 X-78.64848 Y24.01265
G01 X-78.63479 Y24.26835
G01 X-78.60335 Y24.56172
G01 X-78.56449 Y24.80119
G01 X-78.51036 Y25.04803
G01 X-78.42788 Y25.34219
G01 X-78.34099 Y25.59393
G01 X-78.22303 Y25.87762
G01 X-78.10228 Y26.12641
G01 X-77.96647 Y26.36733
G01 X-77.80172 Y26.62443
G01 X-77.63924 Y26.84572
G01 X-77.44442 Y27.08013
G01 X-77.25115 Y27.28689
G01 X-75.18400 Y29.35402
G01 X-75.02980 Y29.50108
G01 X-74.91550 Y29.60157
G01 X-74.79784 Y29.69814
G01 X-74.63704 Y29.82278
G01 X-74.50518 Y29.91749
G01 X-74.37001 Y30.00741
G01 X-74.23168 Y30.09240
G01 X-74.09035 Y30.17233
G01 X-73.95535 Y30.24259
G01 X-73.69744 Y30.36278
G01 X-73.49139 Y30.44769
G01 X-73.26211 Y30.52854
G01 X-73.02878 Y30.59689
G01 X-72.75187 Y30.66181
G01 X-72.52180 Y30.70370
G01 X-72.27974 Y30.73463
G01 X-72.02546 Y30.75371
G01 X-71.80021 Y30.75986
G01 X-67.19303 Y30.75912
G01 X-66.96791 Y30.74937
G01 X-66.71287 Y30.72679
G01 X-66.48976 Y30.69509
G01 X-66.25478 Y30.64962
G01 X-66.25534 Y31.16031
G01 X-66.47767 Y31.19951
G01 X-66.70002 Y31.22846
G01 X-66.97388 Y31.25079
G01 X-67.19463 Y31.25922
G01 X-71.80001 Y31.25986
G01 X-72.06099 Y31.25252
G01 X-72.33318 Y31.23176
G01 X-72.59389 Y31.19849
G01 X-72.84258 Y31.15363
G01 X-73.11944 Y31.08993
G01 X-73.35373 Y31.02389
G01 X-73.59404 Y30.94309
G01 X-73.82995 Y30.85020
G01 X-74.08929 Y30.73344
G01 X-74.25253 Y30.65229
G01 X-74.41270 Y30.56527
G01 X-74.56960 Y30.47243
G01 X-74.72302 Y30.37395
G01 X-74.86452 Y30.27589
G01 X-75.00257 Y30.17299
G01 X-75.17760 Y30.03410
G01 X-75.32385 Y29.90906
G01 X-75.52319 Y29.72186
G01 X-77.59756 Y27.64760
G01 X-77.71064 Y27.53076
G01 X-77.81988 Y27.41031
G01 X-78.03378 Y27.15285
G01 X-78.21323 Y26.90843
G01 X-78.30279 Y26.77373
G01 X-78.40416 Y26.60970
G01 X-78.55334 Y26.34280
G01 X-78.69004 Y26.05799
G01 X-78.75440 Y25.90792
G01 X-78.81772 Y25.74663
G01 X-78.91569 Y25.45702
G01 X-79.00431 Y25.13297
G01 X-79.06128 Y24.86457
G01 X-79.10215 Y24.60356
G01 X-79.13474 Y24.28885
G01 X-79.14861 Y24.01265
G01 X-79.14810 Y18.96681
G01 X-79.13629 Y18.73151
G01 X-79.11419 Y18.49737
G01 X-79.08661 Y18.28617
G01 X-79.05008 Y18.07637
G01 X-79.00462 Y17.86829
G01 X-78.94757 Y17.65259
G01 X-78.87200 Y17.41002
G01 X-78.80083 Y17.20929
G01 X-78.72115 Y17.01178
G01 X-78.62875 Y16.80868
G01 X-78.53218 Y16.61886
G01 X-78.41270 Y16.40563
G01 X-78.30617 Y16.23149
G01 X-78.18679 Y16.05349
G01 X-78.06609 Y15.88887
G01 X-77.93876 Y15.72931
G01 X-77.77940 Y15.54406
G01 X-77.62621 Y15.38125
G01 X-75.78126 Y13.53607
G01 X-75.75532 Y13.54872
G01 X-75.78126 Y13.53607
G01 X-75.75405 Y13.27696
G01 X-75.72936 Y13.11092
G01 X-75.72530 Y13.11090
G01 X-75.72936 Y13.11092
G01 X-75.73952 Y13.04729
G01 X-75.76736 Y12.83508
G01 X-75.78247 Y12.67272
G01 X-75.79500 Y12.47087
G01 X-75.79987 Y12.26002
G01 X-75.79977 Y11.38177
G01 X-75.79525 Y11.19744
G01 X-75.78392 Y11.01339
G01 X-75.76076 Y10.77925
G01 X-75.73482 Y10.58708
G01 X-75.68941 Y10.33600
G01 X-75.62863 Y10.07770
G01 X-75.54605 Y9.79416
G01 X-75.45664 Y9.53630
G01 X-75.35332 Y9.28370
G01 X-75.23660 Y9.03559
G01 X-75.11720 Y8.81050
G01 X-74.98100 Y8.58319
G01 X-74.83988 Y8.37082
G01 X-74.69508 Y8.17367
G01 X-74.54743 Y7.99160
G01 X-74.37143 Y7.79325
G01 X-74.20770 Y7.62546
G01 X-74.03630 Y7.46554
G01 X-73.83465 Y7.29336
G01 X-73.64110 Y7.14378
G01 X-73.44898 Y7.00946
G01 X-73.22525 Y6.86709
G01 X-73.01266 Y6.74614
G01 X-72.79437 Y6.63567
G01 X-72.55449 Y6.52706
G01 X-72.32876 Y6.43816
G01 X-72.11830 Y6.36638
G01 X-71.85287 Y6.28863
G01 X-70.36275 Y7.91738
G01 X-70.18152 Y8.12818
G01 X-70.41802 Y8.11413
G01 X-70.61263 Y8.11446
G01 X-70.80682 Y8.12742
G01 X-71.05053 Y8.15901
G01 X-71.26133 Y8.20171
G01 X-71.48822 Y8.26488
G01 X-71.68192 Y8.33148
G01 X-71.87065 Y8.41118
G01 X-72.06343 Y8.50649
G01 X-72.24060 Y8.60930
G01 X-72.43628 Y8.74042
G01 X-72.60608 Y8.87242
G01 X-72.77466 Y9.02193
G01 X-72.91850 Y9.16775
G01 X-73.07255 Y9.34596
G01 X-73.20747 Y9.52640
G01 X-73.32469 Y9.70674
G01 X-73.41560 Y9.86711
G01 X-73.50984 Y10.06046
G01 X-73.58098 Y10.23054
G01 X-73.64151 Y10.40468
G01 X-73.70590 Y10.63122
G01 X-73.74826 Y10.83163
G01 X-73.77575 Y11.02429
G01 X-73.79292 Y11.20778
G01 X-73.79965 Y11.37150
G01 X-73.79990 Y12.26022
G01 X-73.79650 Y12.39335
G01 X-73.78243 Y12.58743
G01 X-73.75858 Y12.77026
G01 X-73.70590 Y13.03127
G01 X-73.69023 Y13.09355
G01 X-73.68055 Y13.09347
G01 X-73.69023 Y13.09355
G01 X-73.70923 Y13.17589
G01 X-73.75914 Y13.45517
G01 X-73.78151 Y13.62667
G01 X-73.79396 Y13.79916
G01 X-73.79785 Y14.10452
G01 X-73.78347 Y14.34894
G01 X-73.78182 Y14.36500
G01 X-73.73706 Y14.38199
G01 X-73.78182 Y14.36500
G01 X-76.18339 Y16.76657
G01 X-76.27544 Y16.86278
G01 X-76.46675 Y17.08991
G01 X-76.54592 Y17.19697
G01 X-76.62029 Y17.30743
G01 X-76.68969 Y17.42110
G01 X-76.77927 Y17.58213
G01 X-76.83871 Y17.70129
G01 X-76.89672 Y17.83243
G01 X-76.95529 Y17.98549
G01 X-77.00922 Y18.15097
G01 X-77.04839 Y18.28891
G01 X-77.07879 Y18.41856
G01 X-77.10345 Y18.54942
G01 X-77.12344 Y18.69143
G01 X-77.14145 Y18.87482
G01 X-77.14907 Y19.02828
G01 X-77.14966 Y23.94095
G01 X-77.14221 Y24.11491
G01 X-77.12100 Y24.32886
G01 X-77.09647 Y24.49091
G01 X-77.06076 Y24.66134
G01 X-77.00416 Y24.86884
G01 X-76.94183 Y25.05316
G01 X-76.85552 Y25.26129
G01 X-76.77046 Y25.43632
G01 X-76.65827 Y25.63170
G01 X-76.55182 Y25.79461
G01 X-76.44143 Y25.94226
G01 X-76.29606 Y26.11437
G01 X-76.18339 Y26.23337
G01 X-74.12337 Y28.29339
G01 X-74.02713 Y28.38544
G01 X-73.85530 Y28.53119
G01 X-73.72568 Y28.63121
G01 X-73.61677 Y28.70779
G01 X-73.40719 Y28.83624
G01 X-73.19714 Y28.94282
G01 X-73.02873 Y29.01749
G01 X-72.88533 Y29.07264
G01 X-72.72947 Y29.12328
G01 X-72.57108 Y29.16532
G01 X-72.39094 Y29.20436
G01 X-72.21901 Y29.23189
G01 X-72.05596 Y29.24863
G01 X-71.86165 Y29.25905
G01 X-67.19303 Y29.25879
G01 X-66.94775 Y29.24340
G01 X-66.72440 Y29.21348
G01 X-66.47381 Y29.16103
G01 X-66.25496 Y29.09801
G01 X-66.25366 Y29.62006
G01 X-66.47203 Y29.67347
G01 X-66.72232 Y29.71947
G01 X-66.94457 Y29.74510
G01 X-67.18536 Y29.75874
G01 X-71.87959 Y29.75874
G01 X-72.07979 Y29.74823
G01 X-72.24141 Y29.73294
G01 X-72.40214 Y29.71015
G01 X-72.57156 Y29.67782
G01 X-72.76894 Y29.63126
G01 X-72.93386 Y29.58363
G01 X-73.10575 Y29.52445
G01 X-73.28357 Y29.45239
G01 X-73.45030 Y29.37637
G01 X-73.57798 Y29.31236
G01 X-73.70295 Y29.24317
G01 X-73.82497 Y29.16898
G01 X-73.94387 Y29.08986
G01 X-74.05944 Y29.00594
G01 X-74.21197 Y28.88612
G01 X-74.32850 Y28.78694
G01 X-74.47691 Y28.64693
G01 X-76.54420 Y26.57965
G01 X-76.66452 Y26.45240
G01 X-76.82982 Y26.25717
G01 X-76.97506 Y26.06175
G01 X-77.11727 Y25.83909
G01 X-77.22621 Y25.64369
G01 X-77.32652 Y25.43236
G01 X-77.37820 Y25.31039
G01 X-77.42880 Y25.17729
G01 X-77.50005 Y24.95451
G01 X-77.56710 Y24.68895
G01 X-77.59875 Y24.51971
G01 X-77.62316 Y24.33907
G01 X-77.64267 Y24.12517
G01 X-77.64968 Y23.94095
G01 X-77.64894 Y19.01802
G01 X-77.64054 Y18.84411
G01 X-77.62316 Y18.66092
G01 X-77.60355 Y18.51073
G01 X-77.57940 Y18.37141
G01 X-77.54729 Y18.22336
G01 X-77.51158 Y18.08655
G01 X-77.45491 Y17.90243
G01 X-77.40515 Y17.75935
G01 X-77.34132 Y17.59999
G01 X-77.26977 Y17.44393
G01 X-77.19550 Y17.30042
G01 X-77.08976 Y17.11554
G01 X-77.00287 Y16.97906
G01 X-76.90371 Y16.83865
G01 X-76.81059 Y16.71891
G01 X-76.68511 Y16.57063
G01 X-76.54422 Y16.42031
G01 X-74.29619 Y14.17226
G01 X-74.26074 Y14.18737
G01 X-74.29619 Y14.17226
G01 X-74.29802 Y14.00632
G01 X-74.29071 Y13.72319
G01 X-74.27752 Y13.56248
G01 X-74.25845 Y13.41252
G01 X-74.21253 Y13.14148
G01 X-74.20374 Y13.09776
G01 X-74.19701 Y13.09766
G01 X-74.20374 Y13.09776
G01 X-74.22391 Y13.00292
G01 X-74.26241 Y12.78250
G01 X-74.28426 Y12.59053
G01 X-74.29751 Y12.37943
G01 X-74.29937 Y11.35103
G01 X-74.29198 Y11.17704
G01 X-74.27529 Y10.99353
G01 X-74.25040 Y10.80303
G01 X-74.21296 Y10.60430
G01 X-74.16681 Y10.41781
G01 X-74.09894 Y10.19434
G01 X-74.03290 Y10.01321
G01 X-73.95698 Y9.83602
G01 X-73.86315 Y9.64397
G01 X-73.76371 Y9.46653
G01 X-73.62017 Y9.24415
G01 X-73.48103 Y9.05614
G01 X-73.30272 Y8.84700
G01 X-73.12505 Y8.66516
G01 X-72.92729 Y8.48926
G01 X-72.73475 Y8.33925
G01 X-72.49800 Y8.18058
G01 X-72.27748 Y8.05404
G01 X-72.01164 Y7.92637
G01 X-71.88035 Y7.87215
G01 X-71.74697 Y7.82328
G01 X-71.61169 Y7.77987
G01 X-71.43585 Y7.72993
G01 X-71.29788 Y7.69727
G01 X-71.14870 Y7.66851
G01 X-70.87720 Y7.63201
G01 X-70.63857 Y7.61510
G01 X-70.51479 Y7.75165
G01 X-71.06417 Y7.15061
G01 X-71.28980 Y7.18579
G01 X-71.50905 Y7.23280
G01 X-71.76460 Y7.30374
G01 X-71.96882 Y7.37133
G01 X-72.17852 Y7.45383
G01 X-72.40135 Y7.55632
G01 X-72.58975 Y7.65454
G01 X-72.78121 Y7.76801
G01 X-72.98378 Y7.90270
G01 X-73.16213 Y8.03585
G01 X-73.35609 Y8.19889
G01 X-73.51893 Y8.35061
G01 X-73.67989 Y8.51863
G01 X-73.83861 Y8.70298
G01 X-73.98037 Y8.88749
G01 X-74.10613 Y9.07169
G01 X-74.22297 Y9.26112
G01 X-74.33366 Y9.46577
G01 X-74.44237 Y9.69635
G01 X-74.52700 Y9.90519
G01 X-74.59975 Y10.11847
G01 X-74.66962 Y10.36323
G01 X-74.72068 Y10.59104
G01 X-74.75700 Y10.81136
G01 X-74.78563 Y11.07483
G01 X-74.79830 Y11.29983
G01 X-74.79909 Y12.33091
G01 X-74.78779 Y12.56381
G01 X-74.77006 Y12.75519
G01 X-74.73457 Y12.99540
G01 X-74.71387 Y13.10256
G01 X-74.70813 Y13.10254
G01 X-74.71387 Y13.10256
G01 X-74.75766 Y13.37104
G01 X-74.77605 Y13.52255
G01 X-74.78865 Y13.67465
G01 X-74.79754 Y13.96652
G01 X-74.76439 Y13.98115
G01 X-74.79754 Y13.96652
G01 X-76.89759 Y16.06659
G01 X-77.07559 Y16.25757
G01 X-77.20599 Y16.41269
G01 X-77.30551 Y16.54106
G01 X-77.40543 Y16.68175
G01 X-77.49918 Y16.82664
G01 X-77.58163 Y16.96656
G01 X-77.68819 Y17.16273
G01 X-77.76723 Y17.32679
G01 X-77.84247 Y17.50365
G01 X-77.90912 Y17.68394
G01 X-77.97414 Y17.88691
G01 X-78.02260 Y18.06245
G01 X-78.06098 Y18.23009
G01 X-78.09215 Y18.39923
G01 X-78.11717 Y18.57959
G01 X-78.13888 Y18.80316
G01 X-78.14831 Y18.98731
G01 X-78.14942 Y23.96142
G01 X-78.13962 Y24.18657
G01 X-78.11595 Y24.43084
G01 X-78.08684 Y24.63259
G01 X-78.04752 Y24.83261
G01 X-77.97874 Y25.09909
G01 X-77.90162 Y25.33993
G01 X-77.80945 Y25.57544
G01 X-77.69080 Y25.83315
G01 X-77.56510 Y26.06418
G01 X-77.41897 Y26.29807
G01 X-77.27602 Y26.49804
G01 X-77.11486 Y26.69670
G01 X-77.00858 Y26.81722
G01 X-76.90462 Y26.92626
G01 X-74.75024 Y29.07848
G01 X-74.56785 Y29.24068
G01 X-74.34415 Y29.41744
G01 X-74.14445 Y29.55778
G01 X-73.95416 Y29.67548
G01 X-73.73036 Y29.79608
G01 X-73.47196 Y29.91569
G01 X-73.24639 Y30.00548
G01 X-73.03516 Y30.07561
G01 X-72.80069 Y30.13860
G01 X-72.53061 Y30.19539
G01 X-72.28738 Y30.23095
G01 X-72.03265 Y30.25252
G01 X-71.78998 Y30.25988
G01 X-67.19405 Y30.25907
G01 X-66.93090 Y30.24558
G01 X-66.71958 Y30.22384
G01 X-66.49974 Y30.18909
G01 X-66.25422 Y30.13677
G01 X-66.25590 Y31.66935
G01 X-66.48524 Y31.70583
G01 X-66.71716 Y31.73270
G01 X-66.97058 Y31.75142
G01 X-67.20393 Y31.75940
G01 X-71.78998 Y31.75986
G01 X-72.09437 Y31.75142
G01 X-72.38876 Y31.72869
G01 X-72.66145 Y31.69397
G01 X-72.93206 Y31.64568
G01 X-73.21984 Y31.58028
G01 X-73.47420 Y31.50989
G01 X-73.72490 Y31.42739
G01 X-73.97135 Y31.33296
G01 X-74.24133 Y31.21424
G01 X-74.41583 Y31.13034
G01 X-74.60513 Y31.03052
G01 X-74.79040 Y30.92343
G01 X-74.95433 Y30.82039
G01 X-75.11453 Y30.71165
G01 X-75.27079 Y30.59732
G01 X-75.46289 Y30.44662
G01 X-75.61771 Y30.31650
G01 X-75.74547 Y30.20146
G01 X-75.87676 Y30.07540
G01 X-77.95110 Y28.00114
G01 X-78.10660 Y27.83916
G01 X-78.33411 Y27.57716
G01 X-78.52212 Y27.33642
G01 X-78.70203 Y27.07711
G01 X-78.87769 Y26.79088
G01 X-79.03190 Y26.50500
G01 X-79.16090 Y26.22913
G01 X-79.28722 Y25.91857
G01 X-79.39146 Y25.61095
G01 X-79.44782 Y25.41537
G01 X-79.49344 Y25.23739
G01 X-79.53309 Y25.05799
G01 X-79.56672 Y24.87739
G01 X-79.59293 Y24.70587
G01 X-79.61371 Y24.53361
G01 X-79.63461 Y24.30935
G01 X-79.64566 Y24.11504
G01 X-79.64988 Y23.89998
G01 X-79.64952 Y19.03852
G01 X-79.64185 Y18.80304
G01 X-79.62410 Y18.56811
G01 X-79.59443 Y18.30512
G01 X-79.55295 Y18.04449
G01 X-79.50812 Y17.82569
G01 X-79.44912 Y17.58932
G01 X-79.38590 Y17.37515
G01 X-79.29547 Y17.10522
G01 X-79.20736 Y16.87807
G01 X-79.10927 Y16.65508
G01 X-79.00139 Y16.43664
G01 X-78.88415 Y16.22260
G01 X-78.76535 Y16.02227
G01 X-78.64389 Y15.83550
G01 X-78.50891 Y15.64569
G01 X-78.37241 Y15.46964
G01 X-78.16151 Y15.22128
G01 X-77.95834 Y15.00607
G01 X-76.26172 Y13.30942
G01 X-76.23660 Y13.32182
G01 X-76.26172 Y13.30942
G01 X-76.23594 Y13.11349
G01 X-76.23246 Y13.11110
G01 X-76.23556 Y13.11102
G01 X-76.24991 Y13.00958
G01 X-76.27272 Y12.80782
G01 X-76.28839 Y12.60505
G01 X-76.29715 Y12.42253
G01 X-76.29972 Y11.37150
G01 X-76.29390 Y11.15647
G01 X-76.27968 Y10.94184
G01 X-76.25225 Y10.67831
G01 X-76.22215 Y10.46780
G01 X-76.16939 Y10.18924
G01 X-76.10236 Y9.91375
G01 X-76.01575 Y9.62139
G01 X-75.92162 Y9.35231
G01 X-75.81364 Y9.08845
G01 X-75.68837 Y8.82117
G01 X-75.56048 Y8.57875
G01 X-75.42068 Y8.34301
G01 X-75.27574 Y8.12203
G01 X-75.12136 Y7.90799
G01 X-74.96340 Y7.70936
G01 X-74.79683 Y7.51743
G01 X-74.62258 Y7.33293
G01 X-74.44003 Y7.15668
G01 X-74.24194 Y6.98175
G01 X-74.04478 Y6.82196
G01 X-73.84047 Y6.67144
G01 X-73.62086 Y6.52442
G01 X-73.41306 Y6.39727
G01 X-73.19081 Y6.27474
G01 X-72.93529 Y6.14924
G01 X-72.71161 Y6.05086
G01 X-72.47420 Y5.95907
G01 X-72.23067 Y5.87771
G01 X-75.09020 Y2.75430
G01 X-75.40861 Y2.93068
G01 X-75.70366 Y3.10881
G01 X-76.02629 Y3.31993
G01 X-76.30765 Y3.51904
G01 X-76.57366 Y3.72189
G01 X-76.84008 Y3.94053
G01 X-77.12926 Y4.19560
G01 X-77.37912 Y4.43299
G01 X-77.62022 Y4.67929
G01 X-77.85890 Y4.94177
G01 X-78.08890 Y5.21244
G01 X-78.32075 Y5.50725
G01 X-78.52339 Y5.78604
G01 X-78.72720 Y6.08922
G01 X-78.90452 Y6.37286
G01 X-79.08153 Y6.68035
G01 X-79.23322 Y6.96709
G01 X-79.38833 Y7.28662
G01 X-79.52041 Y7.58289
G01 X-79.64231 Y7.88350
G01 X-79.75387 Y8.18810
G01 X-79.85796 Y8.50600
G01 X-79.95745 Y8.84705
G01 X-80.03995 Y9.17125
G01 X-80.11295 Y9.50808
G01 X-80.17528 Y9.85733
G01 X-80.22206 Y10.18858
G01 X-80.26164 Y10.56208
G01 X-80.28978 Y10.97674
G01 X-80.29976 Y11.39220
G01 X-80.29976 Y11.69076
G01 X-80.26357 Y11.70605
G01 X-80.29976 Y11.69076
G01 X-80.90024 Y12.29342
G01 X-81.06687 Y12.47069
G01 X-81.22224 Y12.64453
G01 X-81.39979 Y12.85347
G01 X-81.55292 Y13.04249
G01 X-81.69509 Y13.22730
G01 X-81.83268 Y13.41554
G01 X-81.96560 Y13.60708
G01 X-82.09379 Y13.80185
G01 X-82.32046 Y14.17414
G01 X-82.46011 Y14.42253
G01 X-82.57002 Y14.62954
G01 X-82.67476 Y14.83919
G01 X-82.77855 Y15.06065
G01 X-82.86864 Y15.26596
G01 X-82.95762 Y15.48277
G01 X-83.04121 Y15.70175
G01 X-83.11609 Y15.91305
G01 X-83.20453 Y16.18455
G01 X-83.26938 Y16.39915
G01 X-83.32912 Y16.61523
G01 X-83.38612 Y16.84256
G01 X-83.43537 Y17.06128
G01 X-83.48134 Y17.29110
G01 X-83.51998 Y17.51193
G01 X-83.55480 Y17.74370
G01 X-83.60794 Y18.20918
G01 X-83.63834 Y18.63385
G01 X-83.64969 Y19.05942
G01 X-83.64977 Y23.92025
G01 X-83.64492 Y24.20404
G01 X-83.63222 Y24.47745
G01 X-83.60600 Y24.81095
G01 X-83.56046 Y25.21438
G01 X-83.50710 Y25.56515
G01 X-83.44482 Y25.89380
G01 X-83.36371 Y26.24960
G01 X-83.26359 Y26.62197
G01 X-83.16247 Y26.95148
G01 X-83.04949 Y27.27709
G01 X-82.90154 Y27.65461
G01 X-82.73842 Y28.02623
G01 X-82.56501 Y28.38153
G01 X-82.38198 Y28.72047
G01 X-82.16943 Y29.07807
G01 X-81.95988 Y29.40129
G01 X-81.72536 Y29.73202
G01 X-81.48330 Y30.04459
G01 X-81.30156 Y30.26324
G01 X-81.14167 Y30.44662
G01 X-80.96321 Y30.64058
G01 X-80.78660 Y30.82234
G01 X-78.62560 Y32.98205
G01 X-78.31384 Y33.27197
G01 X-77.98153 Y33.55401
G01 X-77.72583 Y33.75538
G01 X-77.48872 Y33.93138
G01 X-77.23782 Y34.10560
G01 X-76.98143 Y34.27166
G01 X-76.71984 Y34.42940
G01 X-76.45329 Y34.57865
G01 X-76.18212 Y34.71923
G01 X-75.91580 Y34.84679
G01 X-75.62723 Y34.97572
G01 X-75.34440 Y35.09175
G01 X-75.03876 Y35.20542
G01 X-74.74885 Y35.30239
G01 X-74.45599 Y35.38997
G01 X-74.17031 Y35.46566
G01 X-73.84293 Y35.54143
G01 X-73.53475 Y35.60290
G01 X-73.12436 Y35.66848
G01 X-72.74176 Y35.71319
G01 X-72.31682 Y35.74514
G01 X-71.93189 Y35.75870
G01 X-67.19390 Y35.75942
G01 X-66.96078 Y35.75456
G01 X-66.72786 Y35.74400
G01 X-66.48475 Y35.72736
G01 X-66.24960 Y35.70580
G01 X-66.25608 Y32.16577
G01 X-66.25486 Y32.68284
G01 X-66.54660 Y32.72056
G01 X-66.90190 Y32.74911
G01 X-67.23464 Y32.75970
G01 X-71.86059 Y32.75945
G01 X-72.22345 Y32.74535
G01 X-72.43691 Y32.72871
G01 X-72.62942 Y32.70778
G01 X-72.81113 Y32.68269
G01 X-72.99206 Y32.65246
G01 X-73.36114 Y32.57494
G01 X-73.54854 Y32.52815
G01 X-73.71497 Y32.48160
G01 X-73.88974 Y32.42749
G01 X-74.06297 Y32.36849
G01 X-74.23445 Y32.30463
G01 X-74.40404 Y32.23598
G01 X-74.75639 Y32.07710
G01 X-74.96513 Y31.97235
G01 X-75.16114 Y31.86519
G01 X-75.35337 Y31.75137
G01 X-75.55001 Y31.62536
G01 X-75.74201 Y31.49239
G01 X-75.91303 Y31.36504
G01 X-76.12893 Y31.19379
G01 X-76.30782 Y31.04129
G01 X-76.45136 Y30.91048
G01 X-76.57643 Y30.78985
G01 X-78.67244 Y28.69395
G01 X-78.85354 Y28.50421
G01 X-79.01379 Y28.32270
G01 X-79.14422 Y28.16619
G01 X-79.27007 Y28.00586
G01 X-79.39085 Y27.84168
G01 X-79.51203 Y27.66527
G01 X-79.61666 Y27.50231
G01 X-79.73771 Y27.30119
G01 X-79.84223 Y27.11412
G01 X-79.93598 Y26.93284
G01 X-80.02824 Y26.73942
G01 X-80.11853 Y26.53373
G01 X-80.19512 Y26.34455
G01 X-80.26573 Y26.15303
G01 X-80.32720 Y25.96916
G01 X-80.38595 Y25.77371
G01 X-80.44452 Y25.55725
G01 X-80.49362 Y25.34917
G01 X-80.55351 Y25.03932
G01 X-80.59829 Y24.72690
G01 X-80.63278 Y24.37079
G01 X-80.64802 Y24.05362
G01 X-80.64985 Y19.09999
G01 X-80.64663 Y18.89514
G01 X-80.63278 Y18.62915
G01 X-80.60411 Y18.32369
G01 X-80.56969 Y18.06164
G01 X-80.52074 Y17.78127
G01 X-80.46197 Y17.51317
G01 X-80.39471 Y17.25757
G01 X-80.30174 Y16.95610
G01 X-80.21787 Y16.71620
G01 X-80.12079 Y16.47038
G01 X-80.00949 Y16.21950
G01 X-79.89237 Y15.98257
G01 X-79.76075 Y15.74132
G01 X-79.63179 Y15.52212
G01 X-79.49438 Y15.30815
G01 X-79.34269 Y15.09149
G01 X-79.19494 Y14.89713
G01 X-79.07287 Y14.74729
G01 X-78.92786 Y14.57820
G01 X-78.79174 Y14.42926
G01 X-78.66535 Y14.29888
G01 X-77.26827 Y12.90180
G01 X-77.22372 Y12.91880
G01 X-77.26827 Y12.90180
G01 X-77.29233 Y12.56261
G01 X-77.29972 Y12.29032
G01 X-77.29903 Y11.31006
G01 X-77.28880 Y11.03366
G01 X-77.26680 Y10.75797
G01 X-77.22997 Y10.44440
G01 X-77.18219 Y10.15329
G01 X-77.11656 Y9.84489
G01 X-77.03889 Y9.54976
G01 X-76.94242 Y9.23816
G01 X-76.83485 Y8.94113
G01 X-76.71295 Y8.64967
G01 X-76.57315 Y8.35464
G01 X-76.43465 Y8.09315
G01 X-76.27899 Y7.82958
G01 X-76.11745 Y7.58147
G01 X-75.95796 Y7.35681
G01 X-75.78908 Y7.13913
G01 X-75.61115 Y6.92861
G01 X-75.43274 Y6.73224
G01 X-75.24646 Y6.54329
G01 X-75.05263 Y6.36217
G01 X-74.83643 Y6.17517
G01 X-74.62901 Y6.00977
G01 X-74.40663 Y5.84711
G01 X-74.16051 Y5.68256
G01 X-73.94324 Y5.54891
G01 X-73.71187 Y5.41906
G01 X-73.48459 Y5.30322
G01 X-73.21619 Y5.17888
G01 X-72.96465 Y5.07502
G04 P0 ( dwell for no time -- G64 should not smooth over this point )
G00 Z1.00000 ( retract )

G00 X-71.90191 Y0.00000 ( rapid move to begin. )
G01 F20.00000
( Mill infeed pass 1/1 )
G01 Z-0.30000
G04 P0 ( dwell for no time -- G64 should not smooth over this point )
G01 F30.00000
G01 X-71.90191 Y0.00000
G01 X-73.11926 Y1.21763
G01 X-73.40028 Y1.51580
G01 X-73.62147 Y1.76969
G01 X-73.83267 Y2.03004
G01 X-74.03404 Y2.29809
G01 X-74.22528 Y2.57343
G01 X-74.37204 Y2.79923
G01 X-74.02121 Y3.18216
G01 X-73.79574 Y2.83060
G01 X-73.57278 Y2.51432
G01 X-73.32279 Y2.19273
G01 X-73.07146 Y1.89819
G01 X-72.91365 Y1.72512
G01 X-72.75830 Y1.56367
G01 X-71.19480 Y0.00000
G01 X-70.48772 Y0.00000
G01 X-72.39028 Y1.90261
G01 X-72.53793 Y2.05539
G01 X-72.68146 Y2.21204
G01 X-72.95264 Y2.53002
G01 X-73.07301 Y2.68219
G01 X-73.20773 Y2.86200
G01 X-73.33734 Y3.04549
G01 X-73.46198 Y3.23248
G01 X-73.66843 Y3.56672
G01 X-74.74128 Y3.13642
G01 X-74.93785 Y3.23990
G01 X-75.14179 Y3.35397
G01 X-75.36000 Y3.48389
G01 X-75.57447 Y3.61993
G01 X-75.81092 Y3.77863
G01 X-76.02571 Y3.93235
G01 X-76.22791 Y4.08605
G01 X-76.42568 Y4.24538
G01 X-76.64211 Y4.43045
G01 X-76.83078 Y4.60047
G01 X-77.01458 Y4.77576
G01 X-77.20040 Y4.96346
G01 X-77.37381 Y5.14904
G01 X-77.56220 Y5.36257
G01 X-77.72507 Y5.55744
G01 X-77.88239 Y5.75683
G01 X-78.03403 Y5.96059
G01 X-78.17985 Y6.16854
G01 X-78.40185 Y6.50926
G01 X-78.59377 Y6.83242
G01 X-78.77668 Y7.17238
G01 X-78.95397 Y7.53847
G01 X-79.10027 Y7.87403
G01 X-79.23629 Y8.22477
G01 X-79.35445 Y8.57123
G01 X-79.47043 Y8.96168
G01 X-79.56740 Y9.34674
G01 X-79.64546 Y9.72569
G01 X-79.70716 Y10.10763
G01 X-79.75567 Y10.52238
G01 X-79.78772 Y10.94664
G01 X-79.79677 Y11.17948
G01 X-79.79974 Y11.38210
G01 X-79.79979 Y11.89787
G01 X-79.76258 Y11.91341
G01 X-79.79979 Y11.89787
G01 X-80.58821 Y12.69053
G01 X-80.77314 Y12.89126
G01 X-80.93885 Y13.08207
G01 X-81.12051 Y13.30203
G01 X-81.30126 Y13.53553
G01 X-81.45671 Y13.74983
G01 X-81.60581 Y13.96858
G01 X-81.75374 Y14.20030
G01 X-81.88945 Y14.42761
G01 X-82.03397 Y14.68547
G01 X-82.16153 Y14.92915
G01 X-82.27728 Y15.16741
G01 X-82.39402 Y15.42766
G01 X-82.54276 Y15.79603
G01 X-82.67509 Y16.17063
G01 X-82.80103 Y16.57977
G01 X-82.85704 Y16.78625
G01 X-82.90811 Y16.99400
G01 X-82.98983 Y17.38277
G01 X-83.05429 Y17.77479
G01 X-83.10568 Y18.20987
G01 X-83.13555 Y18.59366
G01 X-83.14593 Y18.83659
G01 X-83.14980 Y19.08985
G01 X-83.14728 Y24.11270
G01 X-83.12859 Y24.51750
G01 X-83.08764 Y24.96231
G01 X-83.03481 Y25.35563
G01 X-82.96468 Y25.74623
G01 X-82.90608 Y26.01465
G01 X-82.83931 Y26.28118
G01 X-82.75927 Y26.56523
G01 X-82.67390 Y26.83657
G01 X-82.58701 Y27.08600
G01 X-82.48904 Y27.34221
G01 X-82.39143 Y27.57668
G01 X-82.26229 Y27.86426
G01 X-82.13730 Y28.11978
G01 X-82.00918 Y28.36230
G01 X-81.86857 Y28.60959
G01 X-81.71515 Y28.86161
G01 X-81.56555 Y29.09181
G01 X-81.40898 Y29.31734
G01 X-81.25178 Y29.52991
G01 X-81.08201 Y29.74566
G01 X-80.78655 Y30.09362
G01 X-80.63669 Y30.25795
G01 X-80.48282 Y30.41853
G01 X-78.32992 Y32.57174
G01 X-78.16185 Y32.73367
G01 X-78.00477 Y32.87766
G01 X-77.79012 Y33.06379
G01 X-77.58562 Y33.23049
G01 X-77.32822 Y33.42924
G01 X-77.08120 Y33.60715
G01 X-76.83683 Y33.77108
G01 X-76.59594 Y33.92170
G01 X-76.35039 Y34.06463
G01 X-76.10046 Y34.19975
G01 X-75.72710 Y34.38322
G01 X-75.47635 Y34.49625
G01 X-75.26980 Y34.58322
G01 X-75.05162 Y34.66861
G01 X-74.85050 Y34.74161
G01 X-74.65743 Y34.80666
G01 X-74.44341 Y34.87313
G01 X-74.22779 Y34.93427
G01 X-74.02060 Y34.98761
G01 X-73.77234 Y35.04507
G01 X-73.55332 Y35.09061
G01 X-73.33323 Y35.13069
G01 X-73.10217 Y35.16673
G01 X-72.87021 Y35.19675
G01 X-72.66795 Y35.21796
G01 X-72.24052 Y35.24849
G01 X-71.85142 Y35.25957
G01 X-67.26474 Y35.25977
G01 X-66.87561 Y35.25091
G01 X-66.54904 Y35.23087
G01 X-66.24937 Y35.20293
G01 X-66.24955 Y34.93308
G01 X-65.74937 Y35.20341
G01 X-65.50627 Y35.22736
G01 X-65.25293 Y35.24527
G01 X-64.98902 Y35.25629
G01 X-64.73154 Y35.25959
G01 X-64.47358 Y34.94281
G01 X-64.31724 Y34.75960
G01 X-64.81651 Y34.75932
G01 X-65.09139 Y34.75256
G01 X-65.41668 Y34.73305
G01 X-65.75008 Y34.70001
G01 X-65.75128 Y34.19610
G01 X-65.38791 Y34.23376
G01 X-65.02090 Y34.25487
G01 X-64.78608 Y34.25952
G01 X-63.88024 Y34.25962
G01 X-63.63409 Y33.97806
G01 X-63.43475 Y33.75960
G01 X-64.75537 Y33.75962
G01 X-64.95819 Y33.75660
G01 X-65.14061 Y33.74921
G01 X-65.35313 Y33.73496
G01 X-65.55506 Y33.71578
G01 X-65.75247 Y33.69168
G01 X-65.75367 Y33.18683
G01 X-65.54701 Y33.21357
G01 X-65.32433 Y33.23565
G01 X-65.11122 Y33.25007
G01 X-64.89779 Y33.25797
G01 X-63.38852 Y33.25937
G01 X-63.18453 Y33.25462
G01 X-62.96657 Y33.24294
G01 X-62.46261 Y32.68576
G01 X-62.86790 Y32.73356
G01 X-63.06155 Y32.74804
G01 X-63.25555 Y32.75675
G01 X-63.43952 Y32.75965
G01 X-64.75545 Y32.75965
G01 X-65.01049 Y32.75424
G01 X-65.25494 Y32.73963
G01 X-65.49870 Y32.71583
G01 X-65.75486 Y32.68167
G01 X-65.75605 Y32.17560
G01 X-65.36131 Y32.22795
G01 X-65.15971 Y32.24533
G01 X-64.96776 Y32.25554
G01 X-64.75534 Y32.25965
G01 X-63.39924 Y32.25945
G01 X-63.12670 Y32.25096
G01 X-62.84478 Y32.22909
G01 X-62.55273 Y32.19359
G01 X-62.28235 Y32.14875
G01 X-62.09345 Y32.10982
G01 X-61.90455 Y32.06448
G01 X-61.23851 Y31.31749
G01 X-61.40874 Y31.38462
G01 X-61.59965 Y31.45224
G01 X-61.83198 Y31.52562
G01 X-62.02713 Y31.57974
G01 X-62.21425 Y31.62447
G01 X-62.42276 Y31.66626
G01 X-62.61268 Y31.69707
G01 X-62.81407 Y31.72282
G01 X-63.08595 Y31.74764
G01 X-63.35873 Y31.75892
G01 X-64.74523 Y31.75968
G01 X-64.93807 Y31.75630
G01 X-65.14081 Y31.74543
G01 X-65.33291 Y31.72818
G01 X-65.57503 Y31.69729
G01 X-65.75590 Y31.66867
G01 X-65.75534 Y31.16036
G01 X-65.53703 Y31.19760
G01 X-65.26413 Y31.23268
G01 X-65.02032 Y31.25211
G01 X-64.79619 Y31.25942
G01 X-63.30798 Y31.25767
G01 X-62.99459 Y31.23893
G01 X-62.64100 Y31.19580
G01 X-62.35990 Y31.14444
G01 X-62.09205 Y31.07977
G01 X-61.77938 Y30.98508
G01 X-61.52007 Y30.89186
G01 X-61.25700 Y30.78025
G01 X-61.00978 Y30.65856
G01 X-60.74214 Y30.50962
G01 X-60.49528 Y30.35305
G01 X-60.74725 Y29.61963
G01 X-61.02947 Y28.87917
G01 X-61.23084 Y29.03692
G01 X-61.43163 Y29.17320
G01 X-61.63244 Y29.29042
G01 X-61.76714 Y29.36149
G01 X-61.88565 Y29.41836
G01 X-62.12865 Y29.51858
G01 X-62.37879 Y29.60164
