( pcb2gcode 2.5.0 )
( Gcode for custom )

G94 ( Inches per minute feed rate. )
G20 ( Units == INCHES. )

G90 ( Absolute coordinates. )
G00 S12000 ( RPM spindle speed. )
G64 P0.00040 ( set maximum deviation from commanded toolpath )
G01 F360.00000 ( Feedrate. )

#118 = 0
#119 = 0

(MSG, Attach the probe tool)
M0 ( Temporary machine stop. )
G0 Z0.080 ( Move Z to safe height )
G0 X4.68508 Y-3.35492 ( Move XY to start point )
G0 Z0.080 ( Move Z to probe height )
G38.2 Z-0.1 F2.362205 ( Z-probe )
#500 = 0 ( Probe point [0, 0] is our reference )
G92 Z0 ( Set the current Z as zero-value )

( We now start the real probing: move the Z axis to the probing height, move to )
( the probing XY position, probe it and save the result, parameter #2002, )
( in a numbered parameter; we will make 6 probes on the X-axis and )
( 4 probes on the Y-axis, for a grand total of 24 probes )

G0 Z0.080
X4.68508 Y-3.05545
G38.2 Z-0.1 F2.362205
#501=#2002
G0 Z0.080
X4.68508 Y-2.75598
G38.2 Z-0.1 F2.362205
#502=#2002
G0 Z0.080
X4.68508 Y-2.45650
G38.2 Z-0.1 F2.362205
#503=#2002
G0 Z0.080
X5.06904 Y-2.45650
G38.2 Z-0.1 F2.362205
#507=#2002
G0 Z0.080
X5.06904 Y-2.75598
G38.2 Z-0.1 F2.362205
#506=#2002
G0 Z0.080
X5.06904 Y-3.05545
G38.2 Z-0.1 F2.362205
#505=#2002
G0 Z0.080
X5.06904 Y-3.35492
G38.2 Z-0.1 F2.362205
#504=#2002
G0 Z0.080
X5.45301 Y-3.35492
G38.2 Z-0.1 F2.362205
#508=#2002
G0 Z0.080
X5.45301 Y-3.05545
G38.2 Z-0.1 F2.362205
#509=#2002
G0 Z0.080
X5.45301 Y-2.75598
G38.2 Z-0.1 F2.362205
#510=#2002
G0 Z0.080
X5.45301 Y-2.45650
G38.2 Z-0.1 F2.362205
#511=#2002
G0 Z0.080
X5.83697 Y-2.45650
G38.2 Z-0.1 F2.362205
#515=#2002
G0 Z0.080
X5.83697 Y-2.75598
G38.2 Z-0.1 F2.362205
#514=#2002
G0 Z0.080
X5.83697 Y-3.05545
G38.2 Z-0.1 F2.362205
#513=#2002
G0 Z0.080
X5.83697 Y-3.35492
G38.2 Z-0.1 F2.362205
#512=#2002
G0 Z0.080
X6.22094 Y-3.35492
G38.2 Z-0.1 F2.362205
#516=#2002
G0 Z0.080
X6.22094 Y-3.05545
G38.2 Z-0.1 F2.362205
#517=#2002
G0 Z0.080
X6.22094 Y-2.75598
G38.2 Z-0.1 F2.362205
#518=#2002
G0 Z0.080
X6.22094 Y-2.45650
G38.2 Z-0.1 F2.362205
#519=#2002
G0 Z0.080
X6.60490 Y-2.45650
G38.2 Z-0.1 F2.362205
#523=#2002
G0 Z0.080
X6.60490 Y-2.75598
G38.2 Z-0.1 F2.362205
#522=#2002
G0 Z0.080
X6.60490 Y-3.05545
G38.2 Z-0.1 F2.362205
#521=#2002
G0 Z0.080
X6.60490 Y-3.35492
G38.2 Z-0.1 F2.362205
#520=#2002

G0 Z0.080 ( Move Z to safe height )
( Probing has ended, each Z-coordinate will be corrected with a bilinear interpolation )
(MSG, Detach the probe tool)
M0 ( Temporary machine stop. )


G00 Z1.00000 (Retract to tool change height)
T1
M5      (Spindle stop.)
G04 P1.00000 (Wait for spindle to stop)
(MSG, Change tool bit to mill diameter 0.00000in)
M6      (Tool change.)
M0      (Temporary machine stop.)
M3 ( Spindle on clockwise. )
G04 P1.00000 (Wait for spindle to get up to speed)
G04 P0 ( dwell for no time -- G64 should not smooth over this point )
G00 Z0.08000 ( retract )

G00 X4.68508 Y-2.47619 ( rapid move to begin. )
G01 F180.00000
( Mill infeed pass 1/1 )
#111=[#502+[#503-#502]*0.93426]
G01 Z[-0.04000+#111]
G04 P0 ( dwell for no time -- G64 should not smooth over this point )
G01 F360.00000
#116=[#501+[#502-#501]*1.00000]
#117=[#505+[#506-#505]*1.00000]
#111=[#116+[#117-#116]*0.00002]
X4.68508 Y-2.75598 Z[#111+-0.04000]
#116=[#501+[#502-#501]*0.26198]
#117=[#505+[#506-#505]*0.26198]
#111=[#116+[#117-#116]*0.00004]
X4.68509 Y-2.97699 Z[#111+-0.04000]
#116=[#501+[#502-#501]*0.25531]
#117=[#505+[#506-#505]*0.25531]
#111=[#116+[#117-#116]*0.00052]
X4.68528 Y-2.97899 Z[#111+-0.04000]
#116=[#501+[#502-#501]*0.24873]
#117=[#505+[#506-#505]*0.24873]
#111=[#116+[#117-#116]*0.00153]
X4.68566 Y-2.98096 Z[#111+-0.04000]
#116=[#501+[#502-#501]*0.23736]
#117=[#505+[#506-#505]*0.23736]
#111=[#116+[#117-#116]*0.00463]
X4.68685 Y-2.98437 Z[#111+-0.04000]
#116=[#501+[#502-#501]*0.22690]
#117=[#505+[#506-#505]*0.22690]
#111=[#116+[#117-#116]*0.00931]
X4.68865 Y-2.98750 Z[#111+-0.04000]
#116=[#501+[#502-#501]*0.22162]
#117=[#505+[#506-#505]*0.22162]
#111=[#116+[#117-#116]*0.01252]
X4.68988 Y-2.98908 Z[#111+-0.04000]
#116=[#501+[#502-#501]*0.21678]
#117=[#505+[#506-#505]*0.21678]
#111=[#116+[#117-#116]*0.01614]
X4.69127 Y-2.99053 Z[#111+-0.04000]
#116=[#501+[#502-#501]*0.21245]
#117=[#505+[#506-#505]*0.21245]
#111=[#116+[#117-#116]*0.02013]
X4.69280 Y-2.99183 Z[#111+-0.04000]
#116=[#501+[#502-#501]*0.20865]
#117=[#505+[#506-#505]*0.20865]
#111=[#116+[#117-#116]*0.02444]
X4.69446 Y-2.99296 Z[#111+-0.04000]
#116=[#501+[#502-#501]*0.20331]
#117=[#505+[#506-#505]*0.20331]
#111=[#116+[#117-#116]*0.03286]
X4.69769 Y-2.99456 Z[#111+-0.04000]
#116=[#501+[#502-#501]*0.20123]
#117=[#505+[#506-#505]*0.20123]
#111=[#116+[#117-#116]*0.03783]
X4.69960 Y-2.99519 Z[#111+-0.04000]
#116=[#501+[#502-#501]*0.19980]
#117=[#505+[#506-#505]*0.19980]
#111=[#116+[#117-#116]*0.04294]
X4.70156 Y-2.99561 Z[#111+-0.04000]
#116=[#501+[#502-#501]*0.19905]
#117=[#505+[#506-#505]*0.19905]
#111=[#116+[#117-#116]*0.04813]
X4.70356 Y-2.99584 Z[#111+-0.04000]
#116=[#501+[#502-#501]*0.19899]
#117=[#505+[#506-#505]*0.19899]
#111=[#116+[#117-#116]*0.05336]
X4.70556 Y-2.99586 Z[#111+-0.04000]
#116=[#501+[#502-#501]*0.20058]
#117=[#505+[#506-#505]*0.20058]
#111=[#116+[#117-#116]*0.06268]
X4.70914 Y-2.99538 Z[#111+-0.04000]
#116=[#501+[#502-#501]*0.20432]
#117=[#505+[#506-#505]*0.20432]
#111=[#116+[#117-#116]*0.07161]
X4.71257 Y-2.99426 Z[#111+-0.04000]
#116=[#501+[#502-#501]*0.21010]
#117=[#505+[#506-#505]*0.21010]
#111=[#116+[#117-#116]*0.07986]
X4.71574 Y-2.99253 Z[#111+-0.04000]
#116=[#501+[#502-#501]*0.21771]
#117=[#505+[#506-#505]*0.21771]
#111=[#116+[#117-#116]*0.08715]
X4.71854 Y-2.99025 Z[#111+-0.04000]
#116=[#501+[#502-#501]*0.22690]
#117=[#505+[#506-#505]*0.22690]
#111=[#116+[#117-#116]*0.09323]
X4.72087 Y-2.98750 Z[#111+-0.04000]
#116=[#501+[#502-#501]*0.23614]
#117=[#505+[#506-#505]*0.23614]
#111=[#116+[#117-#116]*0.09746]
X4.72250 Y-2.98473 Z[#111+-0.04000]
#116=[#501+[#502-#501]*0.24743]
#117=[#505+[#506-#505]*0.24743]
#111=[#116+[#117-#116]*0.10074]
X4.72376 Y-2.98135 Z[#111+-0.04000]
#116=[#501+[#502-#501]*0.25930]
#117=[#505+[#506-#505]*0.25930]
#111=[#116+[#117-#116]*0.10237]
X4.72438 Y-2.97779 Z[#111+-0.04000]
#116=[#501+[#502-#501]*1.00000]
#117=[#505+[#506-#505]*1.00000]
#111=[#116+[#117-#116]*0.10252]
X4.72444 Y-2.75598 Z[#111+-0.04000]
#116=[#502+[#503-#502]*0.07348]
#117=[#506+[#507-#506]*0.07348]
#111=[#116+[#117-#116]*0.10254]
X4.72445 Y-2.73397 Z[#111+-0.04000]
#116=[#502+[#503-#502]*0.07348]
#117=[#506+[#507-#506]*0.07348]
#111=[#116+[#117-#116]*0.48534]
X4.87143 Y-2.73397 Z[#111+-0.04000]
#116=[#502+[#503-#502]*0.07398]
#117=[#506+[#507-#506]*0.07398]
#111=[#116+[#117-#116]*0.49160]
X4.87383 Y-2.73382 Z[#111+-0.04000]
#116=[#502+[#503-#502]*0.07615]
#117=[#506+[#507-#506]*0.07615]
#111=[#116+[#117-#116]*0.49978]
X4.87697 Y-2.73317 Z[#111+-0.04000]
#116=[#502+[#503-#502]*0.08059]
#117=[#506+[#507-#506]*0.08059]
#111=[#116+[#117-#116]*0.50852]
X4.88033 Y-2.73184 Z[#111+-0.04000]
#116=[#502+[#503-#502]*0.08700]
#117=[#506+[#507-#506]*0.08700]
#111=[#116+[#117-#116]*0.51648]
X4.88338 Y-2.72992 Z[#111+-0.04000]
#116=[#502+[#503-#502]*0.09418]
#117=[#506+[#507-#506]*0.09418]
#111=[#116+[#117-#116]*0.52268]
X4.88577 Y-2.72777 Z[#111+-0.04000]
#116=[#502+[#503-#502]*0.10368]
#117=[#506+[#507-#506]*0.10368]
#111=[#116+[#117-#116]*0.52847]
X4.88799 Y-2.72493 Z[#111+-0.04000]
#116=[#502+[#503-#502]*0.11437]
#117=[#506+[#507-#506]*0.11437]
#111=[#116+[#117-#116]*0.53280]
X4.88965 Y-2.72173 Z[#111+-0.04000]
#116=[#502+[#503-#502]*0.12590]
#117=[#506+[#507-#506]*0.12590]
#111=[#116+[#117-#116]*0.53554]
X4.89070 Y-2.71827 Z[#111+-0.04000]
#116=[#502+[#503-#502]*0.13654]
#117=[#506+[#507-#506]*0.13654]
#111=[#116+[#117-#116]*0.53656]
X4.89110 Y-2.71509 Z[#111+-0.04000]
#116=[#502+[#503-#502]*0.14857]
#117=[#506+[#507-#506]*0.14857]
#111=[#116+[#117-#116]*0.53608]
X4.89091 Y-2.71148 Z[#111+-0.04000]
#116=[#502+[#503-#502]*0.16029]
#117=[#506+[#507-#506]*0.16029]
#111=[#116+[#117-#116]*0.53390]
X4.89007 Y-2.70797 Z[#111+-0.04000]
#116=[#502+[#503-#502]*0.17131]
#117=[#506+[#507-#506]*0.17131]
#111=[#116+[#117-#116]*0.53008]
X4.88861 Y-2.70467 Z[#111+-0.04000]
#116=[#502+[#503-#502]*0.18124]
#117=[#506+[#507-#506]*0.18124]
#111=[#116+[#117-#116]*0.52476]
X4.88656 Y-2.70170 Z[#111+-0.04000]
#116=[#502+[#503-#502]*0.18976]
#117=[#506+[#507-#506]*0.18976]
#111=[#116+[#117-#116]*0.51811]
X4.88401 Y-2.69915 Z[#111+-0.04000]
#116=[#502+[#503-#502]*0.19659]
#117=[#506+[#507-#506]*0.19659]
#111=[#116+[#117-#116]*0.51036]
X4.88104 Y-2.69710 Z[#111+-0.04000]
#116=[#502+[#503-#502]*0.19956]
#117=[#506+[#507-#506]*0.19956]
#111=[#116+[#117-#116]*0.50568]
X4.87924 Y-2.69622 Z[#111+-0.04000]
#116=[#502+[#503-#502]*0.20190]
#117=[#506+[#507-#506]*0.20190]
#111=[#116+[#117-#116]*0.50078]
X4.87736 Y-2.69551 Z[#111+-0.04000]
#116=[#502+[#503-#502]*0.20446]
#117=[#506+[#507-#506]*0.20446]
#111=[#116+[#117-#116]*0.49160]
X4.87383 Y-2.69475 Z[#111+-0.04000]
#116=[#502+[#503-#502]*0.20495]
#117=[#506+[#507-#506]*0.20495]
#111=[#116+[#117-#116]*0.48534]
X4.87143 Y-2.69460 Z[#111+-0.04000]
#116=[#502+[#503-#502]*0.20495]
#117=[#506+[#507-#506]*0.20495]
#111=[#116+[#117-#116]*0.10254]
X4.72445 Y-2.69460 Z[#111+-0.04000]
#116=[#502+[#503-#502]*0.86853]
#117=[#506+[#507-#506]*0.86853]
#111=[#116+[#117-#116]*0.10254]
X4.72445 Y-2.49587 Z[#111+-0.04000]
#116=[#502+[#503-#502]*0.86853]
#117=[#506+[#507-#506]*0.86853]
#111=[#116+[#117-#116]*0.67137]
X4.94286 Y-2.49587 Z[#111+-0.04000]
#116=[#502+[#503-#502]*0.86941]
#117=[#506+[#507-#506]*0.86941]
#111=[#116+[#117-#116]*0.67970]
X4.94606 Y-2.49561 Z[#111+-0.04000]
#116=[#502+[#503-#502]*0.87159]
#117=[#506+[#507-#506]*0.87159]
#111=[#116+[#117-#116]*0.68681]
X4.94879 Y-2.49496 Z[#111+-0.04000]
#116=[#502+[#503-#502]*0.87564]
#117=[#506+[#507-#506]*0.87564]
#111=[#116+[#117-#116]*0.69455]
X4.95176 Y-2.49375 Z[#111+-0.04000]
#116=[#502+[#503-#502]*0.88124]
#117=[#506+[#507-#506]*0.88124]
#111=[#116+[#117-#116]*0.70167]
X4.95449 Y-2.49207 Z[#111+-0.04000]
#116=[#502+[#503-#502]*0.88826]
#117=[#506+[#507-#506]*0.88826]
#111=[#116+[#117-#116]*0.70798]
X4.95692 Y-2.48997 Z[#111+-0.04000]
#116=[#502+[#503-#502]*0.89650]
#117=[#506+[#507-#506]*0.89650]
#111=[#116+[#117-#116]*0.71333]
X4.95897 Y-2.48750 Z[#111+-0.04000]
#116=[#502+[#503-#502]*0.90454]
#117=[#506+[#507-#506]*0.90454]
#111=[#116+[#117-#116]*0.71709]
X4.96041 Y-2.48509 Z[#111+-0.04000]
#116=[#502+[#503-#502]*0.91446]
#117=[#506+[#507-#506]*0.91446]
#111=[#116+[#117-#116]*0.72025]
X4.96163 Y-2.48212 Z[#111+-0.04000]
#116=[#502+[#503-#502]*0.92491]
#117=[#506+[#507-#506]*0.92491]
#111=[#116+[#117-#116]*0.72211]
X4.96234 Y-2.47899 Z[#111+-0.04000]
#116=[#502+[#503-#502]*0.93561]
#117=[#506+[#507-#506]*0.93561]
#111=[#116+[#117-#116]*0.72262]
X4.96254 Y-2.47579 Z[#111+-0.04000]
#116=[#502+[#503-#502]*0.94627]
#117=[#506+[#507-#506]*0.94627]
#111=[#116+[#117-#116]*0.72177]
X4.96221 Y-2.47260 Z[#111+-0.04000]
#116=[#502+[#503-#502]*0.95661]
#117=[#506+[#507-#506]*0.95661]
#111=[#116+[#117-#116]*0.71958]
X4.96137 Y-2.46950 Z[#111+-0.04000]
#116=[#502+[#503-#502]*0.96635]
#117=[#506+[#507-#506]*0.96635]
#111=[#116+[#117-#116]*0.71611]
X4.96004 Y-2.46658 Z[#111+-0.04000]
#116=[#502+[#503-#502]*0.97419]
#117=[#506+[#507-#506]*0.97419]
#111=[#116+[#117-#116]*0.71209]
X4.95849 Y-2.46423 Z[#111+-0.04000]
#116=[#502+[#503-#502]*0.98215]
#117=[#506+[#507-#506]*0.98215]
#111=[#116+[#117-#116]*0.70649]
X4.95634 Y-2.46185 Z[#111+-0.04000]
#116=[#502+[#503-#502]*0.98883]
#117=[#506+[#507-#506]*0.98883]
#111=[#116+[#117-#116]*0.69996]
X4.95383 Y-2.45985 Z[#111+-0.04000]
#116=[#502+[#503-#502]*0.99406]
#117=[#506+[#507-#506]*0.99406]
#111=[#116+[#117-#116]*0.69266]
X4.95103 Y-2.45828 Z[#111+-0.04000]
#116=[#502+[#503-#502]*0.99694]
#117=[#506+[#507-#506]*0.99694]
#111=[#116+[#117-#116]*0.68681]
X4.94879 Y-2.45742 Z[#111+-0.04000]
#116=[#502+[#503-#502]*0.99863]
#117=[#506+[#507-#506]*0.99863]
#111=[#116+[#117-#116]*0.68175]
X4.94684 Y-2.45691 Z[#111+-0.04000]
#116=[#502+[#503-#502]*0.99966]
#117=[#506+[#507-#506]*0.99966]
#111=[#116+[#117-#116]*0.67659]
X4.94486 Y-2.45661 Z[#111+-0.04000]
#111=[#503+[#507-#503]*0.67137]
X4.94286 Y-2.45650 Z[#111+-0.04000]
#116=[#502+[#503-#502]*0.99994]
#117=[#506+[#507-#506]*0.99994]
#111=[#116+[#117-#116]*0.04918]
X4.70396 Y-2.45652 Z[#111+-0.04000]
#116=[#502+[#503-#502]*0.99889]
#117=[#506+[#507-#506]*0.99889]
#111=[#116+[#117-#116]*0.04191]
X4.70117 Y-2.45683 Z[#111+-0.04000]
#116=[#502+[#503-#502]*0.99694]
#117=[#506+[#507-#506]*0.99694]
#111=[#116+[#117-#116]*0.03582]
X4.69883 Y-2.45742 Z[#111+-0.04000]
#116=[#502+[#503-#502]*0.99349]
#117=[#506+[#507-#506]*0.99349]
#111=[#116+[#117-#116]*0.02902]
X4.69622 Y-2.45845 Z[#111+-0.04000]
#116=[#502+[#503-#502]*0.98883]
#117=[#506+[#507-#506]*0.98883]
#111=[#116+[#117-#116]*0.02268]
X4.69378 Y-2.45985 Z[#111+-0.04000]
#116=[#502+[#503-#502]*0.98305]
#117=[#506+[#507-#506]*0.98305]
#111=[#116+[#117-#116]*0.01691]
X4.69157 Y-2.46158 Z[#111+-0.04000]
#116=[#502+[#503-#502]*0.97629]
#117=[#506+[#507-#506]*0.97629]
#111=[#116+[#117-#116]*0.01185]
X4.68962 Y-2.46360 Z[#111+-0.04000]
#116=[#502+[#503-#502]*0.96867]
#117=[#506+[#507-#506]*0.96867]
#111=[#116+[#117-#116]*0.00758]
X4.68799 Y-2.46589 Z[#111+-0.04000]
#116=[#502+[#503-#502]*0.96157]
#117=[#506+[#507-#506]*0.96157]
#111=[#116+[#117-#116]*0.00463]
X4.68685 Y-2.46801 Z[#111+-0.04000]
#116=[#502+[#503-#502]*0.95407]
#117=[#506+[#507-#506]*0.95407]
#111=[#116+[#117-#116]*0.00238]
X4.68599 Y-2.47026 Z[#111+-0.04000]
#116=[#502+[#503-#502]*0.94758]
#117=[#506+[#507-#506]*0.94758]
#111=[#116+[#117-#116]*0.00107]
X4.68548 Y-2.47220 Z[#111+-0.04000]
#116=[#502+[#503-#502]*0.94096]
#117=[#506+[#507-#506]*0.94096]
#111=[#116+[#117-#116]*0.00027]
X4.68518 Y-2.47418 Z[#111+-0.04000]
#111=[#502+[#503-#502]*0.93426]
X4.68508 Y-2.47619 Z[#111+-0.04000]
G04 P0 ( dwell for no time -- G64 should not smooth over this point )
G00 Z0.08000 ( retract )

G00 X5.11365 Y-2.64286 ( rapid move to begin. )
G01 F180.00000
( Mill infeed pass 1/1 )
#116=[#506+[#507-#506]*0.37773]
#117=[#510+[#511-#510]*0.37773]
#111=[#116+[#117-#116]*0.11617]
G01 Z[-0.04000+#111]
G04 P0 ( dwell for no time -- G64 should not smooth over this point )
G01 F360.00000
#116=[#505+[#506-#505]*1.00000]
#117=[#509+[#510-#509]*1.00000]
#111=[#116+[#117-#116]*0.11620]
X5.11366 Y-2.75598 Z[#111+-0.04000]
#116=[#505+[#506-#505]*0.26064]
#117=[#509+[#510-#509]*0.26064]
#111=[#116+[#117-#116]*0.11627]
X5.11368 Y-2.97739 Z[#111+-0.04000]
#116=[#505+[#506-#505]*0.25398]
#117=[#509+[#510-#509]*0.25398]
#111=[#116+[#117-#116]*0.11685]
X5.11391 Y-2.97939 Z[#111+-0.04000]
#116=[#505+[#506-#505]*0.24743]
#117=[#509+[#510-#509]*0.24743]
#111=[#116+[#117-#116]*0.11797]
X5.11434 Y-2.98135 Z[#111+-0.04000]
#116=[#505+[#506-#505]*0.23614]
#117=[#509+[#510-#509]*0.23614]
#111=[#116+[#117-#116]*0.12125]
X5.11560 Y-2.98473 Z[#111+-0.04000]
#116=[#505+[#506-#505]*0.23026]
#117=[#509+[#510-#509]*0.23026]
#111=[#116+[#117-#116]*0.12376]
X5.11656 Y-2.98649 Z[#111+-0.04000]
#116=[#505+[#506-#505]*0.22474]
#117=[#509+[#510-#509]*0.22474]
#111=[#116+[#117-#116]*0.12671]
X5.11770 Y-2.98815 Z[#111+-0.04000]
#116=[#505+[#506-#505]*0.21588]
#117=[#509+[#510-#509]*0.21588]
#111=[#116+[#117-#116]*0.13309]
X5.12014 Y-2.99080 Z[#111+-0.04000]
#116=[#505+[#506-#505]*0.20865]
#117=[#509+[#510-#509]*0.20865]
#111=[#116+[#117-#116]*0.14061]
X5.12303 Y-2.99296 Z[#111+-0.04000]
#116=[#505+[#506-#505]*0.20544]
#117=[#509+[#510-#509]*0.20544]
#111=[#116+[#117-#116]*0.14520]
X5.12479 Y-2.99392 Z[#111+-0.04000]
#116=[#505+[#506-#505]*0.20284]
#117=[#509+[#510-#509]*0.20284]
#111=[#116+[#117-#116]*0.15002]
X5.12664 Y-2.99470 Z[#111+-0.04000]
#116=[#505+[#506-#505]*0.20089]
#117=[#509+[#510-#509]*0.20089]
#111=[#116+[#117-#116]*0.15502]
X5.12856 Y-2.99529 Z[#111+-0.04000]
#116=[#505+[#506-#505]*0.19960]
#117=[#509+[#510-#509]*0.19960]
#111=[#116+[#117-#116]*0.16014]
X5.13053 Y-2.99567 Z[#111+-0.04000]
#116=[#505+[#506-#505]*0.19899]
#117=[#509+[#510-#509]*0.19899]
#111=[#116+[#117-#116]*0.16535]
X5.13253 Y-2.99586 Z[#111+-0.04000]
#116=[#505+[#506-#505]*0.19905]
#117=[#509+[#510-#509]*0.19905]
#111=[#116+[#117-#116]*0.17058]
X5.13454 Y-2.99584 Z[#111+-0.04000]
#116=[#505+[#506-#505]*0.20089]
#117=[#509+[#510-#509]*0.20089]
#111=[#116+[#117-#116]*0.17987]
X5.13810 Y-2.99529 Z[#111+-0.04000]
#116=[#505+[#506-#505]*0.20432]
#117=[#509+[#510-#509]*0.20432]
#111=[#116+[#117-#116]*0.18778]
X5.14114 Y-2.99426 Z[#111+-0.04000]
#116=[#505+[#506-#505]*0.21010]
#117=[#509+[#510-#509]*0.21010]
#111=[#116+[#117-#116]*0.19603]
X5.14431 Y-2.99253 Z[#111+-0.04000]
#116=[#505+[#506-#505]*0.21771]
#117=[#509+[#510-#509]*0.21771]
#111=[#116+[#117-#116]*0.20332]
X5.14711 Y-2.99025 Z[#111+-0.04000]
#116=[#505+[#506-#505]*0.22690]
#117=[#509+[#510-#509]*0.22690]
#111=[#116+[#117-#116]*0.20940]
X5.14945 Y-2.98750 Z[#111+-0.04000]
#116=[#505+[#506-#505]*0.23614]
#117=[#509+[#510-#509]*0.23614]
#111=[#116+[#117-#116]*0.21363]
X5.15107 Y-2.98473 Z[#111+-0.04000]
#116=[#505+[#506-#505]*0.24743]
#117=[#509+[#510-#509]*0.24743]
#111=[#116+[#117-#116]*0.21692]
X5.15233 Y-2.98135 Z[#111+-0.04000]
#116=[#505+[#506-#505]*0.25930]
#117=[#509+[#510-#509]*0.25930]
#111=[#116+[#117-#116]*0.21854]
X5.15295 Y-2.97779 Z[#111+-0.04000]
#116=[#505+[#506-#505]*1.00000]
#117=[#509+[#510-#509]*1.00000]
#111=[#116+[#117-#116]*0.21870]
X5.15301 Y-2.75598 Z[#111+-0.04000]
#116=[#506+[#507-#506]*0.04420]
#117=[#510+[#511-#510]*0.04420]
#111=[#116+[#117-#116]*0.21871]
X5.15302 Y-2.74274 Z[#111+-0.04000]
#116=[#506+[#507-#506]*0.17978]
#117=[#510+[#511-#510]*0.17978]
#111=[#116+[#117-#116]*0.27158]
X5.17332 Y-2.70214 Z[#111+-0.04000]
#116=[#506+[#507-#506]*0.24420]
#117=[#510+[#511-#510]*0.24420]
#111=[#116+[#117-#116]*0.32183]
X5.19261 Y-2.68284 Z[#111+-0.04000]
#116=[#506+[#507-#506]*0.31200]
#117=[#510+[#511-#510]*0.31200]
#111=[#116+[#117-#116]*0.42758]
X5.23322 Y-2.66254 Z[#111+-0.04000]
#116=[#506+[#507-#506]*0.31222]
#117=[#510+[#511-#510]*0.31222]
#111=[#116+[#117-#116]*0.54368]
X5.27779 Y-2.66248 Z[#111+-0.04000]
#116=[#506+[#507-#506]*0.31396]
#117=[#510+[#511-#510]*0.31396]
#111=[#116+[#117-#116]*0.55192]
X5.28096 Y-2.66195 Z[#111+-0.04000]
#116=[#506+[#507-#506]*0.31739]
#117=[#510+[#511-#510]*0.31739]
#111=[#116+[#117-#116]*0.55984]
X5.28400 Y-2.66093 Z[#111+-0.04000]
#116=[#506+[#507-#506]*0.32243]
#117=[#510+[#511-#510]*0.32243]
#111=[#116+[#117-#116]*0.56722]
X5.28683 Y-2.65942 Z[#111+-0.04000]
#116=[#506+[#507-#506]*0.32894]
#117=[#510+[#511-#510]*0.32894]
#111=[#116+[#117-#116]*0.57385]
X5.28938 Y-2.65747 Z[#111+-0.04000]
#116=[#506+[#507-#506]*0.33469]
#117=[#510+[#511-#510]*0.33469]
#111=[#116+[#117-#116]*0.57824]
X5.29107 Y-2.65575 Z[#111+-0.04000]
#116=[#506+[#507-#506]*0.34107]
#117=[#510+[#511-#510]*0.34107]
#111=[#116+[#117-#116]*0.58205]
X5.29253 Y-2.65383 Z[#111+-0.04000]
#116=[#506+[#507-#506]*0.34801]
#117=[#510+[#511-#510]*0.34801]
#111=[#116+[#117-#116]*0.58522]
X5.29375 Y-2.65176 Z[#111+-0.04000]
#116=[#506+[#507-#506]*0.35666]
#117=[#510+[#511-#510]*0.35666]
#111=[#116+[#117-#116]*0.58806]
X5.29483 Y-2.64917 Z[#111+-0.04000]
#116=[#506+[#507-#506]*0.36573]
#117=[#510+[#511-#510]*0.36573]
#111=[#116+[#117-#116]*0.58990]
X5.29554 Y-2.64645 Z[#111+-0.04000]
#116=[#506+[#507-#506]*0.37371]
#117=[#510+[#511-#510]*0.37371]
#111=[#116+[#117-#116]*0.59067]
X5.29584 Y-2.64406 Z[#111+-0.04000]
#116=[#506+[#507-#506]*0.38175]
#117=[#510+[#511-#510]*0.38175]
#111=[#116+[#117-#116]*0.59067]
X5.29584 Y-2.64165 Z[#111+-0.04000]
#116=[#506+[#507-#506]*0.38973]
#117=[#510+[#511-#510]*0.38973]
#111=[#116+[#117-#116]*0.58990]
X5.29554 Y-2.63926 Z[#111+-0.04000]
#116=[#506+[#507-#506]*0.39753]
#117=[#510+[#511-#510]*0.39753]
#111=[#116+[#117-#116]*0.58838]
X5.29496 Y-2.63693 Z[#111+-0.04000]
#116=[#506+[#507-#506]*0.40625]
#117=[#510+[#511-#510]*0.40625]
#111=[#116+[#117-#116]*0.58569]
X5.29392 Y-2.63431 Z[#111+-0.04000]
#116=[#506+[#507-#506]*0.41327]
#117=[#510+[#511-#510]*0.41327]
#111=[#116+[#117-#116]*0.58263]
X5.29275 Y-2.63221 Z[#111+-0.04000]
#116=[#506+[#507-#506]*0.41975]
#117=[#510+[#511-#510]*0.41975]
#111=[#116+[#117-#116]*0.57892]
X5.29133 Y-2.63027 Z[#111+-0.04000]
#116=[#506+[#507-#506]*0.42561]
#117=[#510+[#511-#510]*0.42561]
#111=[#116+[#117-#116]*0.57462]
X5.28968 Y-2.62852 Z[#111+-0.04000]
#116=[#506+[#507-#506]*0.43075]
#117=[#510+[#511-#510]*0.43075]
#111=[#116+[#117-#116]*0.56980]
X5.28782 Y-2.62698 Z[#111+-0.04000]
#116=[#506+[#507-#506]*0.43510]
#117=[#510+[#511-#510]*0.43510]
#111=[#116+[#117-#116]*0.56452]
X5.28580 Y-2.62568 Z[#111+-0.04000]
#116=[#506+[#507-#506]*0.43859]
#117=[#510+[#511-#510]*0.43859]
#111=[#116+[#117-#116]*0.55888]
X5.28363 Y-2.62463 Z[#111+-0.04000]
#116=[#506+[#507-#506]*0.44080]
#117=[#510+[#511-#510]*0.44080]
#111=[#116+[#117-#116]*0.55394]
X5.28174 Y-2.62397 Z[#111+-0.04000]
#116=[#506+[#507-#506]*0.44236]
#117=[#510+[#511-#510]*0.44236]
#111=[#116+[#117-#116]*0.54886]
X5.27978 Y-2.62350 Z[#111+-0.04000]
#116=[#506+[#507-#506]*0.44346]
#117=[#510+[#511-#510]*0.44346]
#111=[#116+[#117-#116]*0.53950]
X5.27619 Y-2.62317 Z[#111+-0.04000]
#116=[#506+[#507-#506]*0.44345]
#117=[#510+[#511-#510]*0.44345]
#111=[#116+[#117-#116]*0.41445]
X5.22817 Y-2.62317 Z[#111+-0.04000]
#116=[#506+[#507-#506]*0.44261]
#117=[#510+[#511-#510]*0.44261]
#111=[#116+[#117-#116]*0.40725]
X5.22541 Y-2.62343 Z[#111+-0.04000]
#116=[#506+[#507-#506]*0.44048]
#117=[#510+[#511-#510]*0.44048]
#111=[#116+[#117-#116]*0.40021]
X5.22271 Y-2.62406 Z[#111+-0.04000]
#116=[#506+[#507-#506]*0.43652]
#117=[#510+[#511-#510]*0.43652]
#111=[#116+[#117-#116]*0.39255]
X5.21977 Y-2.62525 Z[#111+-0.04000]
#116=[#506+[#507-#506]*0.35447]
#117=[#510+[#511-#510]*0.35447]
#111=[#116+[#117-#116]*0.26492]
X5.17076 Y-2.64982 Z[#111+-0.04000]
#116=[#506+[#507-#506]*0.34996]
#117=[#510+[#511-#510]*0.34996]
#111=[#116+[#117-#116]*0.25984]
X5.16881 Y-2.65117 Z[#111+-0.04000]
#116=[#506+[#507-#506]*0.34563]
#117=[#510+[#511-#510]*0.34563]
#111=[#116+[#117-#116]*0.25595]
X5.16732 Y-2.65247 Z[#111+-0.04000]
#116=[#506+[#507-#506]*0.29791]
#117=[#510+[#511-#510]*0.29791]
#111=[#116+[#117-#116]*0.21871]
X5.15302 Y-2.66676 Z[#111+-0.04000]
#116=[#506+[#507-#506]*0.37907]
#117=[#510+[#511-#510]*0.37907]
#111=[#116+[#117-#116]*0.21870]
X5.15301 Y-2.64245 Z[#111+-0.04000]
#116=[#506+[#507-#506]*0.38973]
#117=[#510+[#511-#510]*0.38973]
#111=[#116+[#117-#116]*0.21785]
X5.15269 Y-2.63926 Z[#111+-0.04000]
#116=[#506+[#507-#506]*0.40133]
#117=[#510+[#511-#510]*0.40133]
#111=[#116+[#117-#116]*0.21529]
X5.15170 Y-2.63579 Z[#111+-0.04000]
#116=[#506+[#507-#506]*0.41098]
#117=[#510+[#511-#510]*0.41098]
#111=[#116+[#117-#116]*0.21167]
X5.15031 Y-2.63290 Z[#111+-0.04000]
#116=[#506+[#507-#506]*0.41975]
#117=[#510+[#511-#510]*0.41975]
#111=[#116+[#117-#116]*0.20686]
X5.14847 Y-2.63027 Z[#111+-0.04000]
#116=[#506+[#507-#506]*0.42827]
#117=[#510+[#511-#510]*0.42827]
#111=[#116+[#117-#116]*0.20022]
X5.14592 Y-2.62772 Z[#111+-0.04000]
#116=[#506+[#507-#506]*0.43229]
#117=[#510+[#511-#510]*0.43229]
#111=[#116+[#117-#116]*0.19603]
X5.14431 Y-2.62652 Z[#111+-0.04000]
#116=[#506+[#507-#506]*0.43636]
#117=[#510+[#511-#510]*0.43636]
#111=[#116+[#117-#116]*0.19062]
X5.14223 Y-2.62530 Z[#111+-0.04000]
#116=[#506+[#507-#506]*0.43955]
#117=[#510+[#511-#510]*0.43955]
#111=[#116+[#117-#116]*0.18487]
X5.14002 Y-2.62434 Z[#111+-0.04000]
#116=[#506+[#507-#506]*0.44181]
#117=[#510+[#511-#510]*0.44181]
#111=[#116+[#117-#116]*0.17885]
X5.13771 Y-2.62366 Z[#111+-0.04000]
#116=[#506+[#507-#506]*0.44312]
#117=[#510+[#511-#510]*0.44312]
#111=[#116+[#117-#116]*0.17266]
X5.13534 Y-2.62327 Z[#111+-0.04000]
#116=[#506+[#507-#506]*0.44345]
#117=[#510+[#511-#510]*0.44345]
#111=[#116+[#117-#116]*0.16640]
X5.13293 Y-2.62318 Z[#111+-0.04000]
#116=[#506+[#507-#506]*0.44279]
#117=[#510+[#511-#510]*0.44279]
#111=[#116+[#117-#116]*0.16014]
X5.13053 Y-2.62337 Z[#111+-0.04000]
#116=[#506+[#507-#506]*0.44150]
#117=[#510+[#511-#510]*0.44150]
#111=[#116+[#117-#116]*0.15502]
X5.12856 Y-2.62376 Z[#111+-0.04000]
#116=[#506+[#507-#506]*0.43908]
#117=[#510+[#511-#510]*0.43908]
#111=[#116+[#117-#116]*0.14904]
X5.12627 Y-2.62448 Z[#111+-0.04000]
#116=[#506+[#507-#506]*0.43636]
#117=[#510+[#511-#510]*0.43636]
#111=[#116+[#117-#116]*0.14426]
X5.12443 Y-2.62530 Z[#111+-0.04000]
#116=[#506+[#507-#506]*0.43229]
#117=[#510+[#511-#510]*0.43229]
#111=[#116+[#117-#116]*0.13885]
X5.12235 Y-2.62652 Z[#111+-0.04000]
#116=[#506+[#507-#506]*0.42741]
#117=[#510+[#511-#510]*0.42741]
#111=[#116+[#117-#116]*0.13387]
X5.12044 Y-2.62798 Z[#111+-0.04000]
#116=[#506+[#507-#506]*0.42178]
#117=[#510+[#511-#510]*0.42178]
#111=[#116+[#117-#116]*0.12939]
X5.11872 Y-2.62967 Z[#111+-0.04000]
#116=[#506+[#507-#506]*0.41550]
#117=[#510+[#511-#510]*0.41550]
#111=[#116+[#117-#116]*0.12548]
X5.11722 Y-2.63155 Z[#111+-0.04000]
#116=[#506+[#507-#506]*0.40982]
#117=[#510+[#511-#510]*0.40982]
#111=[#116+[#117-#116]*0.12270]
X5.11615 Y-2.63325 Z[#111+-0.04000]
#116=[#506+[#507-#506]*0.40258]
#117=[#510+[#511-#510]*0.40258]
#111=[#116+[#117-#116]*0.11998]
X5.11511 Y-2.63542 Z[#111+-0.04000]
#116=[#506+[#507-#506]*0.39625]
#117=[#510+[#511-#510]*0.39625]
#111=[#116+[#117-#116]*0.11825]
X5.11444 Y-2.63731 Z[#111+-0.04000]
#116=[#506+[#507-#506]*0.38973]
#117=[#510+[#511-#510]*0.38973]
#111=[#116+[#117-#116]*0.11703]
X5.11398 Y-2.63926 Z[#111+-0.04000]
#116=[#506+[#507-#506]*0.37773]
#117=[#510+[#511-#510]*0.37773]
#111=[#116+[#117-#116]*0.11617]
X5.11365 Y-2.64286 Z[#111+-0.04000]
G04 P0 ( dwell for no time -- G64 should not smooth over this point )
G00 Z0.08000 ( retract )

G00 X5.39936 Y-2.73809 ( rapid move to begin. )
G01 F180.00000
( Mill infeed pass 1/1 )
#116=[#506+[#507-#506]*0.05971]
#117=[#510+[#511-#510]*0.05971]
#111=[#116+[#117-#116]*0.86029]
G01 Z[-0.04000+#111]
G04 P0 ( dwell for no time -- G64 should not smooth over this point )
G01 F360.00000
#116=[#505+[#506-#505]*1.00000]
#117=[#509+[#510-#509]*1.00000]
#111=[#116+[#117-#116]*0.86032]
X5.39937 Y-2.75598 Z[#111+-0.04000]
#116=[#505+[#506-#505]*0.57607]
#117=[#509+[#510-#509]*0.57607]
#111=[#116+[#117-#116]*0.86055]
X5.39946 Y-2.88293 Z[#111+-0.04000]
#116=[#505+[#506-#505]*0.56437]
#117=[#509+[#510-#509]*0.56437]
#111=[#116+[#117-#116]*0.86231]
X5.40014 Y-2.88643 Z[#111+-0.04000]
#116=[#505+[#506-#505]*0.55448]
#117=[#509+[#510-#509]*0.55448]
#111=[#116+[#117-#116]*0.86525]
X5.40127 Y-2.88940 Z[#111+-0.04000]
#116=[#505+[#506-#505]*0.39428]
#117=[#509+[#510-#509]*0.39428]
#111=[#116+[#117-#116]*0.92771]
X5.42525 Y-2.93737 Z[#111+-0.04000]
#116=[#505+[#506-#505]*0.38741]
#117=[#509+[#510-#509]*0.38741]
#111=[#116+[#117-#116]*0.93080]
X5.42644 Y-2.93943 Z[#111+-0.04000]
#116=[#505+[#506-#505]*0.37719]
#117=[#509+[#510-#509]*0.37719]
#111=[#116+[#117-#116]*0.93731]
X5.42894 Y-2.94249 Z[#111+-0.04000]
#116=[#505+[#506-#505]*0.29769]
#117=[#509+[#510-#509]*0.29769]
#111=[#116+[#117-#116]*0.99932]
X5.45275 Y-2.96630 Z[#111+-0.04000]
#116=[#505+[#506-#505]*0.29693]
#117=[#509+[#510-#509]*0.29693]
#111=[#116+[#117-#116]*1.00000]
X5.45301 Y-2.96653 Z[#111+-0.04000]
#116=[#509+[#510-#509]*0.29163]
#117=[#513+[#514-#513]*0.29163]
#111=[#116+[#117-#116]*0.00477]
X5.45484 Y-2.96811 Z[#111+-0.04000]
#116=[#509+[#510-#509]*0.28538]
#117=[#513+[#514-#513]*0.28538]
#111=[#116+[#117-#116]*0.01265]
X5.45786 Y-2.96999 Z[#111+-0.04000]
#116=[#509+[#510-#509]*0.20587]
#117=[#513+[#514-#513]*0.20587]
#111=[#116+[#117-#116]*0.13666]
X5.50548 Y-2.99380 Z[#111+-0.04000]
#116=[#509+[#510-#509]*0.20275]
#117=[#513+[#514-#513]*0.20275]
#111=[#116+[#117-#116]*0.14237]
X5.50767 Y-2.99473 Z[#111+-0.04000]
#116=[#509+[#510-#509]*0.20026]
#117=[#513+[#514-#513]*0.20026]
#111=[#116+[#117-#116]*0.14933]
X5.51034 Y-2.99548 Z[#111+-0.04000]
#116=[#509+[#510-#509]*0.19893]
#117=[#513+[#514-#513]*0.19893]
#111=[#116+[#117-#116]*0.15959]
X5.51429 Y-2.99587 Z[#111+-0.04000]
#116=[#509+[#510-#509]*0.19893]
#117=[#513+[#514-#513]*0.19893]
#111=[#116+[#117-#116]*0.34562]
X5.58571 Y-2.99587 Z[#111+-0.04000]
#116=[#509+[#510-#509]*0.19941]
#117=[#513+[#514-#513]*0.19941]
#111=[#116+[#117-#116]*0.35181]
X5.58809 Y-2.99573 Z[#111+-0.04000]
#116=[#509+[#510-#509]*0.20153]
#117=[#513+[#514-#513]*0.20153]
#111=[#116+[#117-#116]*0.35990]
X5.59120 Y-2.99510 Z[#111+-0.04000]
#116=[#509+[#510-#509]*0.20529]
#117=[#513+[#514-#513]*0.20529]
#111=[#116+[#117-#116]*0.36762]
X5.59416 Y-2.99397 Z[#111+-0.04000]
#116=[#509+[#510-#509]*0.28538]
#117=[#513+[#514-#513]*0.28538]
#111=[#116+[#117-#116]*0.49257]
X5.64214 Y-2.96999 Z[#111+-0.04000]
#116=[#509+[#510-#509]*0.28934]
#117=[#513+[#514-#513]*0.28934]
#111=[#116+[#117-#116]*0.49792]
X5.64419 Y-2.96880 Z[#111+-0.04000]
#116=[#509+[#510-#509]*0.29769]
#117=[#513+[#514-#513]*0.29769]
#111=[#116+[#117-#116]*0.50589]
X5.64725 Y-2.96630 Z[#111+-0.04000]
#116=[#509+[#510-#509]*0.37719]
#117=[#513+[#514-#513]*0.37719]
#111=[#116+[#117-#116]*0.56790]
X5.67106 Y-2.94249 Z[#111+-0.04000]
#116=[#509+[#510-#509]*0.38417]
#117=[#513+[#514-#513]*0.38417]
#111=[#116+[#117-#116]*0.57263]
X5.67288 Y-2.94040 Z[#111+-0.04000]
#116=[#509+[#510-#509]*0.39428]
#117=[#513+[#514-#513]*0.39428]
#111=[#116+[#117-#116]*0.57750]
X5.67475 Y-2.93737 Z[#111+-0.04000]
#116=[#509+[#510-#509]*0.55448]
#117=[#513+[#514-#513]*0.55448]
#111=[#116+[#117-#116]*0.63997]
X5.69873 Y-2.88940 Z[#111+-0.04000]
#116=[#509+[#510-#509]*0.56437]
#117=[#513+[#514-#513]*0.56437]
#111=[#116+[#117-#116]*0.64290]
X5.69986 Y-2.88643 Z[#111+-0.04000]
#116=[#509+[#510-#509]*0.57344]
#117=[#513+[#514-#513]*0.57344]
#111=[#116+[#117-#116]*0.64442]
X5.70044 Y-2.88372 Z[#111+-0.04000]
#116=[#509+[#510-#509]*0.58268]
#117=[#513+[#514-#513]*0.58268]
#111=[#116+[#117-#116]*0.64493]
X5.70064 Y-2.88095 Z[#111+-0.04000]
#116=[#509+[#510-#509]*1.00000]
#117=[#513+[#514-#513]*1.00000]
#111=[#116+[#117-#116]*0.64470]
X5.70055 Y-2.75598 Z[#111+-0.04000]
#116=[#510+[#511-#510]*0.06632]
#117=[#514+[#515-#514]*0.06632]
#111=[#116+[#117-#116]*0.64467]
X5.70054 Y-2.73611 Z[#111+-0.04000]
#116=[#510+[#511-#510]*0.07417]
#117=[#514+[#515-#514]*0.07417]
#111=[#116+[#117-#116]*0.64367]
X5.70015 Y-2.73377 Z[#111+-0.04000]
#116=[#510+[#511-#510]*0.08180]
#117=[#514+[#515-#514]*0.08180]
#111=[#116+[#117-#116]*0.64195]
X5.69949 Y-2.73148 Z[#111+-0.04000]
#116=[#510+[#511-#510]*0.08792]
#117=[#514+[#515-#514]*0.08792]
#111=[#116+[#117-#116]*0.63997]
X5.69873 Y-2.72965 Z[#111+-0.04000]
#116=[#510+[#511-#510]*0.24812]
#117=[#514+[#515-#514]*0.24812]
#111=[#116+[#117-#116]*0.57750]
X5.67475 Y-2.68167 Z[#111+-0.04000]
#116=[#510+[#511-#510]*0.25927]
#117=[#514+[#515-#514]*0.25927]
#111=[#116+[#117-#116]*0.57200]
X5.67263 Y-2.67833 Z[#111+-0.04000]
#116=[#510+[#511-#510]*0.26520]
#117=[#514+[#515-#514]*0.26520]
#111=[#116+[#117-#116]*0.56790]
X5.67106 Y-2.67656 Z[#111+-0.04000]
#116=[#510+[#511-#510]*0.34471]
#117=[#514+[#515-#514]*0.34471]
#111=[#116+[#117-#116]*0.50589]
X5.64725 Y-2.65275 Z[#111+-0.04000]
#116=[#510+[#511-#510]*0.35306]
#117=[#514+[#515-#514]*0.35306]
#111=[#116+[#117-#116]*0.49792]
X5.64419 Y-2.65025 Z[#111+-0.04000]
#116=[#510+[#511-#510]*0.35702]
#117=[#514+[#515-#514]*0.35702]
#111=[#116+[#117-#116]*0.49257]
X5.64214 Y-2.64906 Z[#111+-0.04000]
#116=[#510+[#511-#510]*0.43652]
#117=[#514+[#515-#514]*0.43652]
#111=[#116+[#117-#116]*0.36855]
X5.59452 Y-2.62525 Z[#111+-0.04000]
#116=[#510+[#511-#510]*0.43964]
#117=[#514+[#515-#514]*0.43964]
#111=[#116+[#117-#116]*0.36285]
X5.59233 Y-2.62432 Z[#111+-0.04000]
#116=[#510+[#511-#510]*0.44238]
#117=[#514+[#515-#514]*0.44238]
#111=[#116+[#117-#116]*0.35487]
X5.58927 Y-2.62350 Z[#111+-0.04000]
#116=[#510+[#511-#510]*0.44345]
#117=[#514+[#515-#514]*0.44345]
#111=[#116+[#117-#116]*0.34665]
X5.58611 Y-2.62317 Z[#111+-0.04000]
#116=[#510+[#511-#510]*0.44346]
#117=[#514+[#515-#514]*0.44346]
#111=[#116+[#117-#116]*0.15959]
X5.51429 Y-2.62317 Z[#111+-0.04000]
#116=[#510+[#511-#510]*0.44213]
#117=[#514+[#515-#514]*0.44213]
#111=[#116+[#117-#116]*0.14933]
X5.51034 Y-2.62357 Z[#111+-0.04000]
#116=[#510+[#511-#510]*0.44008]
#117=[#514+[#515-#514]*0.44008]
#111=[#116+[#117-#116]*0.14334]
X5.50805 Y-2.62419 Z[#111+-0.04000]
#116=[#510+[#511-#510]*0.43766]
#117=[#514+[#515-#514]*0.43766]
#111=[#116+[#117-#116]*0.13853]
X5.50620 Y-2.62491 Z[#111+-0.04000]
#116=[#510+[#511-#510]*0.35377]
#117=[#514+[#515-#514]*0.35377]
#111=[#116+[#117-#116]*0.00816]
X5.45614 Y-2.65003 Z[#111+-0.04000]
#116=[#510+[#511-#510]*0.34996]
#117=[#514+[#515-#514]*0.34996]
#111=[#116+[#117-#116]*0.00395]
X5.45452 Y-2.65117 Z[#111+-0.04000]
#116=[#506+[#507-#506]*0.34548]
#117=[#510+[#511-#510]*0.34548]
#111=[#116+[#117-#116]*1.00000]
X5.45301 Y-2.65252 Z[#111+-0.04000]
#116=[#506+[#507-#506]*0.34471]
#117=[#510+[#511-#510]*0.34471]
#111=[#116+[#117-#116]*0.99932]
X5.45275 Y-2.65275 Z[#111+-0.04000]
#116=[#506+[#507-#506]*0.26520]
#117=[#510+[#511-#510]*0.26520]
#111=[#116+[#117-#116]*0.93731]
X5.42894 Y-2.67656 Z[#111+-0.04000]
#116=[#506+[#507-#506]*0.25822]
#117=[#510+[#511-#510]*0.25822]
#111=[#116+[#117-#116]*0.93259]
X5.42712 Y-2.67865 Z[#111+-0.04000]
#116=[#506+[#507-#506]*0.24812]
#117=[#510+[#511-#510]*0.24812]
#111=[#116+[#117-#116]*0.92771]
X5.42525 Y-2.68167 Z[#111+-0.04000]
#116=[#506+[#507-#506]*0.08792]
#117=[#510+[#511-#510]*0.08792]
#111=[#116+[#117-#116]*0.86525]
X5.40127 Y-2.72965 Z[#111+-0.04000]
#116=[#506+[#507-#506]*0.07802]
#117=[#510+[#511-#510]*0.07802]
#111=[#116+[#117-#116]*0.86231]
X5.40014 Y-2.73261 Z[#111+-0.04000]
#116=[#506+[#507-#506]*0.06896]
#117=[#510+[#511-#510]*0.06896]
#111=[#116+[#117-#116]*0.86080]
X5.39956 Y-2.73533 Z[#111+-0.04000]
#116=[#506+[#507-#506]*0.05971]
#117=[#510+[#511-#510]*0.05971]
#111=[#116+[#117-#116]*0.86029]
X5.39936 Y-2.73809 Z[#111+-0.04000]
G04 P0 ( dwell for no time -- G64 should not smooth over this point )
G00 Z0.08000 ( retract )

G00 X5.43873 Y-2.87630 ( rapid move to begin. )
G01 F180.00000
( Mill infeed pass 1/1 )
#116=[#505+[#506-#505]*0.59820]
#117=[#509+[#510-#509]*0.59820]
#111=[#116+[#117-#116]*0.96282]
G01 Z[-0.04000+#111]
G04 P0 ( dwell for no time -- G64 should not smooth over this point )
G01 F360.00000
#116=[#505+[#506-#505]*1.00000]
#117=[#509+[#510-#509]*1.00000]
#111=[#116+[#117-#116]*0.96282]
X5.43873 Y-2.75598 Z[#111+-0.04000]
#116=[#506+[#507-#506]*0.04419]
#117=[#510+[#511-#510]*0.04419]
#111=[#116+[#117-#116]*0.96282]
X5.43873 Y-2.74274 Z[#111+-0.04000]
#116=[#506+[#507-#506]*0.13952]
#117=[#510+[#511-#510]*0.13952]
#111=[#116+[#117-#116]*1.00000]
X5.45301 Y-2.71419 Z[#111+-0.04000]
#116=[#510+[#511-#510]*0.17978]
#117=[#514+[#515-#514]*0.17978]
#111=[#116+[#117-#116]*0.01570]
X5.45904 Y-2.70214 Z[#111+-0.04000]
#116=[#510+[#511-#510]*0.24420]
#117=[#514+[#515-#514]*0.24420]
#111=[#116+[#117-#116]*0.06594]
X5.47833 Y-2.68284 Z[#111+-0.04000]
#116=[#510+[#511-#510]*0.31200]
#117=[#514+[#515-#514]*0.31200]
#111=[#116+[#117-#116]*0.17169]
X5.51893 Y-2.66254 Z[#111+-0.04000]
#116=[#510+[#511-#510]*0.31200]
#117=[#514+[#515-#514]*0.31200]
#111=[#116+[#117-#116]*0.33352]
X5.58107 Y-2.66254 Z[#111+-0.04000]
#116=[#510+[#511-#510]*0.24420]
#117=[#514+[#515-#514]*0.24420]
#111=[#116+[#117-#116]*0.43927]
X5.62167 Y-2.68284 Z[#111+-0.04000]
#116=[#510+[#511-#510]*0.17978]
#117=[#514+[#515-#514]*0.17978]
#111=[#116+[#117-#116]*0.48951]
X5.64096 Y-2.70214 Z[#111+-0.04000]
#116=[#510+[#511-#510]*0.04419]
#117=[#514+[#515-#514]*0.04419]
#111=[#116+[#117-#116]*0.54239]
X5.66127 Y-2.74274 Z[#111+-0.04000]
#116=[#509+[#510-#509]*1.00000]
#117=[#513+[#514-#513]*1.00000]
#111=[#116+[#117-#116]*0.54239]
X5.66127 Y-2.75598 Z[#111+-0.04000]
#116=[#509+[#510-#509]*0.59820]
#117=[#513+[#514-#513]*0.59820]
#111=[#116+[#117-#116]*0.54239]
X5.66127 Y-2.87630 Z[#111+-0.04000]
#116=[#509+[#510-#509]*0.46261]
#117=[#513+[#514-#513]*0.46261]
#111=[#116+[#117-#116]*0.48951]
X5.64096 Y-2.91691 Z[#111+-0.04000]
#116=[#509+[#510-#509]*0.39819]
#117=[#513+[#514-#513]*0.39819]
#111=[#116+[#117-#116]*0.43927]
X5.62167 Y-2.93620 Z[#111+-0.04000]
#116=[#509+[#510-#509]*0.33040]
#117=[#513+[#514-#513]*0.33040]
#111=[#116+[#117-#116]*0.33352]
X5.58107 Y-2.95650 Z[#111+-0.04000]
#116=[#509+[#510-#509]*0.33040]
#117=[#513+[#514-#513]*0.33040]
#111=[#116+[#117-#116]*0.17170]
X5.51893 Y-2.95650 Z[#111+-0.04000]
#116=[#509+[#510-#509]*0.39819]
#117=[#513+[#514-#513]*0.39819]
#111=[#116+[#117-#116]*0.06594]
X5.47833 Y-2.93620 Z[#111+-0.04000]
#116=[#509+[#510-#509]*0.46261]
#117=[#513+[#514-#513]*0.46261]
#111=[#116+[#117-#116]*0.01570]
X5.45904 Y-2.91691 Z[#111+-0.04000]
#116=[#505+[#506-#505]*0.50287]
#117=[#509+[#510-#509]*0.50287]
#111=[#116+[#117-#116]*1.00000]
X5.45301 Y-2.90485 Z[#111+-0.04000]
#116=[#505+[#506-#505]*0.59820]
#117=[#509+[#510-#509]*0.59820]
#111=[#116+[#117-#116]*0.96282]
X5.43873 Y-2.87630 Z[#111+-0.04000]
G04 P0 ( dwell for no time -- G64 should not smooth over this point )
G00 Z0.08000 ( retract )

G00 X5.87555 Y-2.97619 ( rapid move to begin. )
G01 F180.00000
( Mill infeed pass 1/1 )
#116=[#513+[#514-#513]*0.26466]
#117=[#517+[#518-#517]*0.26466]
#111=[#116+[#117-#116]*0.10048]
G01 Z[-0.04000+#111]
G04 P0 ( dwell for no time -- G64 should not smooth over this point )
G01 F360.00000
#116=[#513+[#514-#513]*1.00000]
#117=[#517+[#518-#517]*1.00000]
#111=[#116+[#117-#116]*0.10049]
X5.87556 Y-2.75598 Z[#111+-0.04000]
#116=[#514+[#515-#514]*0.37907]
#117=[#518+[#519-#518]*0.37907]
#111=[#116+[#117-#116]*0.10049]
X5.87556 Y-2.64245 Z[#111+-0.04000]
#116=[#514+[#515-#514]*0.38709]
#117=[#518+[#519-#518]*0.38709]
#111=[#116+[#117-#116]*0.10100]
X5.87575 Y-2.64005 Z[#111+-0.04000]
#116=[#514+[#515-#514]*0.39496]
#117=[#518+[#519-#518]*0.39496]
#111=[#116+[#117-#116]*0.10227]
X5.87624 Y-2.63770 Z[#111+-0.04000]
#116=[#514+[#515-#514]*0.40258]
#117=[#518+[#519-#518]*0.40258]
#111=[#116+[#117-#116]*0.10428]
X5.87701 Y-2.63542 Z[#111+-0.04000]
#116=[#514+[#515-#514]*0.40982]
#117=[#518+[#519-#518]*0.40982]
#111=[#116+[#117-#116]*0.10700]
X5.87806 Y-2.63325 Z[#111+-0.04000]
#116=[#514+[#515-#514]*0.41658]
#117=[#518+[#519-#518]*0.41658]
#111=[#116+[#117-#116]*0.11039]
X5.87936 Y-2.63122 Z[#111+-0.04000]
#116=[#514+[#515-#514]*0.42277]
#117=[#518+[#519-#518]*0.42277]
#111=[#116+[#117-#116]*0.11440]
X5.88090 Y-2.62937 Z[#111+-0.04000]
#116=[#514+[#515-#514]*0.42827]
#117=[#518+[#519-#518]*0.42827]
#111=[#116+[#117-#116]*0.11897]
X5.88265 Y-2.62772 Z[#111+-0.04000]
#116=[#514+[#515-#514]*0.43303]
#117=[#518+[#519-#518]*0.43303]
#111=[#116+[#117-#116]*0.12403]
X5.88460 Y-2.62630 Z[#111+-0.04000]
#116=[#514+[#515-#514]*0.43752]
#117=[#518+[#519-#518]*0.43752]
#111=[#116+[#117-#116]*0.13045]
X5.88706 Y-2.62495 Z[#111+-0.04000]
#116=[#514+[#515-#514]*0.44080]
#117=[#518+[#519-#518]*0.44080]
#111=[#116+[#117-#116]*0.13730]
X5.88969 Y-2.62397 Z[#111+-0.04000]
#116=[#514+[#515-#514]*0.44279]
#117=[#518+[#519-#518]*0.44279]
#111=[#116+[#117-#116]*0.14445]
X5.89244 Y-2.62337 Z[#111+-0.04000]
#116=[#514+[#515-#514]*0.44345]
#117=[#518+[#519-#518]*0.44345]
#111=[#116+[#117-#116]*0.15279]
X5.89564 Y-2.62318 Z[#111+-0.04000]
#116=[#514+[#515-#514]*0.44259]
#117=[#518+[#519-#518]*0.44259]
#111=[#116+[#117-#116]*0.16008]
X5.89844 Y-2.62343 Z[#111+-0.04000]
#116=[#514+[#515-#514]*0.44041]
#117=[#518+[#519-#518]*0.44041]
#111=[#116+[#117-#116]*0.16719]
X5.90117 Y-2.62409 Z[#111+-0.04000]
#116=[#514+[#515-#514]*0.43695]
#117=[#518+[#519-#518]*0.43695]
#111=[#116+[#117-#116]*0.17399]
X5.90378 Y-2.62512 Z[#111+-0.04000]
#116=[#514+[#515-#514]*0.43229]
#117=[#518+[#519-#518]*0.43229]
#111=[#116+[#117-#116]*0.18034]
X5.90622 Y-2.62652 Z[#111+-0.04000]
#116=[#514+[#515-#514]*0.42652]
#117=[#518+[#519-#518]*0.42652]
#111=[#116+[#117-#116]*0.18610]
X5.90843 Y-2.62825 Z[#111+-0.04000]
#116=[#514+[#515-#514]*0.41975]
#117=[#518+[#519-#518]*0.41975]
#111=[#116+[#117-#116]*0.19117]
X5.91037 Y-2.63027 Z[#111+-0.04000]
#116=[#514+[#515-#514]*0.41213]
#117=[#518+[#519-#518]*0.41213]
#111=[#116+[#117-#116]*0.19543]
X5.91201 Y-2.63255 Z[#111+-0.04000]
#116=[#514+[#515-#514]*0.40381]
#117=[#518+[#519-#518]*0.40381]
#111=[#116+[#117-#116]*0.19881]
X5.91331 Y-2.63505 Z[#111+-0.04000]
#116=[#514+[#515-#514]*0.39625]
#117=[#518+[#519-#518]*0.39625]
#111=[#116+[#117-#116]*0.20094]
X5.91413 Y-2.63731 Z[#111+-0.04000]
#116=[#514+[#515-#514]*0.38709]
#117=[#518+[#519-#518]*0.38709]
#111=[#116+[#117-#116]*0.20249]
X5.91472 Y-2.64005 Z[#111+-0.04000]
#116=[#514+[#515-#514]*0.37907]
#117=[#518+[#519-#518]*0.37907]
#111=[#116+[#117-#116]*0.20300]
X5.91492 Y-2.64245 Z[#111+-0.04000]
#116=[#514+[#515-#514]*0.36483]
#117=[#518+[#519-#518]*0.36483]
#111=[#116+[#117-#116]*0.20301]
X5.91492 Y-2.64672 Z[#111+-0.04000]
#116=[#514+[#515-#514]*0.43710]
#117=[#518+[#519-#518]*0.43710]
#111=[#116+[#117-#116]*0.31577]
X5.95822 Y-2.62508 Z[#111+-0.04000]
#116=[#514+[#515-#514]*0.44008]
#117=[#518+[#519-#518]*0.44008]
#111=[#116+[#117-#116]*0.32152]
X5.96043 Y-2.62419 Z[#111+-0.04000]
#116=[#514+[#515-#514]*0.44238]
#117=[#518+[#519-#518]*0.44238]
#111=[#116+[#117-#116]*0.32852]
X5.96311 Y-2.62350 Z[#111+-0.04000]
#116=[#514+[#515-#514]*0.44346]
#117=[#518+[#519-#518]*0.44346]
#111=[#116+[#117-#116]*0.33777]
X5.96667 Y-2.62317 Z[#111+-0.04000]
#116=[#514+[#515-#514]*0.44346]
#117=[#518+[#519-#518]*0.44346]
#111=[#116+[#117-#116]*0.52380]
X6.03810 Y-2.62317 Z[#111+-0.04000]
#116=[#514+[#515-#514]*0.44281]
#117=[#518+[#519-#518]*0.44281]
#111=[#116+[#117-#116]*0.53101]
X6.04086 Y-2.62337 Z[#111+-0.04000]
#116=[#514+[#515-#514]*0.44048]
#117=[#518+[#519-#518]*0.44048]
#111=[#116+[#117-#116]*0.53907]
X6.04396 Y-2.62406 Z[#111+-0.04000]
#116=[#514+[#515-#514]*0.43710]
#117=[#518+[#519-#518]*0.43710]
#111=[#116+[#117-#116]*0.54580]
X6.04654 Y-2.62508 Z[#111+-0.04000]
#116=[#514+[#515-#514]*0.35642]
#117=[#518+[#519-#518]*0.35642]
#111=[#116+[#117-#116]*0.67167]
X6.09487 Y-2.64924 Z[#111+-0.04000]
#116=[#514+[#515-#514]*0.35155]
#117=[#518+[#519-#518]*0.35155]
#111=[#116+[#117-#116]*0.67780]
X6.09722 Y-2.65070 Z[#111+-0.04000]
#116=[#514+[#515-#514]*0.34654]
#117=[#518+[#519-#518]*0.34654]
#111=[#116+[#117-#116]*0.68259]
X6.09906 Y-2.65220 Z[#111+-0.04000]
#116=[#514+[#515-#514]*0.33981]
#117=[#518+[#519-#518]*0.33981]
#111=[#116+[#117-#116]*0.68753]
X6.10096 Y-2.65421 Z[#111+-0.04000]
#116=[#514+[#515-#514]*0.33338]
#117=[#518+[#519-#518]*0.33338]
#111=[#116+[#117-#116]*0.69114]
X6.10235 Y-2.65614 Z[#111+-0.04000]
#116=[#514+[#515-#514]*0.16742]
#117=[#518+[#519-#518]*0.16742]
#111=[#116+[#117-#116]*0.75614]
X6.12730 Y-2.70584 Z[#111+-0.04000]
#116=[#514+[#515-#514]*0.15496]
#117=[#518+[#519-#518]*0.15496]
#111=[#116+[#117-#116]*0.75960]
X6.12863 Y-2.70957 Z[#111+-0.04000]
#116=[#514+[#515-#514]*0.14319]
#117=[#518+[#519-#518]*0.14319]
#111=[#116+[#117-#116]*0.76100]
X6.12917 Y-2.71310 Z[#111+-0.04000]
#116=[#513+[#514-#513]*1.00000]
#117=[#517+[#518-#517]*1.00000]
#111=[#116+[#117-#116]*0.76102]
X6.12918 Y-2.75598 Z[#111+-0.04000]
#116=[#513+[#514-#513]*0.26332]
#117=[#517+[#518-#517]*0.26332]
#111=[#116+[#117-#116]*0.76108]
X6.12920 Y-2.97659 Z[#111+-0.04000]
#116=[#513+[#514-#513]*0.25531]
#117=[#517+[#518-#517]*0.25531]
#111=[#116+[#117-#116]*0.76057]
X6.12901 Y-2.97899 Z[#111+-0.04000]
#116=[#513+[#514-#513]*0.24743]
#117=[#517+[#518-#517]*0.24743]
#111=[#116+[#117-#116]*0.75930]
X6.12852 Y-2.98135 Z[#111+-0.04000]
#116=[#513+[#514-#513]*0.24107]
#117=[#517+[#518-#517]*0.24107]
#111=[#116+[#117-#116]*0.75768]
X6.12789 Y-2.98326 Z[#111+-0.04000]
#116=[#513+[#514-#513]*0.23375]
#117=[#517+[#518-#517]*0.23375]
#111=[#116+[#117-#116]*0.75507]
X6.12690 Y-2.98545 Z[#111+-0.04000]
#116=[#513+[#514-#513]*0.22690]
#117=[#517+[#518-#517]*0.22690]
#111=[#116+[#117-#116]*0.75179]
X6.12563 Y-2.98750 Z[#111+-0.04000]
#116=[#513+[#514-#513]*0.22061]
#117=[#517+[#518-#517]*0.22061]
#111=[#116+[#117-#116]*0.74788]
X6.12413 Y-2.98938 Z[#111+-0.04000]
#116=[#513+[#514-#513]*0.21588]
#117=[#517+[#518-#517]*0.21588]
#111=[#116+[#117-#116]*0.74419]
X6.12271 Y-2.99080 Z[#111+-0.04000]
#116=[#513+[#514-#513]*0.21086]
#117=[#517+[#518-#517]*0.21086]
#111=[#116+[#117-#116]*0.73928]
X6.12083 Y-2.99230 Z[#111+-0.04000]
#116=[#513+[#514-#513]*0.20665]
#117=[#517+[#518-#517]*0.20665]
#111=[#116+[#117-#116]*0.73394]
X6.11878 Y-2.99356 Z[#111+-0.04000]
#116=[#513+[#514-#513]*0.20331]
#117=[#517+[#518-#517]*0.20331]
#111=[#116+[#117-#116]*0.72823]
X6.11659 Y-2.99456 Z[#111+-0.04000]
#116=[#513+[#514-#513]*0.20058]
#117=[#517+[#518-#517]*0.20058]
#111=[#116+[#117-#116]*0.72124]
X6.11390 Y-2.99538 Z[#111+-0.04000]
#116=[#513+[#514-#513]*0.19927]
#117=[#517+[#518-#517]*0.19927]
#111=[#116+[#117-#116]*0.71505]
X6.11153 Y-2.99577 Z[#111+-0.04000]
#116=[#513+[#514-#513]*0.19895]
#117=[#517+[#518-#517]*0.19895]
#111=[#116+[#117-#116]*0.70878]
X6.10912 Y-2.99587 Z[#111+-0.04000]
#116=[#513+[#514-#513]*0.19960]
#117=[#517+[#518-#517]*0.19960]
#111=[#116+[#117-#116]*0.70253]
X6.10672 Y-2.99567 Z[#111+-0.04000]
#116=[#513+[#514-#513]*0.20159]
#117=[#517+[#518-#517]*0.20159]
#111=[#116+[#117-#116]*0.69539]
X6.10398 Y-2.99508 Z[#111+-0.04000]
#116=[#513+[#514-#513]*0.20432]
#117=[#517+[#518-#517]*0.20432]
#111=[#116+[#117-#116]*0.68949]
X6.10171 Y-2.99426 Z[#111+-0.04000]
#116=[#513+[#514-#513]*0.20796]
#117=[#517+[#518-#517]*0.20796]
#111=[#116+[#117-#116]*0.68389]
X6.09956 Y-2.99317 Z[#111+-0.04000]
#116=[#513+[#514-#513]*0.21245]
#117=[#517+[#518-#517]*0.21245]
#111=[#116+[#117-#116]*0.67869]
X6.09757 Y-2.99183 Z[#111+-0.04000]
#116=[#513+[#514-#513]*0.21771]
#117=[#517+[#518-#517]*0.21771]
#111=[#116+[#117-#116]*0.67395]
X6.09575 Y-2.99025 Z[#111+-0.04000]
#116=[#513+[#514-#513]*0.22474]
#117=[#517+[#518-#517]*0.22474]
#111=[#116+[#117-#116]*0.66910]
X6.09389 Y-2.98815 Z[#111+-0.04000]
#116=[#513+[#514-#513]*0.23257]
#117=[#517+[#518-#517]*0.23257]
#111=[#116+[#117-#116]*0.66508]
X6.09234 Y-2.98580 Z[#111+-0.04000]
#116=[#513+[#514-#513]*0.23982]
#117=[#517+[#518-#517]*0.23982]
#111=[#116+[#117-#116]*0.66237]
X6.09130 Y-2.98363 Z[#111+-0.04000]
#116=[#513+[#514-#513]*0.24743]
#117=[#517+[#518-#517]*0.24743]
#111=[#116+[#117-#116]*0.66035]
X6.09053 Y-2.98135 Z[#111+-0.04000]
#116=[#513+[#514-#513]*0.25664]
#117=[#517+[#518-#517]*0.25664]
#111=[#116+[#117-#116]*0.65895]
X6.08999 Y-2.97859 Z[#111+-0.04000]
#116=[#513+[#514-#513]*0.26466]
#117=[#517+[#518-#517]*0.26466]
#111=[#116+[#117-#116]*0.65856]
X6.08984 Y-2.97619 Z[#111+-0.04000]
#116=[#513+[#514-#513]*1.00000]
#117=[#517+[#518-#517]*1.00000]
#111=[#116+[#117-#116]*0.65856]
X6.08984 Y-2.75598 Z[#111+-0.04000]
#116=[#514+[#515-#514]*0.12370]
#117=[#518+[#519-#518]*0.12370]
#111=[#116+[#117-#116]*0.65856]
X6.08984 Y-2.71893 Z[#111+-0.04000]
#116=[#514+[#515-#514]*0.24923]
#117=[#518+[#519-#518]*0.24923]
#111=[#116+[#117-#116]*0.60961]
X6.07104 Y-2.68134 Z[#111+-0.04000]
#116=[#514+[#515-#514]*0.31200]
#117=[#518+[#519-#518]*0.31200]
#111=[#116+[#117-#116]*0.51170]
X6.03345 Y-2.66254 Z[#111+-0.04000]
#116=[#514+[#515-#514]*0.31200]
#117=[#518+[#519-#518]*0.31200]
#111=[#116+[#117-#116]*0.34987]
X5.97131 Y-2.66254 Z[#111+-0.04000]
#116=[#514+[#515-#514]*0.24420]
#117=[#518+[#519-#518]*0.24420]
#111=[#116+[#117-#116]*0.24412]
X5.93071 Y-2.68284 Z[#111+-0.04000]
#116=[#514+[#515-#514]*0.19149]
#117=[#518+[#519-#518]*0.19149]
#111=[#116+[#117-#116]*0.20301]
X5.91492 Y-2.69863 Z[#111+-0.04000]
#116=[#513+[#514-#513]*1.00000]
#117=[#517+[#518-#517]*1.00000]
#111=[#116+[#117-#116]*0.20301]
X5.91492 Y-2.75598 Z[#111+-0.04000]
#116=[#513+[#514-#513]*0.26466]
#117=[#517+[#518-#517]*0.26466]
#111=[#116+[#117-#116]*0.20301]
X5.91492 Y-2.97619 Z[#111+-0.04000]
#116=[#513+[#514-#513]*0.25664]
#117=[#517+[#518-#517]*0.25664]
#111=[#116+[#117-#116]*0.20263]
X5.91477 Y-2.97859 Z[#111+-0.04000]
#116=[#513+[#514-#513]*0.24615]
#117=[#517+[#518-#517]*0.24615]
#111=[#116+[#117-#116]*0.20094]
X5.91413 Y-2.98174 Z[#111+-0.04000]
#116=[#513+[#514-#513]*0.23736]
#117=[#517+[#518-#517]*0.23736]
#111=[#116+[#117-#116]*0.19838]
X5.91314 Y-2.98437 Z[#111+-0.04000]
#116=[#513+[#514-#513]*0.22800]
#117=[#517+[#518-#517]*0.22800]
#111=[#116+[#117-#116]*0.19430]
X5.91158 Y-2.98717 Z[#111+-0.04000]
#116=[#513+[#514-#513]*0.22061]
#117=[#517+[#518-#517]*0.22061]
#111=[#116+[#117-#116]*0.18980]
X5.90985 Y-2.98938 Z[#111+-0.04000]
#116=[#513+[#514-#513]*0.21412]
#117=[#517+[#518-#517]*0.21412]
#111=[#116+[#117-#116]*0.18452]
X5.90782 Y-2.99133 Z[#111+-0.04000]
#116=[#513+[#514-#513]*0.20796]
#117=[#517+[#518-#517]*0.20796]
#111=[#116+[#117-#116]*0.17768]
X5.90520 Y-2.99317 Z[#111+-0.04000]
#116=[#513+[#514-#513]*0.20331]
#117=[#517+[#518-#517]*0.20331]
#111=[#116+[#117-#116]*0.17015]
X5.90230 Y-2.99456 Z[#111+-0.04000]
#116=[#513+[#514-#513]*0.20058]
#117=[#517+[#518-#517]*0.20058]
#111=[#116+[#117-#116]*0.16315]
X5.89962 Y-2.99538 Z[#111+-0.04000]
#116=[#513+[#514-#513]*0.19905]
#117=[#517+[#518-#517]*0.19905]
#111=[#116+[#117-#116]*0.15488]
X5.89644 Y-2.99584 Z[#111+-0.04000]
#116=[#513+[#514-#513]*0.19915]
#117=[#517+[#518-#517]*0.19915]
#111=[#116+[#117-#116]*0.14757]
X5.89363 Y-2.99581 Z[#111+-0.04000]
#116=[#513+[#514-#513]*0.20089]
#117=[#517+[#518-#517]*0.20089]
#111=[#116+[#117-#116]*0.13932]
X5.89047 Y-2.99529 Z[#111+-0.04000]
#116=[#513+[#514-#513]*0.20381]
#117=[#517+[#518-#517]*0.20381]
#111=[#116+[#117-#116]*0.13237]
X5.88780 Y-2.99441 Z[#111+-0.04000]
#116=[#513+[#514-#513]*0.20865]
#117=[#517+[#518-#517]*0.20865]
#111=[#116+[#117-#116]*0.12491]
X5.88493 Y-2.99296 Z[#111+-0.04000]
#116=[#513+[#514-#513]*0.21412]
#117=[#517+[#518-#517]*0.21412]
#111=[#116+[#117-#116]*0.11897]
X5.88265 Y-2.99133 Z[#111+-0.04000]
#116=[#513+[#514-#513]*0.22061]
#117=[#517+[#518-#517]*0.22061]
#111=[#116+[#117-#116]*0.11369]
X5.88063 Y-2.98938 Z[#111+-0.04000]
#116=[#513+[#514-#513]*0.22913]
#117=[#517+[#518-#517]*0.22913]
#111=[#116+[#117-#116]*0.10862]
X5.87868 Y-2.98683 Z[#111+-0.04000]
#116=[#513+[#514-#513]*0.23736]
#117=[#517+[#518-#517]*0.23736]
#111=[#116+[#117-#116]*0.10511]
X5.87733 Y-2.98437 Z[#111+-0.04000]
#116=[#513+[#514-#513]*0.24615]
#117=[#517+[#518-#517]*0.24615]
#111=[#116+[#117-#116]*0.10255]
X5.87635 Y-2.98174 Z[#111+-0.04000]
#116=[#513+[#514-#513]*0.25531]
#117=[#517+[#518-#517]*0.25531]
#111=[#116+[#117-#116]*0.10100]
X5.87575 Y-2.97899 Z[#111+-0.04000]
#116=[#513+[#514-#513]*0.26466]
#117=[#517+[#518-#517]*0.26466]
#111=[#116+[#117-#116]*0.10048]
X5.87555 Y-2.97619 Z[#111+-0.04000]
G04 P0 ( dwell for no time -- G64 should not smooth over this point )
G00 Z0.08000 ( retract )

G00 X6.25652 Y-2.64366 ( rapid move to begin. )
G01 F180.00000
( Mill infeed pass 1/1 )
#116=[#518+[#519-#518]*0.37505]
#117=[#522+[#523-#522]*0.37505]
#111=[#116+[#117-#116]*0.09267]
G01 Z[-0.04000+#111]
G04 P0 ( dwell for no time -- G64 should not smooth over this point )
G01 F360.00000
#116=[#518+[#519-#518]*0.36838]
#117=[#522+[#523-#522]*0.36838]
#111=[#116+[#117-#116]*0.09315]
X6.25671 Y-2.64566 Z[#111+-0.04000]
#116=[#518+[#519-#518]*0.36180]
#117=[#522+[#523-#522]*0.36180]
#111=[#116+[#117-#116]*0.09416]
X6.25709 Y-2.64763 Z[#111+-0.04000]
#116=[#518+[#519-#518]*0.35413]
#117=[#522+[#523-#522]*0.35413]
#111=[#116+[#117-#116]*0.09605]
X6.25782 Y-2.64992 Z[#111+-0.04000]
#116=[#518+[#519-#518]*0.34564]
#117=[#522+[#523-#522]*0.34564]
#111=[#116+[#117-#116]*0.09915]
X6.25901 Y-2.65247 Z[#111+-0.04000]
#116=[#518+[#519-#518]*0.33781]
#117=[#522+[#523-#522]*0.33781]
#111=[#116+[#117-#116]*0.10317]
X6.26055 Y-2.65481 Z[#111+-0.04000]
#116=[#518+[#519-#518]*0.33078]
#117=[#522+[#523-#522]*0.33078]
#111=[#116+[#117-#116]*0.10802]
X6.26241 Y-2.65692 Z[#111+-0.04000]
#116=[#518+[#519-#518]*0.32471]
#117=[#522+[#523-#522]*0.32471]
#111=[#116+[#117-#116]*0.11359]
X6.26455 Y-2.65874 Z[#111+-0.04000]
#116=[#518+[#519-#518]*0.31972]
#117=[#522+[#523-#522]*0.31972]
#111=[#116+[#117-#116]*0.11979]
X6.26693 Y-2.66023 Z[#111+-0.04000]
#116=[#518+[#519-#518]*0.31591]
#117=[#522+[#523-#522]*0.31591]
#111=[#116+[#117-#116]*0.12647]
X6.26950 Y-2.66137 Z[#111+-0.04000]
#116=[#518+[#519-#518]*0.31336]
#117=[#522+[#523-#522]*0.31336]
#111=[#116+[#117-#116]*0.13351]
X6.27220 Y-2.66213 Z[#111+-0.04000]
#116=[#518+[#519-#518]*0.31234]
#117=[#522+[#523-#522]*0.31234]
#111=[#116+[#117-#116]*0.13868]
X6.27419 Y-2.66244 Z[#111+-0.04000]
#116=[#518+[#519-#518]*0.31200]
#117=[#522+[#523-#522]*0.31200]
#111=[#116+[#117-#116]*0.14390]
X6.27619 Y-2.66254 Z[#111+-0.04000]
#116=[#518+[#519-#518]*0.31200]
#117=[#522+[#523-#522]*0.31200]
#111=[#116+[#117-#116]*0.27866]
X6.32793 Y-2.66254 Z[#111+-0.04000]
#116=[#517+[#518-#517]*1.00000]
#117=[#521+[#522-#521]*1.00000]
#111=[#116+[#117-#116]*0.27872]
X6.32796 Y-2.75598 Z[#111+-0.04000]
#116=[#517+[#518-#517]*0.49788]
#117=[#521+[#522-#521]*0.49788]
#111=[#116+[#117-#116]*0.27882]
X6.32800 Y-2.90635 Z[#111+-0.04000]
#116=[#517+[#518-#517]*0.48615]
#117=[#521+[#522-#521]*0.48615]
#111=[#116+[#117-#116]*0.28041]
X6.32861 Y-2.90986 Z[#111+-0.04000]
#116=[#517+[#518-#517]*0.47497]
#117=[#521+[#522-#521]*0.47497]
#111=[#116+[#117-#116]*0.28362]
X6.32984 Y-2.91321 Z[#111+-0.04000]
#116=[#517+[#518-#517]*0.30902]
#117=[#521+[#522-#521]*0.30902]
#111=[#116+[#117-#116]*0.34861]
X6.35479 Y-2.96291 Z[#111+-0.04000]
#116=[#517+[#518-#517]*0.30259]
#117=[#521+[#522-#521]*0.30259]
#111=[#116+[#117-#116]*0.35223]
X6.35618 Y-2.96483 Z[#111+-0.04000]
#116=[#517+[#518-#517]*0.29676]
#117=[#521+[#522-#521]*0.29676]
#111=[#116+[#117-#116]*0.35642]
X6.35779 Y-2.96658 Z[#111+-0.04000]
#116=[#517+[#518-#517]*0.29084]
#117=[#521+[#522-#521]*0.29084]
#111=[#116+[#117-#116]*0.36196]
X6.35992 Y-2.96835 Z[#111+-0.04000]
#116=[#517+[#518-#517]*0.28661]
#117=[#521+[#522-#521]*0.28661]
#111=[#116+[#117-#116]*0.36718]
X6.36192 Y-2.96962 Z[#111+-0.04000]
#116=[#517+[#518-#517]*0.20587]
#117=[#521+[#522-#521]*0.20587]
#111=[#116+[#117-#116]*0.49303]
X6.41024 Y-2.99380 Z[#111+-0.04000]
#116=[#517+[#518-#517]*0.20321]
#117=[#521+[#522-#521]*0.20321]
#111=[#116+[#117-#116]*0.49775]
X6.41206 Y-2.99459 Z[#111+-0.04000]
#116=[#517+[#518-#517]*0.20085]
#117=[#521+[#522-#521]*0.20085]
#111=[#116+[#117-#116]*0.50367]
X6.41433 Y-2.99530 Z[#111+-0.04000]
#116=[#517+[#518-#517]*0.19941]
#117=[#521+[#522-#521]*0.19941]
#111=[#116+[#117-#116]*0.50977]
X6.41667 Y-2.99573 Z[#111+-0.04000]
#116=[#517+[#518-#517]*0.19894]
#117=[#521+[#522-#521]*0.19894]
#111=[#116+[#117-#116]*0.51492]
X6.41865 Y-2.99587 Z[#111+-0.04000]
#116=[#517+[#518-#517]*0.19899]
#117=[#521+[#522-#521]*0.19899]
#111=[#116+[#117-#116]*0.64206]
X6.46747 Y-2.99586 Z[#111+-0.04000]
#116=[#517+[#518-#517]*0.19980]
#117=[#521+[#522-#521]*0.19980]
#111=[#116+[#117-#116]*0.64830]
X6.46986 Y-2.99561 Z[#111+-0.04000]
#116=[#517+[#518-#517]*0.20159]
#117=[#521+[#522-#521]*0.20159]
#111=[#116+[#117-#116]*0.65441]
X6.47221 Y-2.99508 Z[#111+-0.04000]
#116=[#517+[#518-#517]*0.20432]
#117=[#521+[#522-#521]*0.20432]
#111=[#116+[#117-#116]*0.66031]
X6.47448 Y-2.99426 Z[#111+-0.04000]
#116=[#517+[#518-#517]*0.20865]
#117=[#521+[#522-#521]*0.20865]
#111=[#116+[#117-#116]*0.66680]
X6.47697 Y-2.99296 Z[#111+-0.04000]
#116=[#517+[#518-#517]*0.21327]
#117=[#521+[#522-#521]*0.21327]
#111=[#116+[#117-#116]*0.67194]
X6.47894 Y-2.99158 Z[#111+-0.04000]
#116=[#517+[#518-#517]*0.21866]
#117=[#521+[#522-#521]*0.21866]
#111=[#116+[#117-#116]*0.67659]
X6.48073 Y-2.98997 Z[#111+-0.04000]
#116=[#517+[#518-#517]*0.22474]
#117=[#521+[#522-#521]*0.22474]
#111=[#116+[#117-#116]*0.68070]
X6.48230 Y-2.98815 Z[#111+-0.04000]
#116=[#517+[#518-#517]*0.23026]
#117=[#521+[#522-#521]*0.23026]
#111=[#116+[#117-#116]*0.68366]
X6.48344 Y-2.98649 Z[#111+-0.04000]
#116=[#517+[#518-#517]*0.23736]
#117=[#521+[#522-#521]*0.23736]
#111=[#116+[#117-#116]*0.68661]
X6.48457 Y-2.98437 Z[#111+-0.04000]
#116=[#517+[#518-#517]*0.24486]
#117=[#521+[#522-#521]*0.24486]
#111=[#116+[#117-#116]*0.68886]
X6.48544 Y-2.98212 Z[#111+-0.04000]
#116=[#517+[#518-#517]*0.25266]
#117=[#521+[#522-#521]*0.25266]
#111=[#116+[#117-#116]*0.69038]
X6.48602 Y-2.97978 Z[#111+-0.04000]
#116=[#517+[#518-#517]*0.26064]
#117=[#521+[#522-#521]*0.26064]
#111=[#116+[#117-#116]*0.69114]
X6.48631 Y-2.97739 Z[#111+-0.04000]
#116=[#517+[#518-#517]*0.26868]
#117=[#521+[#522-#521]*0.26868]
#111=[#116+[#117-#116]*0.69114]
X6.48631 Y-2.97499 Z[#111+-0.04000]
#116=[#517+[#518-#517]*0.27666]
#117=[#521+[#522-#521]*0.27666]
#111=[#116+[#117-#116]*0.69038]
X6.48602 Y-2.97260 Z[#111+-0.04000]
#116=[#517+[#518-#517]*0.28318]
#117=[#521+[#522-#521]*0.28318]
#111=[#116+[#117-#116]*0.68916]
X6.48555 Y-2.97064 Z[#111+-0.04000]
#116=[#517+[#518-#517]*0.29074]
#117=[#521+[#522-#521]*0.29074]
#111=[#116+[#117-#116]*0.68703]
X6.48473 Y-2.96838 Z[#111+-0.04000]
#116=[#517+[#518-#517]*0.29792]
#117=[#521+[#522-#521]*0.29792]
#111=[#116+[#117-#116]*0.68420]
X6.48365 Y-2.96623 Z[#111+-0.04000]
#116=[#517+[#518-#517]*0.30459]
#117=[#521+[#522-#521]*0.30459]
#111=[#116+[#117-#116]*0.68070]
X6.48230 Y-2.96423 Z[#111+-0.04000]
#116=[#517+[#518-#517]*0.31067]
#117=[#521+[#522-#521]*0.31067]
#111=[#116+[#117-#116]*0.67659]
X6.48073 Y-2.96241 Z[#111+-0.04000]
#116=[#517+[#518-#517]*0.31521]
#117=[#521+[#522-#521]*0.31521]
#111=[#116+[#117-#116]*0.67275]
X6.47925 Y-2.96105 Z[#111+-0.04000]
#116=[#517+[#518-#517]*0.32067]
#117=[#521+[#522-#521]*0.32067]
#111=[#116+[#117-#116]*0.66680]
X6.47697 Y-2.95942 Z[#111+-0.04000]
#116=[#517+[#518-#517]*0.32552]
#117=[#521+[#522-#521]*0.32552]
#111=[#116+[#117-#116]*0.65935]
X6.47411 Y-2.95797 Z[#111+-0.04000]
#116=[#517+[#518-#517]*0.32844]
#117=[#521+[#522-#521]*0.32844]
#111=[#116+[#117-#116]*0.65240]
X6.47144 Y-2.95709 Z[#111+-0.04000]
#116=[#517+[#518-#517]*0.33018]
#117=[#521+[#522-#521]*0.33018]
#111=[#116+[#117-#116]*0.64415]
X6.46827 Y-2.95657 Z[#111+-0.04000]
#116=[#517+[#518-#517]*0.33040]
#117=[#521+[#522-#521]*0.33040]
#111=[#116+[#117-#116]*0.52806]
X6.42369 Y-2.95650 Z[#111+-0.04000]
#116=[#517+[#518-#517]*0.39316]
#117=[#521+[#522-#521]*0.39316]
#111=[#116+[#117-#116]*0.43015]
X6.38610 Y-2.93771 Z[#111+-0.04000]
#116=[#517+[#518-#517]*0.51869]
#117=[#521+[#522-#521]*0.51869]
#111=[#116+[#117-#116]*0.38119]
X6.36730 Y-2.90011 Z[#111+-0.04000]
#116=[#517+[#518-#517]*1.00000]
#117=[#521+[#522-#521]*1.00000]
#111=[#116+[#117-#116]*0.38119]
X6.36730 Y-2.75598 Z[#111+-0.04000]
#116=[#518+[#519-#518]*0.31200]
#117=[#522+[#523-#522]*0.31200]
#111=[#116+[#117-#116]*0.38119]
X6.36730 Y-2.66254 Z[#111+-0.04000]
#116=[#518+[#519-#518]*0.31200]
#117=[#522+[#523-#522]*0.31200]
#111=[#116+[#117-#116]*0.63997]
X6.46667 Y-2.66254 Z[#111+-0.04000]
#116=[#518+[#519-#518]*0.31234]
#117=[#522+[#523-#522]*0.31234]
#111=[#116+[#117-#116]*0.64519]
X6.46867 Y-2.66244 Z[#111+-0.04000]
#116=[#518+[#519-#518]*0.31336]
#117=[#522+[#523-#522]*0.31336]
#111=[#116+[#117-#116]*0.65036]
X6.47065 Y-2.66213 Z[#111+-0.04000]
#116=[#518+[#519-#518]*0.31505]
#117=[#522+[#523-#522]*0.31505]
#111=[#116+[#117-#116]*0.65542]
X6.47260 Y-2.66163 Z[#111+-0.04000]
#116=[#518+[#519-#518]*0.31739]
#117=[#522+[#523-#522]*0.31739]
#111=[#116+[#117-#116]*0.66031]
X6.47448 Y-2.66093 Z[#111+-0.04000]
#116=[#518+[#519-#518]*0.32036]
#117=[#522+[#523-#522]*0.32036]
#111=[#116+[#117-#116]*0.66500]
X6.47628 Y-2.66004 Z[#111+-0.04000]
#116=[#518+[#519-#518]*0.32393]
#117=[#522+[#523-#522]*0.32393]
#111=[#116+[#117-#116]*0.66943]
X6.47797 Y-2.65897 Z[#111+-0.04000]
#116=[#518+[#519-#518]*0.32805]
#117=[#522+[#523-#522]*0.32805]
#111=[#116+[#117-#116]*0.67354]
X6.47956 Y-2.65773 Z[#111+-0.04000]
#116=[#518+[#519-#518]*0.33269]
#117=[#522+[#523-#522]*0.33269]
#111=[#116+[#117-#116]*0.67732]
X6.48100 Y-2.65634 Z[#111+-0.04000]
#116=[#518+[#519-#518]*0.33781]
#117=[#522+[#523-#522]*0.33781]
#111=[#116+[#117-#116]*0.68070]
X6.48230 Y-2.65481 Z[#111+-0.04000]
#116=[#518+[#519-#518]*0.34333]
#117=[#522+[#523-#522]*0.34333]
#111=[#116+[#117-#116]*0.68366]
X6.48344 Y-2.65316 Z[#111+-0.04000]
#116=[#518+[#519-#518]*0.34921]
#117=[#522+[#523-#522]*0.34921]
#111=[#116+[#117-#116]*0.68616]
X6.48440 Y-2.65140 Z[#111+-0.04000]
#116=[#518+[#519-#518]*0.35539]
#117=[#522+[#523-#522]*0.35539]
#111=[#116+[#117-#116]*0.68819]
X6.48518 Y-2.64955 Z[#111+-0.04000]
#116=[#518+[#519-#518]*0.36180]
#117=[#522+[#523-#522]*0.36180]
#111=[#116+[#117-#116]*0.68971]
X6.48576 Y-2.64763 Z[#111+-0.04000]
#116=[#518+[#519-#518]*0.36838]
#117=[#522+[#523-#522]*0.36838]
#111=[#116+[#117-#116]*0.69072]
X6.48615 Y-2.64566 Z[#111+-0.04000]
#116=[#518+[#519-#518]*0.38041]
#117=[#522+[#523-#522]*0.38041]
#111=[#116+[#117-#116]*0.69120]
X6.48633 Y-2.64205 Z[#111+-0.04000]
#116=[#518+[#519-#518]*0.38709]
#117=[#522+[#523-#522]*0.38709]
#111=[#116+[#117-#116]*0.69072]
X6.48615 Y-2.64005 Z[#111+-0.04000]
#116=[#518+[#519-#518]*0.39366]
#117=[#522+[#523-#522]*0.39366]
#111=[#116+[#117-#116]*0.68971]
X6.48576 Y-2.63809 Z[#111+-0.04000]
#116=[#518+[#519-#518]*0.40258]
#117=[#522+[#523-#522]*0.40258]
#111=[#116+[#117-#116]*0.68744]
X6.48489 Y-2.63542 Z[#111+-0.04000]
#116=[#518+[#519-#518]*0.41213]
#117=[#522+[#523-#522]*0.41213]
#111=[#116+[#117-#116]*0.68366]
X6.48344 Y-2.63255 Z[#111+-0.04000]
#116=[#518+[#519-#518]*0.41975]
#117=[#522+[#523-#522]*0.41975]
#111=[#116+[#117-#116]*0.67939]
X6.48180 Y-2.63027 Z[#111+-0.04000]
#116=[#518+[#519-#518]*0.42652]
#117=[#522+[#523-#522]*0.42652]
#111=[#116+[#117-#116]*0.67433]
X6.47986 Y-2.62825 Z[#111+-0.04000]
#116=[#518+[#519-#518]*0.43229]
#117=[#522+[#523-#522]*0.43229]
#111=[#116+[#117-#116]*0.66856]
X6.47764 Y-2.62652 Z[#111+-0.04000]
#116=[#518+[#519-#518]*0.43752]
#117=[#522+[#523-#522]*0.43752]
#111=[#116+[#117-#116]*0.66127]
X6.47484 Y-2.62495 Z[#111+-0.04000]
#116=[#518+[#519-#518]*0.44080]
#117=[#522+[#523-#522]*0.44080]
#111=[#116+[#117-#116]*0.65441]
X6.47221 Y-2.62397 Z[#111+-0.04000]
#116=[#518+[#519-#518]*0.44297]
#117=[#522+[#523-#522]*0.44297]
#111=[#116+[#117-#116]*0.64623]
X6.46907 Y-2.62332 Z[#111+-0.04000]
#116=[#518+[#519-#518]*0.44346]
#117=[#522+[#523-#522]*0.44346]
#111=[#116+[#117-#116]*0.63997]
X6.46667 Y-2.62317 Z[#111+-0.04000]
#116=[#518+[#519-#518]*0.44346]
#117=[#522+[#523-#522]*0.44346]
#111=[#116+[#117-#116]*0.38119]
X6.36730 Y-2.62317 Z[#111+-0.04000]
#116=[#518+[#519-#518]*0.93426]
#117=[#522+[#523-#522]*0.93426]
#111=[#116+[#117-#116]*0.38119]
X6.36730 Y-2.47619 Z[#111+-0.04000]
#116=[#518+[#519-#518]*0.94362]
#117=[#522+[#523-#522]*0.94362]
#111=[#116+[#117-#116]*0.38067]
X6.36710 Y-2.47339 Z[#111+-0.04000]
#116=[#518+[#519-#518]*0.95020]
#117=[#522+[#523-#522]*0.95020]
#111=[#116+[#117-#116]*0.37967]
X6.36672 Y-2.47142 Z[#111+-0.04000]
#116=[#518+[#519-#518]*0.95661]
#117=[#522+[#523-#522]*0.95661]
#111=[#116+[#117-#116]*0.37814]
X6.36613 Y-2.46950 Z[#111+-0.04000]
#116=[#518+[#519-#518]*0.96279]
#117=[#522+[#523-#522]*0.96279]
#111=[#116+[#117-#116]*0.37612]
X6.36535 Y-2.46765 Z[#111+-0.04000]
#116=[#518+[#519-#518]*0.96867]
#117=[#522+[#523-#522]*0.96867]
#111=[#116+[#117-#116]*0.37361]
X6.36439 Y-2.46589 Z[#111+-0.04000]
#116=[#518+[#519-#518]*0.97419]
#117=[#522+[#523-#522]*0.97419]
#111=[#116+[#117-#116]*0.37065]
X6.36326 Y-2.46423 Z[#111+-0.04000]
#116=[#518+[#519-#518]*0.98027]
#117=[#522+[#523-#522]*0.98027]
#111=[#116+[#117-#116]*0.36655]
X6.36168 Y-2.46241 Z[#111+-0.04000]
#116=[#518+[#519-#518]*0.98481]
#117=[#522+[#523-#522]*0.98481]
#111=[#116+[#117-#116]*0.36270]
X6.36020 Y-2.46105 Z[#111+-0.04000]
#116=[#518+[#519-#518]*0.98883]
#117=[#522+[#523-#522]*0.98883]
#111=[#116+[#117-#116]*0.35852]
X6.35860 Y-2.45985 Z[#111+-0.04000]
#116=[#518+[#519-#518]*0.99228]
#117=[#522+[#523-#522]*0.99228]
#111=[#116+[#117-#116]*0.35404]
X6.35688 Y-2.45882 Z[#111+-0.04000]
#116=[#518+[#519-#518]*0.99512]
#117=[#522+[#523-#522]*0.99512]
#111=[#116+[#117-#116]*0.34930]
X6.35506 Y-2.45797 Z[#111+-0.04000]
#116=[#518+[#519-#518]*0.99734]
#117=[#522+[#523-#522]*0.99734]
#111=[#116+[#117-#116]*0.34437]
X6.35316 Y-2.45730 Z[#111+-0.04000]
#116=[#518+[#519-#518]*0.99889]
#117=[#522+[#523-#522]*0.99889]
#111=[#116+[#117-#116]*0.33928]
X6.35121 Y-2.45683 Z[#111+-0.04000]
#116=[#518+[#519-#518]*0.99988]
#117=[#522+[#523-#522]*0.99988]
#111=[#116+[#117-#116]*0.33306]
X6.34882 Y-2.45654 Z[#111+-0.04000]
#116=[#518+[#519-#518]*0.99994]
#117=[#522+[#523-#522]*0.99994]
#111=[#116+[#117-#116]*0.32784]
X6.34682 Y-2.45652 Z[#111+-0.04000]
#116=[#518+[#519-#518]*0.99933]
#117=[#522+[#523-#522]*0.99933]
#111=[#116+[#117-#116]*0.32263]
X6.34482 Y-2.45670 Z[#111+-0.04000]
#116=[#518+[#519-#518]*0.99804]
#117=[#522+[#523-#522]*0.99804]
#111=[#116+[#117-#116]*0.31750]
X6.34285 Y-2.45709 Z[#111+-0.04000]
#116=[#518+[#519-#518]*0.99512]
#117=[#522+[#523-#522]*0.99512]
#111=[#116+[#117-#116]*0.31055]
X6.34018 Y-2.45797 Z[#111+-0.04000]
#116=[#518+[#519-#518]*0.99028]
#117=[#522+[#523-#522]*0.99028]
#111=[#116+[#117-#116]*0.30309]
X6.33732 Y-2.45942 Z[#111+-0.04000]
#116=[#518+[#519-#518]*0.98394]
#117=[#522+[#523-#522]*0.98394]
#111=[#116+[#117-#116]*0.29635]
X6.33473 Y-2.46131 Z[#111+-0.04000]
#116=[#518+[#519-#518]*0.97629]
#117=[#522+[#523-#522]*0.97629]
#111=[#116+[#117-#116]*0.29050]
X6.33248 Y-2.46360 Z[#111+-0.04000]
#116=[#518+[#519-#518]*0.96867]
#117=[#522+[#523-#522]*0.96867]
#111=[#116+[#117-#116]*0.28624]
X6.33085 Y-2.46589 Z[#111+-0.04000]
#116=[#518+[#519-#518]*0.95911]
#117=[#522+[#523-#522]*0.95911]
#111=[#116+[#117-#116]*0.28246]
X6.32939 Y-2.46875 Z[#111+-0.04000]
#116=[#518+[#519-#518]*0.95020]
#117=[#522+[#523-#522]*0.95020]
#111=[#116+[#117-#116]*0.28019]
X6.32852 Y-2.47142 Z[#111+-0.04000]
#116=[#518+[#519-#518]*0.93962]
#117=[#522+[#523-#522]*0.93962]
#111=[#116+[#117-#116]*0.27883]
X6.32800 Y-2.47458 Z[#111+-0.04000]
#116=[#518+[#519-#518]*0.44346]
#117=[#522+[#523-#522]*0.44346]
#111=[#116+[#117-#116]*0.27866]
X6.32793 Y-2.62317 Z[#111+-0.04000]
#116=[#518+[#519-#518]*0.44345]
#117=[#522+[#523-#522]*0.44345]
#111=[#116+[#117-#116]*0.14285]
X6.27579 Y-2.62318 Z[#111+-0.04000]
#116=[#518+[#519-#518]*0.44236]
#117=[#522+[#523-#522]*0.44236]
#111=[#116+[#117-#116]*0.13454]
X6.27260 Y-2.62350 Z[#111+-0.04000]
#116=[#518+[#519-#518]*0.43999]
#117=[#522+[#523-#522]*0.43999]
#111=[#116+[#117-#116]*0.12746]
X6.26988 Y-2.62421 Z[#111+-0.04000]
#116=[#518+[#519-#518]*0.43510]
#117=[#522+[#523-#522]*0.43510]
#111=[#116+[#117-#116]*0.11887]
X6.26658 Y-2.62568 Z[#111+-0.04000]
#116=[#518+[#519-#518]*0.42827]
#117=[#522+[#523-#522]*0.42827]
#111=[#116+[#117-#116]*0.11112]
X6.26361 Y-2.62772 Z[#111+-0.04000]
#116=[#518+[#519-#518]*0.41975]
#117=[#522+[#523-#522]*0.41975]
#111=[#116+[#117-#116]*0.10447]
X6.26105 Y-2.63027 Z[#111+-0.04000]
#116=[#518+[#519-#518]*0.40982]
#117=[#522+[#523-#522]*0.40982]
#111=[#116+[#117-#116]*0.09915]
X6.25901 Y-2.63325 Z[#111+-0.04000]
#116=[#518+[#519-#518]*0.39881]
#117=[#522+[#523-#522]*0.39881]
#111=[#116+[#117-#116]*0.09534]
X6.25754 Y-2.63654 Z[#111+-0.04000]
#116=[#518+[#519-#518]*0.38709]
#117=[#522+[#523-#522]*0.38709]
#111=[#116+[#117-#116]*0.09315]
X6.25671 Y-2.64005 Z[#111+-0.04000]
#116=[#518+[#519-#518]*0.37505]
#117=[#522+[#523-#522]*0.37505]
#111=[#116+[#117-#116]*0.09267]
X6.25652 Y-2.64366 Z[#111+-0.04000]
G04 P0 ( dwell for no time -- G64 should not smooth over this point )
G00 Z0.08000 ( retract )

G00 X6.49508 Y-3.30000 ( rapid move to begin. )
G01 F180.00000
( Mill infeed pass 1/1 )
#116=[#516+[#517-#516]*0.18339]
#117=[#520+[#521-#520]*0.18339]
#111=[#116+[#117-#116]*0.71397]
G01 Z[-0.04000+#111]
G04 P0 ( dwell for no time -- G64 should not smooth over this point )
G01 F360.00000
#116=[#516+[#517-#516]*0.18069]
#117=[#520+[#521-#520]*0.18069]
#111=[#116+[#117-#116]*0.71414]
X6.49514 Y-3.30081 Z[#111+-0.04000]
#116=[#516+[#517-#516]*0.17679]
#117=[#520+[#521-#520]*0.17679]
#111=[#116+[#117-#116]*0.71505]
X6.49549 Y-3.30198 Z[#111+-0.04000]
#116=[#516+[#517-#516]*0.17226]
#117=[#520+[#521-#520]*0.17226]
#111=[#116+[#117-#116]*0.71736]
X6.49638 Y-3.30333 Z[#111+-0.04000]
#116=[#516+[#517-#516]*0.16894]
#117=[#520+[#521-#520]*0.16894]
#111=[#116+[#117-#116]*0.72069]
X6.49766 Y-3.30433 Z[#111+-0.04000]
#116=[#516+[#517-#516]*0.16746]
#117=[#520+[#521-#520]*0.16746]
#111=[#116+[#117-#116]*0.72364]
X6.49879 Y-3.30477 Z[#111+-0.04000]
#116=[#516+[#517-#516]*0.16702]
#117=[#520+[#521-#520]*0.16702]
#111=[#116+[#117-#116]*0.72573]
X6.49959 Y-3.30490 Z[#111+-0.04000]
#116=[#516+[#517-#516]*0.16696]
#117=[#520+[#521-#520]*0.16696]
#111=[#116+[#117-#116]*0.84419]
X6.54508 Y-3.30492 Z[#111+-0.04000]
#116=[#516+[#517-#516]*0.01508]
#117=[#520+[#521-#520]*0.01508]
#111=[#116+[#117-#116]*0.84423]
X6.54509 Y-3.35041 Z[#111+-0.04000]
#116=[#516+[#517-#516]*0.01240]
#117=[#520+[#521-#520]*0.01240]
#111=[#116+[#117-#116]*0.84458]
X6.54523 Y-3.35121 Z[#111+-0.04000]
#116=[#516+[#517-#516]*0.00861]
#117=[#520+[#521-#520]*0.00861]
#111=[#116+[#117-#116]*0.84573]
X6.54567 Y-3.35234 Z[#111+-0.04000]
#116=[#516+[#517-#516]*0.00434]
#117=[#520+[#521-#520]*0.00434]
#111=[#116+[#117-#116]*0.84833]
X6.54667 Y-3.35362 Z[#111+-0.04000]
#116=[#516+[#517-#516]*0.00139]
#117=[#520+[#521-#520]*0.00139]
#111=[#116+[#117-#116]*0.85186]
X6.54802 Y-3.35451 Z[#111+-0.04000]
#116=[#516+[#517-#516]*0.00022]
#117=[#520+[#521-#520]*0.00022]
#111=[#116+[#117-#116]*0.85490]
X6.54919 Y-3.35485 Z[#111+-0.04000]
#111=[#516+[#520-#516]*0.85701]
X6.55000 Y-3.35492 Z[#111+-0.04000]
#116=[#516+[#517-#516]*0.00022]
#117=[#520+[#521-#520]*0.00022]
#111=[#116+[#117-#116]*0.85912]
X6.55081 Y-3.35485 Z[#111+-0.04000]
#116=[#516+[#517-#516]*0.00139]
#117=[#520+[#521-#520]*0.00139]
#111=[#116+[#117-#116]*0.86215]
X6.55198 Y-3.35451 Z[#111+-0.04000]
#116=[#516+[#517-#516]*0.00434]
#117=[#520+[#521-#520]*0.00434]
#111=[#116+[#117-#116]*0.86569]
X6.55333 Y-3.35362 Z[#111+-0.04000]
#116=[#516+[#517-#516]*0.00861]
#117=[#520+[#521-#520]*0.00861]
#111=[#116+[#117-#116]*0.86828]
X6.55433 Y-3.35234 Z[#111+-0.04000]
#116=[#516+[#517-#516]*0.01240]
#117=[#520+[#521-#520]*0.01240]
#111=[#116+[#117-#116]*0.86943]
X6.55477 Y-3.35121 Z[#111+-0.04000]
#116=[#516+[#517-#516]*0.01508]
#117=[#520+[#521-#520]*0.01508]
#111=[#116+[#117-#116]*0.86978]
X6.55490 Y-3.35041 Z[#111+-0.04000]
#116=[#516+[#517-#516]*0.16696]
#117=[#520+[#521-#520]*0.16696]
#111=[#116+[#117-#116]*0.86982]
X6.55492 Y-3.30492 Z[#111+-0.04000]
#116=[#516+[#517-#516]*0.16702]
#117=[#520+[#521-#520]*0.16702]
#111=[#116+[#117-#116]*0.98829]
X6.60041 Y-3.30490 Z[#111+-0.04000]
#116=[#516+[#517-#516]*0.16746]
#117=[#520+[#521-#520]*0.16746]
#111=[#116+[#117-#116]*0.99037]
X6.60121 Y-3.30477 Z[#111+-0.04000]
#116=[#516+[#517-#516]*0.16894]
#117=[#520+[#521-#520]*0.16894]
#111=[#116+[#117-#116]*0.99333]
X6.60234 Y-3.30433 Z[#111+-0.04000]
#116=[#516+[#517-#516]*0.17043]
#117=[#520+[#521-#520]*0.17043]
#111=[#116+[#117-#116]*0.99510]
X6.60302 Y-3.30388 Z[#111+-0.04000]
#116=[#516+[#517-#516]*0.17330]
#117=[#520+[#521-#520]*0.17330]
#111=[#116+[#117-#116]*0.99734]
X6.60388 Y-3.30302 Z[#111+-0.04000]
#116=[#516+[#517-#516]*0.17557]
#117=[#520+[#521-#520]*0.17557]
#111=[#116+[#117-#116]*0.99850]
X6.60433 Y-3.30234 Z[#111+-0.04000]
#116=[#516+[#517-#516]*0.17936]
#117=[#520+[#521-#520]*0.17936]
#111=[#116+[#117-#116]*0.99965]
X6.60477 Y-3.30121 Z[#111+-0.04000]
#116=[#516+[#517-#516]*0.18475]
#117=[#520+[#521-#520]*0.18475]
#111=[#116+[#117-#116]*1.00000]
X6.60490 Y-3.29959 Z[#111+-0.04000]
#116=[#516+[#517-#516]*0.18743]
#117=[#520+[#521-#520]*0.18743]
#111=[#116+[#117-#116]*0.99965]
X6.60477 Y-3.29879 Z[#111+-0.04000]
#116=[#516+[#517-#516]*0.19122]
#117=[#520+[#521-#520]*0.19122]
#111=[#116+[#117-#116]*0.99850]
X6.60433 Y-3.29766 Z[#111+-0.04000]
#116=[#516+[#517-#516]*0.19548]
#117=[#520+[#521-#520]*0.19548]
#111=[#116+[#117-#116]*0.99591]
X6.60333 Y-3.29638 Z[#111+-0.04000]
#116=[#516+[#517-#516]*0.19844]
#117=[#520+[#521-#520]*0.19844]
#111=[#116+[#117-#116]*0.99237]
X6.60198 Y-3.29549 Z[#111+-0.04000]
#116=[#516+[#517-#516]*0.19977]
#117=[#520+[#521-#520]*0.19977]
#111=[#116+[#117-#116]*0.98829]
X6.60041 Y-3.29509 Z[#111+-0.04000]
#116=[#516+[#517-#516]*0.19983]
#117=[#520+[#521-#520]*0.19983]
#111=[#116+[#117-#116]*0.86982]
X6.55492 Y-3.29508 Z[#111+-0.04000]
#116=[#516+[#517-#516]*0.35171]
#117=[#520+[#521-#520]*0.35171]
#111=[#116+[#117-#116]*0.86978]
X6.55490 Y-3.24959 Z[#111+-0.04000]
#116=[#516+[#517-#516]*0.35439]
#117=[#520+[#521-#520]*0.35439]
#111=[#116+[#117-#116]*0.86943]
X6.55477 Y-3.24879 Z[#111+-0.04000]
#116=[#516+[#517-#516]*0.35818]
#117=[#520+[#521-#520]*0.35818]
#111=[#116+[#117-#116]*0.86828]
X6.55433 Y-3.24766 Z[#111+-0.04000]
#116=[#516+[#517-#516]*0.36244]
#117=[#520+[#521-#520]*0.36244]
#111=[#116+[#117-#116]*0.86569]
X6.55333 Y-3.24638 Z[#111+-0.04000]
#116=[#516+[#517-#516]*0.36540]
#117=[#520+[#521-#520]*0.36540]
#111=[#116+[#117-#116]*0.86215]
X6.55198 Y-3.24549 Z[#111+-0.04000]
#116=[#516+[#517-#516]*0.36656]
#117=[#520+[#521-#520]*0.36656]
#111=[#116+[#117-#116]*0.85912]
X6.55081 Y-3.24514 Z[#111+-0.04000]
#116=[#516+[#517-#516]*0.36679]
#117=[#520+[#521-#520]*0.36679]
#111=[#116+[#117-#116]*0.85701]
X6.55000 Y-3.24508 Z[#111+-0.04000]
#116=[#516+[#517-#516]*0.36656]
#117=[#520+[#521-#520]*0.36656]
#111=[#116+[#117-#116]*0.85490]
X6.54919 Y-3.24514 Z[#111+-0.04000]
#116=[#516+[#517-#516]*0.36540]
#117=[#520+[#521-#520]*0.36540]
#111=[#116+[#117-#116]*0.85186]
X6.54802 Y-3.24549 Z[#111+-0.04000]
#116=[#516+[#517-#516]*0.36244]
#117=[#520+[#521-#520]*0.36244]
#111=[#116+[#117-#116]*0.84833]
X6.54667 Y-3.24638 Z[#111+-0.04000]
#116=[#516+[#517-#516]*0.35818]
#117=[#520+[#521-#520]*0.35818]
#111=[#116+[#117-#116]*0.84573]
X6.54567 Y-3.24766 Z[#111+-0.04000]
#116=[#516+[#517-#516]*0.35439]
#117=[#520+[#521-#520]*0.35439]
#111=[#116+[#117-#116]*0.84458]
X6.54523 Y-3.24879 Z[#111+-0.04000]
#116=[#516+[#517-#516]*0.35171]
#117=[#520+[#521-#520]*0.35171]
#111=[#116+[#117-#116]*0.84423]
X6.54509 Y-3.24959 Z[#111+-0.04000]
#116=[#516+[#517-#516]*0.19983]
#117=[#520+[#521-#520]*0.19983]
#111=[#116+[#117-#116]*0.84419]
X6.54508 Y-3.29508 Z[#111+-0.04000]
#116=[#516+[#517-#516]*0.19977]
#117=[#520+[#521-#520]*0.19977]
#111=[#116+[#117-#116]*0.72573]
X6.49959 Y-3.29509 Z[#111+-0.04000]
#116=[#516+[#517-#516]*0.19932]
#117=[#520+[#521-#520]*0.19932]
#111=[#116+[#117-#116]*0.72364]
X6.49879 Y-3.29523 Z[#111+-0.04000]
#116=[#516+[#517-#516]*0.19785]
#117=[#520+[#521-#520]*0.19785]
#111=[#116+[#117-#116]*0.72069]
X6.49766 Y-3.29567 Z[#111+-0.04000]
#116=[#516+[#517-#516]*0.19453]
#117=[#520+[#521-#520]*0.19453]
#111=[#116+[#117-#116]*0.71736]
X6.49638 Y-3.29667 Z[#111+-0.04000]
#116=[#516+[#517-#516]*0.18999]
#117=[#520+[#521-#520]*0.18999]
#111=[#116+[#117-#116]*0.71505]
X6.49549 Y-3.29802 Z[#111+-0.04000]
#116=[#516+[#517-#516]*0.18610]
#117=[#520+[#521-#520]*0.18610]
#111=[#116+[#117-#116]*0.71414]
X6.49514 Y-3.29919 Z[#111+-0.04000]
#116=[#516+[#517-#516]*0.18339]
#117=[#520+[#521-#520]*0.18339]
#111=[#116+[#117-#116]*0.71397]
X6.49508 Y-3.30000 Z[#111+-0.04000]

G04 P0 ( dwell for no time -- G64 should not smooth over this point )
G00 Z1.000000 ( retract )

M5 ( Spindle off. )
G04 P1.000000
M9 ( Coolant off. )
M2 ( Program end. )

