( pcb2gcode 2.5.0 )
( Software-independent Gcode )

G94 ( Inches per minute feed rate. )
G20 ( Units == INCHES. )

G90 ( Absolute coordinates. )
G00 S12000 ( RPM spindle speed. )
G64 P0.00040 ( set maximum deviation from commanded toolpath )
G01 F360.00000 ( Feedrate. )


G00 Z1.00000 (Retract to tool change height)
T1
M5      (Spindle stop.)
G04 P1.00000 (Wait for spindle to stop)
(MSG, Change tool bit to mill diameter 0.02362in)
M6      (Tool change.)
M0      (Temporary machine stop.)
M3 ( Spindle on clockwise. )
G04 P1.00000 (Wait for spindle to get up to speed)
G04 P0 ( dwell for no time -- G64 should not smooth over this point )
G00 Z0.08000 ( retract )

G00 X4.59265 Y-3.84529 ( rapid move to begin. )
G01 F180.00000
( Mill infeed pass 1/1 )
G01 Z-0.04000
G04 P0 ( dwell for no time -- G64 should not smooth over this point )
G01 F360.00000
G01 X4.59265 Y-3.84529
G01 X4.59265 Y-3.93139
G01 X4.59286 Y-3.93486
G01 X4.59359 Y-3.93966
G01 X4.59505 Y-3.94466
G01 X4.59720 Y-3.94951
G01 X4.59936 Y-3.95328
G01 X4.60196 Y-3.95676
G01 X4.60755 Y-3.96252
G01 X4.61059 Y-3.96513
G01 X4.61461 Y-3.96779
G01 X4.61992 Y-3.97042
G01 X4.62329 Y-3.97162
G01 X4.62676 Y-3.97247
G01 X4.63103 Y-3.97313
G01 X4.63500 Y-3.97335
G01 X4.88140 Y-3.97335
G01 X4.88497 Y-3.97313
G01 X4.88963 Y-3.97239
G01 X4.89271 Y-3.97162
G01 X4.89608 Y-3.97042
G01 X4.89861 Y-3.96925
G01 X4.90239 Y-3.96720
G01 X4.90501 Y-3.96543
G01 X4.90746 Y-3.96344
G01 X4.93149 Y-3.93958
G01 X4.93360 Y-3.93728
G01 X4.93528 Y-3.93512
G01 X4.93758 Y-3.93174
G01 X4.93914 Y-3.92895
G01 X4.94029 Y-3.92641
G01 X4.94136 Y-3.92340
G01 X4.94242 Y-3.91943
G01 X4.94295 Y-3.91665
G01 X4.94325 Y-3.91385
G01 X4.94335 Y-3.75000
G01 X4.94299 Y-3.74494
G01 X4.94185 Y-3.73910
G01 X4.94102 Y-3.73647
G01 X4.93999 Y-3.73391
G01 X4.93841 Y-3.73069
G01 X4.93703 Y-3.72831
G01 X4.93546 Y-3.72604
G01 X4.93372 Y-3.72390
G01 X4.92950 Y-3.71957
G01 X4.92730 Y-3.71779
G01 X4.92498 Y-3.71618
G01 X4.92146 Y-3.71418
G01 X4.91892 Y-3.71294
G01 X4.91629 Y-3.71190
G01 X4.91320 Y-3.71097
G01 X4.90649 Y-3.70982
G01 X4.90373 Y-3.70965
G01 X4.90097 Y-3.70970
G01 X4.89702 Y-3.71012
G01 X4.89430 Y-3.71060
G01 X4.89125 Y-3.71140
G01 X4.88828 Y-3.71247
G01 X4.88497 Y-3.71394
G01 X4.88248 Y-3.71526
G01 X4.87976 Y-3.71701
G01 X4.87752 Y-3.71874
G01 X4.87453 Y-3.72146
G01 X4.87231 Y-3.72381
G01 X4.87031 Y-3.72635
G01 X4.86835 Y-3.72941
G01 X4.86613 Y-3.73365
G01 X4.86457 Y-3.73770
G01 X4.86334 Y-3.74272
G01 X4.86278 Y-3.74675
G01 X4.86266 Y-3.74959
G01 X4.86266 Y-3.79830
G01 X4.86278 Y-3.79859
G01 X4.85198 Y-3.80335
G01 X4.82379 Y-3.79365
G01 X4.79785 Y-3.79365
G01 X4.79344 Y-3.79474
G01 X4.78274 Y-3.79618
G01 X4.78126 Y-3.79624
G01 X4.77600 Y-3.79641
G01 X4.73674 Y-3.79641
G01 X4.72904 Y-3.79681
G01 X4.71978 Y-3.79824
G01 X4.70971 Y-3.80102
G01 X4.70850 Y-3.80144
G01 X4.69406 Y-3.80783
G01 X4.69263 Y-3.81557
G01 X4.69162 Y-3.82236
G01 X4.69093 Y-3.83562
G01 X4.69666 Y-3.83387
G01 X4.70847 Y-3.83377
G01 X4.70854 Y-3.83176
G01 X4.70885 Y-3.82937
G01 X4.71032 Y-3.82387
G01 X4.71112 Y-3.82197
G01 X4.71228 Y-3.81980
G01 X4.71532 Y-3.81544
G01 X4.71701 Y-3.81364
G01 X4.71855 Y-3.81228
G01 X4.72109 Y-3.81033
G01 X4.72307 Y-3.80909
G01 X4.72742 Y-3.80711
G01 X4.72937 Y-3.80651
G01 X4.73214 Y-3.80590
G01 X4.73415 Y-3.80560
G01 X4.73659 Y-3.80547
G01 X4.82638 Y-3.80546
G01 X4.82870 Y-3.80561
G01 X4.83239 Y-3.80618
G01 X4.83477 Y-3.80685
G01 X4.83788 Y-3.80807
G01 X4.83972 Y-3.80897
G01 X4.84183 Y-3.81026
G01 X4.84611 Y-3.81381
G01 X4.84903 Y-3.81687
G01 X4.85117 Y-3.81984
G01 X4.85325 Y-3.82380
G01 X4.85468 Y-3.82803
G01 X4.85536 Y-3.83204
G01 X4.85553 Y-3.83446
G01 X4.85548 Y-3.83687
G01 X4.85519 Y-3.83926
G01 X4.85462 Y-3.84202
G01 X4.85344 Y-3.84574
G01 X4.85127 Y-3.85003
G01 X4.84862 Y-3.85361
G01 X4.84579 Y-3.85647
G01 X4.84159 Y-3.85951
G01 X4.83847 Y-3.86113
G01 X4.83428 Y-3.86259
G01 X4.83030 Y-3.86334
G01 X4.82709 Y-3.86354
G01 X4.82227 Y-3.86310
G01 X4.81952 Y-3.86252
G01 X4.73700 Y-3.86254
G01 X4.73383 Y-3.86236
G01 X4.73182 Y-3.86207
G01 X4.72712 Y-3.86077
G01 X4.72378 Y-3.85928
G01 X4.71999 Y-3.85691
G01 X4.71640 Y-3.85376
G01 X4.71486 Y-3.85200
G01 X4.71345 Y-3.85007
G01 X4.71156 Y-3.84694
G01 X4.70988 Y-3.84290
G01 X4.70883 Y-3.83862
G01 X4.70847 Y-3.83377
G01 X4.72028 Y-3.83365
G01 X4.72055 Y-3.83111
G01 X4.72153 Y-3.82764
G01 X4.72240 Y-3.82589
G01 X4.72443 Y-3.82296
G01 X4.72612 Y-3.82135
G01 X4.72916 Y-3.81922
G01 X4.73180 Y-3.81810
G01 X4.73457 Y-3.81746
G01 X4.73659 Y-3.81728
G01 X4.82716 Y-3.81732
G01 X4.83033 Y-3.81784
G01 X4.83369 Y-3.81915
G01 X4.83567 Y-3.82038
G01 X4.83861 Y-3.82295
G01 X4.84052 Y-3.82515
G01 X4.84216 Y-3.82795
G01 X4.84314 Y-3.83062
G01 X4.84355 Y-3.83261
G01 X4.84370 Y-3.83594
G01 X4.84314 Y-3.83921
G01 X4.84237 Y-3.84160
G01 X4.84103 Y-3.84411
G01 X4.83866 Y-3.84700
G01 X4.83602 Y-3.84903
G01 X4.83384 Y-3.85026
G01 X4.83075 Y-3.85129
G01 X4.82830 Y-3.85168
G01 X4.82659 Y-3.85171
G01 X4.82333 Y-3.85131
G01 X4.82134 Y-3.85073
G01 X4.73700 Y-3.85073
G01 X4.73441 Y-3.85053
G01 X4.73126 Y-3.84970
G01 X4.72869 Y-3.84851
G01 X4.72667 Y-3.84713
G01 X4.72428 Y-3.84486
G01 X4.72240 Y-3.84218
G01 X4.72124 Y-3.83962
G01 X4.72046 Y-3.83651
G01 X4.72028 Y-3.83365
G01 X4.69666 Y-3.83387
G01 X4.69093 Y-3.83562
G01 X4.69171 Y-3.84655
G01 X4.69311 Y-3.85480
G01 X4.69583 Y-3.86505
G01 X4.69638 Y-3.86671
G01 X4.69905 Y-3.86979
G01 X4.70325 Y-3.87147
G01 X4.71312 Y-3.87453
G01 X4.72295 Y-3.87651
G01 X4.73291 Y-3.87750
G01 X4.73706 Y-3.87759
G01 X4.81721 Y-3.87759
G01 X4.82187 Y-3.87792
G01 X4.83425 Y-3.87779
G01 X4.84407 Y-3.87650
G01 X4.84720 Y-3.87584
G01 X4.84999 Y-3.87074
G01 X4.85478 Y-3.85958
G01 X4.85726 Y-3.85100
G01 X4.85875 Y-3.84168
G01 X4.85904 Y-3.83248
G01 X4.85838 Y-3.82503
G01 X4.85694 Y-3.81769
G01 X4.85443 Y-3.80941
G01 X4.85091 Y-3.80098
G01 X4.84270 Y-3.78631
G01 X4.84109 Y-3.78407
G01 X4.83659 Y-3.78293
G01 X4.83176 Y-3.78219
G01 X4.82815 Y-3.78188
G01 X4.81982 Y-3.78611
G01 X4.80999 Y-3.79015
G01 X4.79559 Y-3.79430
G01 X4.79344 Y-3.79474
G01 X4.78274 Y-3.79615
G01 X4.77619 Y-3.79641
G01 X4.73674 Y-3.79641
G01 X4.72904 Y-3.79681
G01 X4.72027 Y-3.79814
G01 X4.71681 Y-3.79906
G01 X4.71418 Y-3.80076
G01 X4.71067 Y-3.80347
G01 X4.70829 Y-3.80565
G01 X4.70637 Y-3.80773
G01 X4.70440 Y-3.81028
G01 X4.70198 Y-3.81401
G01 X4.70046 Y-3.81687
G01 X4.69936 Y-3.81947
G01 X4.69835 Y-3.82254
G01 X4.69739 Y-3.82643
G01 X4.69689 Y-3.82955
G01 X4.69667 Y-3.83269
G01 X4.69676 Y-3.83668
G01 X4.69708 Y-3.83992
G01 X4.69770 Y-3.84311
G01 X4.69865 Y-3.84655
G01 X4.69959 Y-3.84911
G01 X4.70091 Y-3.85205
G01 X4.70360 Y-3.85660
G01 X4.70550 Y-3.85920
G01 X4.70731 Y-3.86133
G01 X4.70928 Y-3.86331
G01 X4.71172 Y-3.86542
G01 X4.71603 Y-3.86848
G01 X4.72109 Y-3.87108
G01 X4.72375 Y-3.87210
G01 X4.72686 Y-3.87304
G01 X4.73165 Y-3.87399
G01 X4.73700 Y-3.87435
G01 X4.81813 Y-3.87434
G01 X4.82400 Y-3.87520
G01 X4.82912 Y-3.87530
G01 X4.83186 Y-3.87504
G01 X4.83544 Y-3.87444
G01 X4.83820 Y-3.87377
G01 X4.84090 Y-3.87287
G01 X4.84388 Y-3.87165
G01 X4.84638 Y-3.87039
G01 X4.84876 Y-3.86894
G01 X4.85163 Y-3.86691
G01 X4.85478 Y-3.85958
G01 X4.85726 Y-3.85100
G01 X4.85875 Y-3.84168
G01 X4.85904 Y-3.83248
G01 X4.85838 Y-3.82503
G01 X4.85694 Y-3.81769
G01 X4.85443 Y-3.80941
G01 X4.85189 Y-3.80316
G01 X4.84807 Y-3.80022
G01 X4.84386 Y-3.79783
G01 X4.83857 Y-3.79566
G01 X4.83349 Y-3.79436
G01 X4.82986 Y-3.79386
G01 X4.82677 Y-3.79365
G01 X4.79785 Y-3.79365
G01 X4.80953 Y-3.79028
G01 X4.81170 Y-3.78948
G01 X4.79255 Y-3.78289
G01 X4.79653 Y-3.78174
G01 X4.80036 Y-3.77912
G01 X4.80593 Y-3.77414
G01 X4.80830 Y-3.77145
G01 X4.81026 Y-3.76885
G01 X4.81177 Y-3.76643
G01 X4.81349 Y-3.76320
G01 X4.81543 Y-3.75829
G01 X4.81620 Y-3.75555
G01 X4.81678 Y-3.75276
G01 X4.81735 Y-3.74633
G01 X4.81704 Y-3.74115
G01 X4.81644 Y-3.73756
G01 X4.81577 Y-3.73480
G01 X4.81487 Y-3.73210
G01 X4.81365 Y-3.72912
G01 X4.81116 Y-3.72457
G01 X4.80763 Y-3.71975
G01 X4.80577 Y-3.71771
G01 X4.80376 Y-3.71581
G01 X4.80096 Y-3.71356
G01 X4.79863 Y-3.71193
G01 X4.79617 Y-3.71049
G01 X4.79326 Y-3.70907
G01 X4.78991 Y-3.70777
G01 X4.78645 Y-3.70682
G01 X4.78169 Y-3.70593
G01 X4.77766 Y-3.70565
G01 X4.77362 Y-3.70583
G01 X4.76813 Y-3.70667
G01 X4.62060 Y-3.70665
G01 X4.61662 Y-3.70692
G01 X4.61181 Y-3.70771
G01 X4.60829 Y-3.70872
G01 X4.60412 Y-3.71034
G01 X4.60088 Y-3.71205
G01 X4.59712 Y-3.71447
G01 X4.59428 Y-3.71677
G01 X4.59109 Y-3.71991
G01 X4.58878 Y-3.72275
G01 X4.58627 Y-3.72645
G01 X4.58439 Y-3.73005
G01 X4.58275 Y-3.73415
G01 X4.58178 Y-3.73761
G01 X4.58095 Y-3.74237
G01 X4.58066 Y-3.74599
G01 X4.58074 Y-3.74962
G01 X4.58113 Y-3.75283
G01 X4.58206 Y-3.75755
G01 X4.58301 Y-3.76060
G01 X4.58439 Y-3.76395
G01 X4.58586 Y-3.76685
G01 X4.58760 Y-3.76960
G01 X4.58975 Y-3.77251
G01 X4.59214 Y-3.77520
G01 X4.59541 Y-3.77816
G01 X4.59795 Y-3.78012
G01 X4.62108 Y-3.77606
G01 X4.62780 Y-3.77529
G01 X4.63646 Y-3.77518
G01 X4.64481 Y-3.77607
G01 X4.65368 Y-3.77803
G01 X4.65571 Y-3.77862
G01 X4.66799 Y-3.78345
G01 X4.66994 Y-3.78442
G01 X4.68029 Y-3.79032
G01 X4.68942 Y-3.79696
G01 X4.70395 Y-3.79054
G01 X4.70603 Y-3.78977
G01 X4.71718 Y-3.78672
G01 X4.72645 Y-3.78521
G01 X4.73658 Y-3.78460
G01 X4.77590 Y-3.78460
G01 X4.78078 Y-3.78444
G01 X4.79255 Y-3.78289
G01 X4.80602 Y-3.77900
G01 X4.80839 Y-3.77810
G01 X4.81556 Y-3.77506
G01 X4.82245 Y-3.77153
G01 X4.82475 Y-3.76699
G01 X4.82650 Y-3.76243
G01 X4.82792 Y-3.75734
G01 X4.82878 Y-3.75213
G01 X4.82912 Y-3.74768
G01 X4.82913 Y-3.74405
G01 X4.82885 Y-3.74042
G01 X4.82817 Y-3.73602
G01 X4.82737 Y-3.73245
G01 X4.82629 Y-3.72895
G01 X4.82482 Y-3.72517
G01 X4.82326 Y-3.72189
G01 X4.82123 Y-3.71839
G01 X4.81869 Y-3.71474
G01 X4.81646 Y-3.71190
G01 X4.81401 Y-3.70924
G01 X4.81106 Y-3.70651
G01 X4.80756 Y-3.70375
G01 X4.80454 Y-3.70169
G01 X4.80159 Y-3.70000
G01 X4.59837 Y-3.70000
G01 X4.59275 Y-3.70317
G01 X4.59006 Y-3.70500
G01 X4.58720 Y-3.70728
G01 X4.58420 Y-3.71003
G01 X4.58170 Y-3.71270
G01 X4.57965 Y-3.71523
G01 X4.57708 Y-3.71889
G01 X4.57520 Y-3.72203
G01 X4.57374 Y-3.72494
G01 X4.57216 Y-3.72867
G01 X4.57101 Y-3.73211
G01 X4.57012 Y-3.73564
G01 X4.56935 Y-3.74002
G01 X4.56896 Y-3.74360
G01 X4.56883 Y-3.74720
G01 X4.56899 Y-3.75080
G01 X4.56943 Y-3.75445
G01 X4.59491 Y-3.78068
G01 X4.62026 Y-3.77620
G01 X4.62554 Y-3.77554
G01 X4.58682 Y-3.79565
G01 X4.58659 Y-3.81481
G01 X4.58625 Y-3.82085
G01 X4.58488 Y-3.82999
G01 X4.58285 Y-3.83768
G01 X4.58140 Y-3.84165
G01 X4.57902 Y-3.84395
G01 X4.57685 Y-3.84579
G01 X4.57454 Y-3.84746
G01 X4.57141 Y-3.84935
G01 X4.56888 Y-3.85065
G01 X4.56625 Y-3.85175
G01 X4.56316 Y-3.85278
G01 X4.56040 Y-3.85347
G01 X4.55598 Y-3.85413
G01 X4.55239 Y-3.85435
G01 X4.50518 Y-3.85433
G01 X4.50000 Y-3.85389
G01 X4.50000 Y-3.84185
G01 X4.50247 Y-3.84232
G01 X4.50519 Y-3.84252
G01 X4.55283 Y-3.84253
G01 X4.55653 Y-3.84216
G01 X4.55893 Y-3.84169
G01 X4.56203 Y-3.84071
G01 X4.56428 Y-3.83976
G01 X4.56815 Y-3.83752
G01 X4.57072 Y-3.83554
G01 X4.57359 Y-3.83266
G01 X4.57624 Y-3.82906
G01 X4.57779 Y-3.82620
G01 X4.57935 Y-3.82215
G01 X4.58028 Y-3.81748
G01 X4.58054 Y-3.81420
G01 X4.58028 Y-3.81052
G01 X4.57981 Y-3.80775
G01 X4.57924 Y-3.80547
G01 X4.57762 Y-3.80143
G01 X4.57579 Y-3.79826
G01 X4.57287 Y-3.79453
G01 X4.56933 Y-3.79134
G01 X4.56593 Y-3.78911
G01 X4.56382 Y-3.78802
G01 X4.56165 Y-3.78715
G01 X4.55668 Y-3.78586
G01 X4.55280 Y-3.78548
G01 X4.50559 Y-3.78546
G01 X4.50350 Y-3.78559
G01 X4.50000 Y-3.78610
G01 X4.50000 Y-3.76222
G01 X4.50563 Y-3.76184
G01 X4.55283 Y-3.76185
G01 X4.55685 Y-3.76206
G01 X4.56089 Y-3.76262
G01 X4.58691 Y-3.78941
G01 X4.58659 Y-3.81481
G01 X4.58636 Y-3.81952
G01 X4.58488 Y-3.82999
G01 X4.58255 Y-3.83861
G01 X4.57940 Y-3.84690
G01 X4.57454 Y-3.85661
G01 X4.57072 Y-3.86268
G01 X4.57047 Y-3.86278
G01 X4.56661 Y-3.86407
G01 X4.56266 Y-3.86506
G01 X4.55784 Y-3.86580
G01 X4.55394 Y-3.86612
G01 X4.50517 Y-3.86615
G01 X4.50000 Y-3.86582
G01 X4.50000 Y-3.82961
G01 X4.49665 Y-3.82787
G01 X4.49442 Y-3.82606
G01 X4.49325 Y-3.82483
G01 X4.49140 Y-3.82211
G01 X4.49068 Y-3.82072
G01 X4.49015 Y-3.81925
G01 X4.48947 Y-3.81649
G01 X4.48928 Y-3.81359
G01 X4.48954 Y-3.81117
G01 X4.49037 Y-3.80803
G01 X4.49183 Y-3.80513
G01 X4.49353 Y-3.80285
G01 X4.49592 Y-3.80065
G01 X4.49869 Y-3.79895
G01 X4.50134 Y-3.79793
G01 X4.50293 Y-3.79757
G01 X4.50600 Y-3.79727
G01 X4.55241 Y-3.79728
G01 X4.55408 Y-3.79740
G01 X4.55728 Y-3.79815
G01 X4.55885 Y-3.79873
G01 X4.56135 Y-3.80013
G01 X4.56325 Y-3.80165
G01 X4.56472 Y-3.80314
G01 X4.56639 Y-3.80547
G01 X4.56763 Y-3.80804
G01 X4.56814 Y-3.80964
G01 X4.56863 Y-3.81244
G01 X4.56872 Y-3.81439
G01 X4.56830 Y-3.81754
G01 X4.56778 Y-3.81956
G01 X4.56660 Y-3.82218
G01 X4.56499 Y-3.82452
G01 X4.56362 Y-3.82602
G01 X4.56175 Y-3.82759
G01 X4.55967 Y-3.82885
G01 X4.55781 Y-3.82968
G01 X4.55547 Y-3.83036
G01 X4.55273 Y-3.83071
G01 X4.50559 Y-3.83072
G01 X4.50310 Y-3.83045
G01 X4.49953 Y-3.82943
G01 X4.49698 Y-3.82809
G01 X4.49474 Y-3.82634
G01 X4.49273 Y-3.82415
G01 X4.49120 Y-3.82177
G01 X4.49053 Y-3.82036
G01 X4.48940 Y-3.81607
G01 X4.48935 Y-3.81237
G01 X4.48988 Y-3.80958
G01 X4.49037 Y-3.80803
G01 X4.49140 Y-3.80582
G01 X4.49301 Y-3.80348
G01 X4.49409 Y-3.80226
G01 X4.49592 Y-3.80065
G01 X4.49833 Y-3.79914
G01 X4.50000 Y-3.79839
G01 X4.50000 Y-3.77412
G01 X4.50561 Y-3.77365
G01 X4.55282 Y-3.77366
G01 X4.55680 Y-3.77393
G01 X4.56072 Y-3.77465
G01 X4.56498 Y-3.77581
G01 X4.56906 Y-3.77743
G01 X4.57332 Y-3.77974
G01 X4.57697 Y-3.78232
G01 X4.58086 Y-3.78580
G01 X4.58399 Y-3.78943
G01 X4.58685 Y-3.79366
G01 X4.58682 Y-3.79565
G01 X4.62554 Y-3.77554
G01 X4.62061 Y-3.77554
G01 X4.61783 Y-3.77536
G01 X4.61502 Y-3.77490
G01 X4.61228 Y-3.77415
G01 X4.60961 Y-3.77317
G01 X4.60671 Y-3.77170
G01 X4.60432 Y-3.77015
G01 X4.60211 Y-3.76836
G01 X4.60013 Y-3.76647
G01 X4.59862 Y-3.76469
G01 X4.59655 Y-3.76171
G01 X4.59521 Y-3.75920
G01 X4.59413 Y-3.75664
G01 X4.59335 Y-3.75402
G01 X4.59266 Y-3.75007
G01 X4.59246 Y-3.74721
G01 X4.56883 Y-3.74720
G01 X4.59246 Y-3.74721
G01 X4.60427 Y-3.74700
G01 X4.60470 Y-3.74346
G01 X4.60522 Y-3.74144
G01 X4.60640 Y-3.73882
G01 X4.60801 Y-3.73648
G01 X4.60998 Y-3.73443
G01 X4.61158 Y-3.73318
G01 X4.61406 Y-3.73178
G01 X4.61713 Y-3.73072
G01 X4.62100 Y-3.73027
G01 X4.77133 Y-3.73027
G01 X4.77413 Y-3.72956
G01 X4.77652 Y-3.72929
G01 X4.77847 Y-3.72934
G01 X4.78202 Y-3.73006
G01 X4.78507 Y-3.73135
G01 X4.78807 Y-3.73347
G01 X4.78984 Y-3.73531
G01 X4.79191 Y-3.73840
G01 X4.79310 Y-3.74146
G01 X4.79371 Y-3.74510
G01 X4.79349 Y-3.74879
G01 X4.79265 Y-3.75193
G01 X4.79139 Y-3.75448
G01 X4.79028 Y-3.75618
G01 X4.78829 Y-3.75834
G01 X4.78567 Y-3.76061
G01 X4.78369 Y-3.76185
G01 X4.78033 Y-3.76316
G01 X4.77716 Y-3.76368
G01 X4.62100 Y-3.76373
G01 X4.61841 Y-3.76353
G01 X4.61526 Y-3.76270
G01 X4.61269 Y-3.76151
G01 X4.61067 Y-3.76013
G01 X4.60828 Y-3.75786
G01 X4.60640 Y-3.75518
G01 X4.60522 Y-3.75256
G01 X4.60470 Y-3.75054
G01 X4.60427 Y-3.74700
G01 X4.59246 Y-3.74721
G01 X4.59278 Y-3.74311
G01 X4.59327 Y-3.74036
G01 X4.59400 Y-3.73773
G01 X4.59593 Y-3.73334
G01 X4.59839 Y-3.72961
G01 X4.60108 Y-3.72656
G01 X4.60452 Y-3.72370
G01 X4.60872 Y-3.72124
G01 X4.61251 Y-3.71976
G01 X4.61606 Y-3.71890
G01 X4.62058 Y-3.71846
G01 X4.76952 Y-3.71847
G01 X4.77267 Y-3.71784
G01 X4.77715 Y-3.71746
G01 X4.78124 Y-3.71781
G01 X4.78627 Y-3.71901
G01 X4.79026 Y-3.72073
G01 X4.79338 Y-3.72264
G01 X4.79681 Y-3.72546
G01 X4.79821 Y-3.72690
G01 X4.79970 Y-3.72879
G01 X4.80229 Y-3.73277
G01 X4.80401 Y-3.73677
G01 X4.80502 Y-3.74071
G01 X4.80542 Y-3.74346
G01 X4.80554 Y-3.74580
G01 X4.80517 Y-3.75058
G01 X4.80410 Y-3.75492
G01 X4.80273 Y-3.75831
G01 X4.80028 Y-3.76252
G01 X4.79735 Y-3.76601
G01 X4.79315 Y-3.76976
G01 X4.78972 Y-3.77203
G01 X4.78593 Y-3.77373
G01 X4.78359 Y-3.77452
G01 X4.78158 Y-3.77498
G01 X4.77639 Y-3.77554
G01 X4.64040 Y-3.77554
G01 X4.64481 Y-3.77607
G01 X4.65368 Y-3.77803
G01 X4.65620 Y-3.77875
G01 X4.66800 Y-3.78342
G01 X4.67509 Y-3.78735
G01 X4.71483 Y-3.78735
G01 X4.71829 Y-3.78649
G01 X4.72827 Y-3.78499
G01 X4.73658 Y-3.78460
G01 X4.77590 Y-3.78460
G01 X4.78177 Y-3.78437
G01 X4.79255 Y-3.78289
G01 X4.85198 Y-3.80335
G01 X4.86278 Y-3.79859
G01 X4.86557 Y-3.80548
G01 X4.86804 Y-3.81342
G01 X4.86846 Y-3.81493
G01 X4.86992 Y-3.82236
G01 X4.87087 Y-3.83264
G01 X4.87054 Y-3.84269
G01 X4.86883 Y-3.85349
G01 X4.86590 Y-3.86363
G01 X4.86078 Y-3.87559
G01 X4.85626 Y-3.88397
G01 X4.85457 Y-3.88579
G01 X4.85473 Y-3.88601
G01 X4.85457 Y-3.88579
G01 X4.85349 Y-3.88643
G01 X4.85230 Y-3.88682
G01 X4.85234 Y-3.88692
G01 X4.85230 Y-3.88682
G01 X4.84610 Y-3.88814
G01 X4.83459 Y-3.88964
G01 X4.82177 Y-3.88973
G01 X4.81698 Y-3.88941
G01 X4.73700 Y-3.88941
G01 X4.73196 Y-3.88927
G01 X4.72230 Y-3.88837
G01 X4.71117 Y-3.88623
G01 X4.69961 Y-3.88271
G01 X4.69484 Y-3.88083
G01 X4.68516 Y-3.88083
G01 X4.68170 Y-3.88429
G01 X4.68516 Y-3.88083
G01 X4.68516 Y-3.87040
G01 X4.68445 Y-3.86823
G01 X4.68135 Y-3.85633
G01 X4.67989 Y-3.84733
G01 X4.67912 Y-3.83687
G01 X4.67985 Y-3.82111
G01 X4.68097 Y-3.81368
G01 X4.68231 Y-3.80639
G01 X4.67396 Y-3.80032
G01 X4.66425 Y-3.79477
G01 X4.65210 Y-3.78987
G01 X4.64246 Y-3.78764
G01 X4.63582 Y-3.78698
G01 X4.62960 Y-3.78701
G01 X4.62565 Y-3.78742
G01 X4.62146 Y-3.78889
G01 X4.61754 Y-3.79103
G01 X4.61459 Y-3.79320
G01 X4.61167 Y-3.79603
G01 X4.60876 Y-3.79994
G01 X4.60704 Y-3.80317
G01 X4.60555 Y-3.80722
G01 X4.60472 Y-3.81150
G01 X4.60446 Y-3.81500
G01 X4.60446 Y-3.93100
G01 X4.58083 Y-3.93100
G01 X4.61627 Y-3.93100
G01 X4.61660 Y-3.93421
G01 X4.61723 Y-3.93653
G01 X4.61884 Y-3.93990
G01 X4.62031 Y-3.94185
G01 X4.62434 Y-3.94588
G01 X4.62638 Y-3.94731
G01 X4.62849 Y-3.94838
G01 X4.63003 Y-3.94897
G01 X4.63426 Y-3.94971
G01 X4.88100 Y-3.94973
G01 X4.88477 Y-3.94927
G01 X4.88637 Y-3.94885
G01 X4.88788 Y-3.94820
G01 X4.88997 Y-3.94711
G01 X4.89163 Y-3.94591
G01 X4.91510 Y-3.92255
G01 X4.91714 Y-3.91985
G01 X4.91816 Y-3.91807
G01 X4.91887 Y-3.91614
G01 X4.91966 Y-3.91259
G01 X4.91971 Y-3.74922
G01 X4.91923 Y-3.74604
G01 X4.91876 Y-3.74439
G01 X4.91754 Y-3.74174
G01 X4.91662 Y-3.74030
G01 X4.91444 Y-3.73783
G01 X4.91328 Y-3.73679
G01 X4.91164 Y-3.73573
G01 X4.90880 Y-3.73431
G01 X4.90731 Y-3.73385
G01 X4.90452 Y-3.73337
G01 X4.90196 Y-3.73331
G01 X4.89991 Y-3.73357
G01 X4.89825 Y-3.73396
G01 X4.89452 Y-3.73559
G01 X4.89231 Y-3.73719
G01 X4.89056 Y-3.73883
G01 X4.88934 Y-3.74035
G01 X4.88741 Y-3.74394
G01 X4.88654 Y-3.74717
G01 X4.88628 Y-3.74959
G01 X4.88627 Y-3.90407
G01 X4.87407 Y-3.91627
G01 X4.64973 Y-3.91627
G01 X4.64971 Y-3.81459
G01 X4.64960 Y-3.81297
G01 X4.64890 Y-3.80980
G01 X4.64778 Y-3.80716
G01 X4.64565 Y-3.80412
G01 X4.64404 Y-3.80243
G01 X4.64107 Y-3.80038
G01 X4.63875 Y-3.79930
G01 X4.63559 Y-3.79847
G01 X4.63235 Y-3.79828
G01 X4.62953 Y-3.79864
G01 X4.62681 Y-3.79946
G01 X4.62498 Y-3.80035
G01 X4.62259 Y-3.80190
G01 X4.62053 Y-3.80385
G01 X4.61861 Y-3.80647
G01 X4.61737 Y-3.80904
G01 X4.61677 Y-3.81105
G01 X4.61627 Y-3.81500
G01 X4.61627 Y-3.93100
G01 X4.60446 Y-3.93100
G01 X4.60457 Y-3.93331
G01 X4.60501 Y-3.93654
G01 X4.60546 Y-3.93850
G01 X4.60621 Y-3.94078
G01 X4.60871 Y-3.94597
G01 X4.61008 Y-3.94800
G01 X4.61165 Y-3.94988
G01 X4.61680 Y-3.95497
G01 X4.61867 Y-3.95641
G01 X4.62069 Y-3.95766
G01 X4.62387 Y-3.95926
G01 X4.62618 Y-3.96015
G01 X4.62897 Y-3.96087
G01 X4.63253 Y-3.96141
G01 X4.63500 Y-3.96154
G01 X4.88100 Y-3.96154
G01 X4.88388 Y-3.96137
G01 X4.88783 Y-3.96070
G01 X4.89060 Y-3.95988
G01 X4.89324 Y-3.95873
G01 X4.89640 Y-3.95702
G01 X4.89905 Y-3.95510
G01 X4.92373 Y-3.93062
G01 X4.92534 Y-3.92870
G01 X4.92704 Y-3.92629
G01 X4.92887 Y-3.92306
G01 X4.93028 Y-3.91919
G01 X4.93101 Y-3.91634
G01 X4.93140 Y-3.91390
G01 X4.93152 Y-3.91143
G01 X4.93154 Y-3.75000
G01 X4.93138 Y-3.74727
G01 X4.93063 Y-3.74294
G01 X4.92953 Y-3.73949
G01 X4.92759 Y-3.73551
G01 X4.92529 Y-3.73222
G01 X4.92195 Y-3.72867
G01 X4.91903 Y-3.72640
G01 X4.91437 Y-3.72384
G01 X4.91050 Y-3.72247
G01 X4.90649 Y-3.72172
G01 X4.90409 Y-3.72148
G01 X4.90168 Y-3.72149
G01 X4.89847 Y-3.72184
G01 X4.89610 Y-3.72230
G01 X4.89380 Y-3.72300
G01 X4.89044 Y-3.72442
G01 X4.88826 Y-3.72556
G01 X4.88621 Y-3.72693
G01 X4.88431 Y-3.72850
G01 X4.88195 Y-3.73075
G01 X4.88010 Y-3.73296
G01 X4.87875 Y-3.73502
G01 X4.87702 Y-3.73823
G01 X4.87610 Y-3.74046
G01 X4.87531 Y-3.74316
G01 X4.87470 Y-3.74635
G01 X4.87447 Y-3.74959
G01 X4.87446 Y-3.89918
G01 X4.87536 Y-3.89955
G01 X4.87446 Y-3.89918
G01 X4.86918 Y-3.90446
G01 X4.86955 Y-3.90536
G01 X4.86918 Y-3.90446
G01 X4.66154 Y-3.90446
G01 X4.65808 Y-3.90792
G01 X4.66154 Y-3.90446
G01 X4.66152 Y-3.81418
G01 X4.66124 Y-3.81094
G01 X4.66027 Y-3.80658
G01 X4.65945 Y-3.80429
G01 X4.65791 Y-3.80107
G01 X4.65644 Y-3.79877
G01 X4.65419 Y-3.79592
G01 X4.65248 Y-3.79414
G01 X4.65060 Y-3.79255
G01 X4.64756 Y-3.79050
G01 X4.64545 Y-3.78932
G01 X4.64286 Y-3.78823
G01 X4.64010 Y-3.78738
G01 X4.63582 Y-3.78698
G01 X4.62960 Y-3.78701
G01 X4.62287 Y-3.78774
G01 X4.60006 Y-3.79174
G01 X4.59866 Y-3.79382
G01 X4.60006 Y-3.79174
G01 X4.59868 Y-3.79200
G01 X4.59840 Y-3.81508
G01 X4.59815 Y-3.82019
G01 X4.59799 Y-3.82238
G01 X4.59644 Y-3.83257
G01 X4.59375 Y-3.84236
G01 X4.59029 Y-3.85151
G01 X4.58490 Y-3.86233
G01 X4.58083 Y-3.86879
G01 X4.58084 Y-3.93182
G01 X4.58109 Y-3.93594
G01 X4.58178 Y-3.94082
G01 X4.58267 Y-3.94472
G01 X4.58403 Y-3.94891
G01 X4.58632 Y-3.95415
G01 X4.58819 Y-3.95767
G01 X4.59034 Y-3.96102
G01 X4.59277 Y-3.96418
G01 X4.59490 Y-3.96655
G01 X4.59976 Y-3.97141
G01 X4.60282 Y-3.97406
G01 X4.60611 Y-3.97643
G01 X4.60923 Y-3.97831
G01 X4.61347 Y-3.98048
G01 X4.61680 Y-3.98188
G01 X4.62061 Y-3.98314
G01 X4.62411 Y-3.98399
G01 X4.62800 Y-3.98464
G01 X4.63149 Y-3.98503
G01 X4.63500 Y-3.98516
G01 X4.88178 Y-3.98516
G01 X4.88607 Y-3.98489
G01 X4.89070 Y-3.98421
G01 X4.89462 Y-3.98335
G01 X4.89807 Y-3.98229
G01 X4.90180 Y-3.98081
G01 X4.90605 Y-3.97871
G01 X4.90949 Y-3.97669
G01 X4.91243 Y-3.97464
G01 X4.91695 Y-3.97073
G01 X4.94120 Y-3.94652
G01 X4.94376 Y-3.94349
G01 X4.94662 Y-3.93952
G01 X4.94832 Y-3.93679
G01 X4.95000 Y-3.93363
G01 X4.95000 Y-3.72745
G01 X4.94785 Y-3.72337
G01 X4.94543 Y-3.71967
G01 X4.94295 Y-3.71651
G01 X4.93939 Y-3.71267
G01 X4.93613 Y-3.70971
G01 X4.93294 Y-3.70729
G01 X4.92956 Y-3.70515
G01 X4.92530 Y-3.70288
G01 X4.92163 Y-3.70128
G01 X4.91786 Y-3.70000
G01 X4.88814 Y-3.70000
G01 X4.88281 Y-3.70196
G01 X4.87773 Y-3.70438
G01 X4.87298 Y-3.70734
G01 X4.86890 Y-3.71058
G01 X4.86402 Y-3.71535
G01 X4.86075 Y-3.71940
G01 X4.85795 Y-3.72379
G01 X4.85520 Y-3.72916
G01 X4.85321 Y-3.73443
G01 X4.85237 Y-3.73753
G01 X4.85162 Y-3.74110
G01 X4.85091 Y-3.74715
G01 X4.85085 Y-3.77739
G01 X4.85289 Y-3.78034
G01 X4.86136 Y-3.79543
G01 X4.86527 Y-3.80467
G01 X4.86850 Y-3.81523
G01 X4.86997 Y-3.82267
G01 X4.87077 Y-3.83068
G01 X4.87085 Y-3.83264
G01 X4.87052 Y-3.84269
G01 X4.86881 Y-3.85349
G01 X4.86587 Y-3.86363
G01 X4.86265 Y-3.87119
G01 X4.86265 Y-3.89264
G01 X4.86611 Y-3.89610
G01 X4.86265 Y-3.89264
G01 X4.67335 Y-3.89264
G01 X4.66989 Y-3.89610
G01 X4.67335 Y-3.89264
G01 X4.67334 Y-3.81459
G01 X4.67305 Y-3.81013
G01 X4.67216 Y-3.80534
G01 X4.67101 Y-3.80144
G01 X4.66947 Y-3.79775

G04 P0 ( dwell for no time -- G64 should not smooth over this point )
G00 Z1.000000 ( retract )

M5 ( Spindle off. )
G04 P1.000000
M9 ( Coolant off. )
M2 ( Program end. )

