( pcb2gcode 2.5.0 )
( Software-independent Gcode )

G94 ( Inches per minute feed rate. )
G20 ( Units == INCHES. )

G90 ( Absolute coordinates. )
G00 S12000 ( RPM spindle speed. )
G64 P0.00040 ( set maximum deviation from commanded toolpath )
G01 F360.00000 ( Feedrate. )


G00 Z1.00000 (Retract to tool change height)
T1
M5      (Spindle stop.)
G04 P1.00000 (Wait for spindle to stop)
(MSG, Change tool bit to mill diameter 0.02362in)
M6      (Tool change.)
M0      (Temporary machine stop.)
M3 ( Spindle on clockwise. )
G04 P1.00000 (Wait for spindle to get up to speed)
G04 P0 ( dwell for no time -- G64 should not smooth over this point )
G00 Z0.08000 ( retract )

G00 X4.79255 Y-3.78289 ( rapid move to begin. )
G01 F180.00000
( Mill infeed pass 1/1 )
G01 Z-0.04000
G04 P0 ( dwell for no time -- G64 should not smooth over this point )
G01 F360.00000
G01 X4.79255 Y-3.78289
G01 X4.79653 Y-3.78174
G01 X4.80067 Y-3.77887
G01 X4.80451 Y-3.77552
G01 X4.80647 Y-3.77356
G01 X4.80882 Y-3.77081
G01 X4.81071 Y-3.76817
G01 X4.81217 Y-3.76572
G01 X4.81383 Y-3.76247
G01 X4.81491 Y-3.75983
G01 X4.81589 Y-3.75673
G01 X4.81656 Y-3.75396
G01 X4.81701 Y-3.75115
G01 X4.81731 Y-3.74753
G01 X4.81733 Y-3.74473
G01 X4.81709 Y-3.74154
G01 X4.81660 Y-3.73836
G01 X4.81598 Y-3.73558
G01 X4.81515 Y-3.73286
G01 X4.81382 Y-3.72948
G01 X4.81258 Y-3.72697
G01 X4.81116 Y-3.72457
G01 X4.80909 Y-3.72161
G01 X4.80737 Y-3.71945
G01 X4.80521 Y-3.71715
G01 X4.80316 Y-3.71530
G01 X4.80031 Y-3.71308
G01 X4.79581 Y-3.71030
G01 X4.79290 Y-3.70891
G01 X4.79029 Y-3.70790
G01 X4.78723 Y-3.70700
G01 X4.78328 Y-3.70617
G01 X4.78048 Y-3.70580
G01 X4.77725 Y-3.70565
G01 X4.77322 Y-3.70587
G01 X4.76813 Y-3.70667
G01 X4.61980 Y-3.70667
G01 X4.61701 Y-3.70687
G01 X4.61300 Y-3.70745
G01 X4.61023 Y-3.70811
G01 X4.60713 Y-3.70911
G01 X4.60449 Y-3.71018
G01 X4.60194 Y-3.71145
G01 X4.59880 Y-3.71332
G01 X4.59615 Y-3.71520
G01 X4.59250 Y-3.71844
G01 X4.58977 Y-3.72146
G01 X4.58692 Y-3.72541
G01 X4.58473 Y-3.72932
G01 X4.58301 Y-3.73339
G01 X4.58178 Y-3.73761
G01 X4.58090 Y-3.74277
G01 X4.58065 Y-3.74720
G01 X4.59246 Y-3.74721
G01 X4.60427 Y-3.74700
G01 X4.60470 Y-3.75054
G01 X4.60522 Y-3.75256
G01 X4.60640 Y-3.75518
G01 X4.60828 Y-3.75786
G01 X4.61067 Y-3.76013
G01 X4.61269 Y-3.76151
G01 X4.61526 Y-3.76270
G01 X4.61841 Y-3.76353
G01 X4.62100 Y-3.76373
G01 X4.77716 Y-3.76368
G01 X4.78070 Y-3.76306
G01 X4.78404 Y-3.76167
G01 X4.78598 Y-3.76037
G01 X4.78921 Y-3.75743
G01 X4.79098 Y-3.75518
G01 X4.79265 Y-3.75193
G01 X4.79349 Y-3.74879
G01 X4.79372 Y-3.74552
G01 X4.79321 Y-3.74185
G01 X4.79227 Y-3.73916
G01 X4.79127 Y-3.73732
G01 X4.78900 Y-3.73434
G01 X4.78611 Y-3.73197
G01 X4.78360 Y-3.73063
G01 X4.78162 Y-3.72995
G01 X4.77808 Y-3.72930
G01 X4.77652 Y-3.72929
G01 X4.77373 Y-3.72962
G01 X4.77133 Y-3.73027
G01 X4.62100 Y-3.73027
G01 X4.61753 Y-3.73064
G01 X4.61443 Y-3.73161
G01 X4.61125 Y-3.73341
G01 X4.60909 Y-3.73526
G01 X4.60683 Y-3.73813
G01 X4.60537 Y-3.74104
G01 X4.60477 Y-3.74305
G01 X4.60427 Y-3.74700
G01 X4.59246 Y-3.74721
G01 X4.56883 Y-3.74720
G01 X4.58065 Y-3.74720
G01 X4.58095 Y-3.75163
G01 X4.58196 Y-3.75717
G01 X4.58329 Y-3.76135
G01 X4.58528 Y-3.76578
G01 X4.58760 Y-3.76960
G01 X4.59077 Y-3.77374
G01 X4.59387 Y-3.77685
G01 X4.59795 Y-3.78012
G01 X4.62108 Y-3.77606
G01 X4.62554 Y-3.77554
G01 X4.66425 Y-3.79477
G01 X4.61229 Y-3.79536
G01 X4.61064 Y-3.79729
G01 X4.60898 Y-3.79960
G01 X4.60774 Y-3.80170
G01 X4.60671 Y-3.80391
G01 X4.60588 Y-3.80610
G01 X4.60527 Y-3.80836
G01 X4.60466 Y-3.81188
G01 X4.60446 Y-3.81461
G01 X4.60446 Y-3.93100
G01 X4.61627 Y-3.93100
G01 X4.61627 Y-3.81500
G01 X4.61677 Y-3.81105
G01 X4.61737 Y-3.80904
G01 X4.61861 Y-3.80647
G01 X4.62053 Y-3.80385
G01 X4.62259 Y-3.80190
G01 X4.62498 Y-3.80035
G01 X4.62681 Y-3.79946
G01 X4.62953 Y-3.79864
G01 X4.63235 Y-3.79828
G01 X4.63559 Y-3.79847
G01 X4.63875 Y-3.79930
G01 X4.64107 Y-3.80038
G01 X4.64404 Y-3.80243
G01 X4.64565 Y-3.80412
G01 X4.64778 Y-3.80716
G01 X4.64890 Y-3.80980
G01 X4.64960 Y-3.81297
G01 X4.64971 Y-3.81459
G01 X4.64973 Y-3.91627
G01 X4.87407 Y-3.91627
G01 X4.88627 Y-3.90407
G01 X4.88628 Y-3.74959
G01 X4.88646 Y-3.74757
G01 X4.88725 Y-3.74434
G01 X4.88892 Y-3.74101
G01 X4.89030 Y-3.73912
G01 X4.89290 Y-3.73668
G01 X4.89486 Y-3.73540
G01 X4.89825 Y-3.73396
G01 X4.90154 Y-3.73336
G01 X4.90367 Y-3.73329
G01 X4.90693 Y-3.73377
G01 X4.90916 Y-3.73445
G01 X4.91232 Y-3.73612
G01 X4.91416 Y-3.73756
G01 X4.91662 Y-3.74030
G01 X4.91826 Y-3.74321
G01 X4.91913 Y-3.74562
G01 X4.91967 Y-3.74883
G01 X4.91969 Y-3.91220
G01 X4.91940 Y-3.91411
G01 X4.91833 Y-3.91769
G01 X4.91737 Y-3.91951
G01 X4.91565 Y-3.92192
G01 X4.89223 Y-3.94535
G01 X4.89066 Y-3.94666
G01 X4.88788 Y-3.94820
G01 X4.88597 Y-3.94897
G01 X4.88285 Y-3.94959
G01 X4.88100 Y-3.94973
G01 X4.63426 Y-3.94971
G01 X4.63003 Y-3.94897
G01 X4.62849 Y-3.94838
G01 X4.62638 Y-3.94731
G01 X4.62434 Y-3.94588
G01 X4.62031 Y-3.94185
G01 X4.61884 Y-3.93990
G01 X4.61723 Y-3.93653
G01 X4.61660 Y-3.93421
G01 X4.61627 Y-3.93100
G01 X4.58083 Y-3.93100
G01 X4.60446 Y-3.93100
G01 X4.60457 Y-3.93331
G01 X4.60501 Y-3.93654
G01 X4.60546 Y-3.93850
G01 X4.60621 Y-3.94078
G01 X4.60871 Y-3.94597
G01 X4.61008 Y-3.94800
G01 X4.61165 Y-3.94988
G01 X4.61680 Y-3.95497
G01 X4.61867 Y-3.95641
G01 X4.62069 Y-3.95766
G01 X4.62387 Y-3.95926
G01 X4.62657 Y-3.96027
G01 X4.62897 Y-3.96087
G01 X4.63294 Y-3.96145
G01 X4.88141 Y-3.96154
G01 X4.88469 Y-3.96125
G01 X4.88903 Y-3.96039
G01 X4.89213 Y-3.95926
G01 X4.89605 Y-3.95723
G01 X4.89841 Y-3.95561
G01 X4.90027 Y-3.95400
G01 X4.92315 Y-3.93121
G01 X4.92483 Y-3.92936
G01 X4.92771 Y-3.92525
G01 X4.92936 Y-3.92193
G01 X4.93005 Y-3.91999
G01 X4.93092 Y-3.91674
G01 X4.93147 Y-3.91308
G01 X4.93154 Y-3.75000
G01 X4.93143 Y-3.74766
G01 X4.93072 Y-3.74333
G01 X4.92968 Y-3.73987
G01 X4.92778 Y-3.73586
G01 X4.92580 Y-3.73284
G01 X4.92283 Y-3.72952
G01 X4.92004 Y-3.72710
G01 X4.91833 Y-3.72596
G01 X4.91584 Y-3.72457
G01 X4.91246 Y-3.72307
G01 X4.90970 Y-3.72228
G01 X4.90609 Y-3.72166
G01 X4.90369 Y-3.72147
G01 X4.90088 Y-3.72155
G01 X4.89768 Y-3.72197
G01 X4.89494 Y-3.72262
G01 X4.89267 Y-3.72344
G01 X4.88898 Y-3.72515
G01 X4.88688 Y-3.72645
G01 X4.88492 Y-3.72795
G01 X4.88223 Y-3.73046
G01 X4.88035 Y-3.73263
G01 X4.87875 Y-3.73502
G01 X4.87702 Y-3.73823
G01 X4.87610 Y-3.74046
G01 X4.87531 Y-3.74316
G01 X4.87470 Y-3.74635
G01 X4.87447 Y-3.74959
G01 X4.87446 Y-3.89918
G01 X4.87536 Y-3.89955
G01 X4.87446 Y-3.89918
G01 X4.86918 Y-3.90446
G01 X4.86955 Y-3.90536
G01 X4.86918 Y-3.90446
G01 X4.66154 Y-3.90446
G01 X4.65808 Y-3.90792
G01 X4.66154 Y-3.90446
G01 X4.66153 Y-3.81459
G01 X4.66124 Y-3.81094
G01 X4.66027 Y-3.80658
G01 X4.65863 Y-3.80246
G01 X4.65689 Y-3.79941
G01 X4.65392 Y-3.79561
G01 X4.65092 Y-3.79280
G01 X4.64722 Y-3.79029
G01 X4.64399 Y-3.78866
G01 X4.64010 Y-3.78738
G01 X4.63531 Y-3.78695
G01 X4.62960 Y-3.78701
G01 X4.62528 Y-3.78752
G01 X4.62146 Y-3.78889
G01 X4.61789 Y-3.79082
G01 X4.61521 Y-3.79268
G01 X4.61229 Y-3.79536
G01 X4.58682 Y-3.79565
G01 X4.58685 Y-3.79366
G01 X4.58399 Y-3.78943
G01 X4.58086 Y-3.78580
G01 X4.57697 Y-3.78232
G01 X4.57332 Y-3.77974
G01 X4.56906 Y-3.77743
G01 X4.56498 Y-3.77581
G01 X4.56072 Y-3.77465
G01 X4.55680 Y-3.77393
G01 X4.55282 Y-3.77366
G01 X4.50561 Y-3.77365
G01 X4.50000 Y-3.77412
G01 X4.50000 Y-3.79839
G01 X4.49833 Y-3.79914
G01 X4.49559 Y-3.80090
G01 X4.49353 Y-3.80285
G01 X4.49183 Y-3.80513
G01 X4.49085 Y-3.80691
G01 X4.48998 Y-3.80919
G01 X4.48940 Y-3.81197
G01 X4.48928 Y-3.81441
G01 X4.48946 Y-3.81157
G01 X4.49023 Y-3.80841
G01 X4.49140 Y-3.80582
G01 X4.49301 Y-3.80348
G01 X4.49498 Y-3.80143
G01 X4.49658 Y-3.80018
G01 X4.49906 Y-3.79878
G01 X4.50173 Y-3.79782
G01 X4.50333 Y-3.79751
G01 X4.50600 Y-3.79727
G01 X4.55283 Y-3.79729
G01 X4.55449 Y-3.79747
G01 X4.55688 Y-3.79804
G01 X4.55960 Y-3.79910
G01 X4.56233 Y-3.80087
G01 X4.56387 Y-3.80222
G01 X4.56523 Y-3.80380
G01 X4.56697 Y-3.80654
G01 X4.56778 Y-3.80843
G01 X4.56823 Y-3.81005
G01 X4.56873 Y-3.81400
G01 X4.56863 Y-3.81556
G01 X4.56814 Y-3.81836
G01 X4.56763 Y-3.81996
G01 X4.56660 Y-3.82218
G01 X4.56499 Y-3.82452
G01 X4.56362 Y-3.82602
G01 X4.56208 Y-3.82735
G01 X4.55967 Y-3.82885
G01 X4.55781 Y-3.82968
G01 X4.55547 Y-3.83036
G01 X4.55199 Y-3.83073
G01 X4.50517 Y-3.83071
G01 X4.50269 Y-3.83035
G01 X4.49915 Y-3.82927
G01 X4.49665 Y-3.82787
G01 X4.49411 Y-3.82577
G01 X4.49273 Y-3.82415
G01 X4.49084 Y-3.82108
G01 X4.49015 Y-3.81925
G01 X4.48935 Y-3.81566
G01 X4.48928 Y-3.81441
G01 X4.48955 Y-3.81690
G01 X4.49039 Y-3.82000
G01 X4.49120 Y-3.82177
G01 X4.49298 Y-3.82449
G01 X4.49442 Y-3.82606
G01 X4.49631 Y-3.82764
G01 X4.49840 Y-3.82889
G01 X4.50000 Y-3.82961
G01 X4.50000 Y-3.86582
G01 X4.50517 Y-3.86615
G01 X4.55237 Y-3.86616
G01 X4.55668 Y-3.86593
G01 X4.56187 Y-3.86521
G01 X4.56622 Y-3.86419
G01 X4.57072 Y-3.86268
G01 X4.57454 Y-3.85661
G01 X4.57917 Y-3.84743
G01 X4.58255 Y-3.83861
G01 X4.58498 Y-3.82951
G01 X4.58625 Y-3.82085
G01 X4.58659 Y-3.81481
G01 X4.58691 Y-3.78941
G01 X4.56089 Y-3.76262
G01 X4.55685 Y-3.76206
G01 X4.55283 Y-3.76185
G01 X4.50563 Y-3.76184
G01 X4.50000 Y-3.76222
G01 X4.50000 Y-3.78610
G01 X4.50350 Y-3.78559
G01 X4.50559 Y-3.78546
G01 X4.55280 Y-3.78548
G01 X4.55668 Y-3.78586
G01 X4.56165 Y-3.78715
G01 X4.56522 Y-3.78872
G01 X4.56901 Y-3.79109
G01 X4.57260 Y-3.79424
G01 X4.57414 Y-3.79600
G01 X4.57555 Y-3.79793
G01 X4.57762 Y-3.80143
G01 X4.57924 Y-3.80547
G01 X4.57981 Y-3.80775
G01 X4.58028 Y-3.81052
G01 X4.58054 Y-3.81379
G01 X4.58034 Y-3.81707
G01 X4.57945 Y-3.82177
G01 X4.57829 Y-3.82509
G01 X4.57645 Y-3.82871
G01 X4.57411 Y-3.83203
G01 X4.57162 Y-3.83471
G01 X4.56848 Y-3.83730
G01 X4.56464 Y-3.83958
G01 X4.56203 Y-3.84071
G01 X4.55893 Y-3.84169
G01 X4.55653 Y-3.84216
G01 X4.55283 Y-3.84253
G01 X4.50519 Y-3.84252
G01 X4.50247 Y-3.84232
G01 X4.50000 Y-3.84185
G01 X4.50000 Y-3.85389
G01 X4.50518 Y-3.85433
G01 X4.55439 Y-3.85427
G01 X4.55920 Y-3.85369
G01 X4.56355 Y-3.85266
G01 X4.56813 Y-3.85099
G01 X4.57211 Y-3.84895
G01 X4.57454 Y-3.84746
G01 X4.57685 Y-3.84579
G01 X4.58136 Y-3.84169
G01 X4.58285 Y-3.83768
G01 X4.58498 Y-3.82951
G01 X4.58625 Y-3.82085
G01 X4.58659 Y-3.81481
G01 X4.58682 Y-3.79565
G01 X4.59863 Y-3.79551
G01 X4.59840 Y-3.81508
G01 X4.59815 Y-3.82019
G01 X4.59796 Y-3.82238
G01 X4.59634 Y-3.83286
G01 X4.59375 Y-3.84236
G01 X4.59029 Y-3.85151
G01 X4.58490 Y-3.86233
G01 X4.58083 Y-3.86879
G01 X4.58083 Y-3.93100
G01 X4.58101 Y-3.93512
G01 X4.58152 Y-3.93923
G01 X4.58210 Y-3.94239
G01 X4.58300 Y-3.94588
G01 X4.58403 Y-3.94891
G01 X4.58526 Y-3.95187
G01 X4.58740 Y-3.95628
G01 X4.58901 Y-3.95903
G01 X4.59104 Y-3.96199
G01 X4.59303 Y-3.96448
G01 X4.59518 Y-3.96684
G01 X4.59976 Y-3.97141
G01 X4.60282 Y-3.97406
G01 X4.60577 Y-3.97620
G01 X4.60852 Y-3.97792
G01 X4.61239 Y-3.97995
G01 X4.61531 Y-3.98129
G01 X4.61945 Y-3.98279
G01 X4.62411 Y-3.98399
G01 X4.62954 Y-3.98485
G01 X4.63461 Y-3.98516
G01 X4.88139 Y-3.98516
G01 X4.88451 Y-3.98503
G01 X4.88762 Y-3.98470
G01 X4.89149 Y-3.98406
G01 X4.89462 Y-3.98335
G01 X4.90032 Y-3.98144
G01 X4.90640 Y-3.97852
G01 X4.91114 Y-3.97558
G01 X4.91550 Y-3.97210
G01 X4.94173 Y-3.94593
G01 X4.94401 Y-3.94318
G01 X4.94662 Y-3.93952
G01 X4.94832 Y-3.93679
G01 X4.95000 Y-3.93363
G01 X4.95000 Y-3.72745
G01 X4.94785 Y-3.72337
G01 X4.94520 Y-3.71934
G01 X4.94242 Y-3.71591
G01 X4.93853 Y-3.71184
G01 X4.93520 Y-3.70896
G01 X4.93161 Y-3.70640
G01 X4.92708 Y-3.70379
G01 X4.92348 Y-3.70204
G01 X4.91786 Y-3.70000
G01 X4.88814 Y-3.70000
G01 X4.88430 Y-3.70134
G01 X4.88024 Y-3.70311
G01 X4.87565 Y-3.70558
G01 X4.87137 Y-3.70854
G01 X4.86653 Y-3.71277
G01 X4.86323 Y-3.71625
G01 X4.86006 Y-3.72039
G01 X4.85757 Y-3.72449
G01 X4.85503 Y-3.72953
G01 X4.85310 Y-3.73481
G01 X4.85155 Y-3.74150
G01 X4.85091 Y-3.74715
G01 X4.85085 Y-3.77739
G01 X4.85289 Y-3.78034
G01 X4.86136 Y-3.79543
G01 X4.86527 Y-3.80467
G01 X4.86850 Y-3.81523
G01 X4.86997 Y-3.82267
G01 X4.87077 Y-3.83068
G01 X4.87085 Y-3.83264
G01 X4.87052 Y-3.84269
G01 X4.86881 Y-3.85349
G01 X4.86587 Y-3.86363
G01 X4.86265 Y-3.87119
G01 X4.86265 Y-3.89264
G01 X4.86611 Y-3.89610
G01 X4.86265 Y-3.89264
G01 X4.67335 Y-3.89264
G01 X4.66989 Y-3.89610
G01 X4.67335 Y-3.89264
G01 X4.67334 Y-3.81459
G01 X4.67305 Y-3.81013
G01 X4.67216 Y-3.80534
G01 X4.67101 Y-3.80144
G01 X4.66947 Y-3.79775
G01 X4.66301 Y-3.79416
G01 X4.65210 Y-3.78987
G01 X4.64246 Y-3.78764
G01 X4.63582 Y-3.78698
G01 X4.62960 Y-3.78701
G01 X4.62287 Y-3.78774
G01 X4.59868 Y-3.79200
G01 X4.59866 Y-3.79382
G01 X4.60006 Y-3.79174
G01 X4.59866 Y-3.79382
G01 X4.59840 Y-3.81508
G01 X4.59799 Y-3.82238
G01 X4.59644 Y-3.83257
G01 X4.59414 Y-3.84114
G01 X4.59265 Y-3.84529
G01 X4.59265 Y-3.93100
G01 X4.59278 Y-3.93409
G01 X4.59351 Y-3.93927
G01 X4.59465 Y-3.94353
G01 X4.59685 Y-3.94880
G01 X4.59893 Y-3.95262
G01 X4.60049 Y-3.95490
G01 X4.60222 Y-3.95706
G01 X4.60697 Y-3.96196
G01 X4.60996 Y-3.96464
G01 X4.61323 Y-3.96697
G01 X4.61883 Y-3.96994
G01 X4.62329 Y-3.97162
G01 X4.62598 Y-3.97231
G01 X4.62946 Y-3.97292
G01 X4.63420 Y-3.97335
G01 X4.88338 Y-3.97327
G01 X4.88615 Y-3.97298
G01 X4.89041 Y-3.97222
G01 X4.89347 Y-3.97138
G01 X4.89608 Y-3.97042
G01 X4.89998 Y-3.96855
G01 X4.90273 Y-3.96699
G01 X4.90533 Y-3.96520
G01 X4.90805 Y-3.96291
G01 X4.93176 Y-3.93931
G01 X4.93458 Y-3.93606
G01 X4.93779 Y-3.93140
G01 X4.93982 Y-3.92751
G01 X4.94136 Y-3.92340
G01 X4.94282 Y-3.91745
G01 X4.94319 Y-3.91465
G01 X4.94334 Y-3.91143
G01 X4.94335 Y-3.75000
G01 X4.94325 Y-3.74727
G01 X4.94254 Y-3.74218
G01 X4.94163 Y-3.73834
G01 X4.94030 Y-3.73463
G01 X4.93841 Y-3.73069
G01 X4.93660 Y-3.72765
G01 X4.93423 Y-3.72449
G01 X4.93097 Y-3.72095
G01 X4.92795 Y-3.71828
G01 X4.92464 Y-3.71597
G01 X4.92002 Y-3.71345
G01 X4.91667 Y-3.71203
G01 X4.91280 Y-3.71088
G01 X4.90766 Y-3.70995
G01 X4.90373 Y-3.70965
G01 X4.89979 Y-3.70979
G01 X4.89507 Y-3.71044
G01 X4.89125 Y-3.71140
G01 X4.88756 Y-3.71278
G01 X4.88318 Y-3.71486
G01 X4.87943 Y-3.71725
G01 X4.87661 Y-3.71954
G01 X4.87257 Y-3.72350
G01 X4.87007 Y-3.72668
G01 X4.86795 Y-3.73011
G01 X4.86596 Y-3.73401
G01 X4.86457 Y-3.73770
G01 X4.86334 Y-3.74272
G01 X4.86278 Y-3.74675
G01 X4.86266 Y-3.74959
G01 X4.86266 Y-3.79830
G01 X4.86557 Y-3.80548
G01 X4.86804 Y-3.81342
G01 X4.86846 Y-3.81493
G01 X4.87011 Y-3.82348
G01 X4.87087 Y-3.83264
G01 X4.87054 Y-3.84269
G01 X4.86883 Y-3.85349
G01 X4.86590 Y-3.86363
G01 X4.86078 Y-3.87559
G01 X4.85626 Y-3.88397
G01 X4.85457 Y-3.88579
G01 X4.85473 Y-3.88601
G01 X4.85457 Y-3.88579
G01 X4.85349 Y-3.88643
G01 X4.85230 Y-3.88682
G01 X4.85234 Y-3.88692
G01 X4.85230 Y-3.88682
G01 X4.84610 Y-3.88814
G01 X4.83459 Y-3.88964
G01 X4.82177 Y-3.88973
G01 X4.81698 Y-3.88941
G01 X4.73700 Y-3.88941
G01 X4.73227 Y-3.88929
G01 X4.72230 Y-3.88837
G01 X4.71117 Y-3.88623
G01 X4.69961 Y-3.88271
G01 X4.69484 Y-3.88083
G01 X4.68516 Y-3.88083
G01 X4.68170 Y-3.88429
G01 X4.68516 Y-3.88083
G01 X4.68516 Y-3.87040
G01 X4.68445 Y-3.86823
G01 X4.68135 Y-3.85633
G01 X4.67989 Y-3.84733
G01 X4.67912 Y-3.83687
G01 X4.67985 Y-3.82111
G01 X4.68097 Y-3.81368
G01 X4.68231 Y-3.80639
G01 X4.67396 Y-3.80032
G01 X4.66425 Y-3.79477
G01 X4.62554 Y-3.77554
G01 X4.62026 Y-3.77620
G01 X4.59491 Y-3.78068
G01 X4.56943 Y-3.75445
G01 X4.56902 Y-3.75120
G01 X4.56884 Y-3.74760
G01 X4.56891 Y-3.74440
G01 X4.56924 Y-3.74081
G01 X4.56996 Y-3.73643
G01 X4.57068 Y-3.73328
G01 X4.57175 Y-3.72981
G01 X4.57308 Y-3.72642
G01 X4.57501 Y-3.72239
G01 X4.57730 Y-3.71855
G01 X4.58040 Y-3.71427
G01 X4.58334 Y-3.71090
G01 X4.58689 Y-3.70754
G01 X4.59039 Y-3.70476
G01 X4.59379 Y-3.70253
G01 X4.59837 Y-3.70000
G01 X4.80159 Y-3.70000
G01 X4.80454 Y-3.70169
G01 X4.80756 Y-3.70375
G01 X4.81106 Y-3.70651
G01 X4.81401 Y-3.70924
G01 X4.81646 Y-3.71190
G01 X4.81869 Y-3.71474
G01 X4.82123 Y-3.71839
G01 X4.82326 Y-3.72189
G01 X4.82482 Y-3.72517
G01 X4.82629 Y-3.72895
G01 X4.82737 Y-3.73245
G01 X4.82817 Y-3.73602
G01 X4.82885 Y-3.74042
G01 X4.82913 Y-3.74405
G01 X4.82912 Y-3.74768
G01 X4.82878 Y-3.75213
G01 X4.82792 Y-3.75734
G01 X4.82650 Y-3.76243
G01 X4.82475 Y-3.76699
G01 X4.82245 Y-3.77153
G01 X4.81556 Y-3.77506
G01 X4.80839 Y-3.77810
G01 X4.80602 Y-3.77900
G01 X4.79255 Y-3.78289
G01 X4.78078 Y-3.78444
G01 X4.77590 Y-3.78460
G01 X4.73658 Y-3.78460
G01 X4.72645 Y-3.78521
G01 X4.71718 Y-3.78672
G01 X4.70603 Y-3.78977
G01 X4.70395 Y-3.79054
G01 X4.68942 Y-3.79696
G01 X4.68029 Y-3.79032
G01 X4.66994 Y-3.78442
G01 X4.66756 Y-3.78326
G01 X4.65571 Y-3.77862
G01 X4.65368 Y-3.77803
G01 X4.64481 Y-3.77607
G01 X4.64286 Y-3.77577
G01 X4.63534 Y-3.77514
G01 X4.62901 Y-3.77522
G01 X4.62554 Y-3.77554
G01 X4.61905 Y-3.77546
G01 X4.61463 Y-3.77481
G01 X4.61151 Y-3.77390
G01 X4.60961 Y-3.77317
G01 X4.60671 Y-3.77170
G01 X4.60432 Y-3.77015
G01 X4.60152 Y-3.76784
G01 X4.59961 Y-3.76589
G01 X4.59721 Y-3.76274
G01 X4.59593 Y-3.76066
G01 X4.59441 Y-3.75737
G01 X4.59354 Y-3.75477
G01 X4.59305 Y-3.75249
G01 X4.59253 Y-3.74885
G01 X4.59246 Y-3.74638
G01 X4.59266 Y-3.74392
G01 X4.59327 Y-3.74036
G01 X4.59388 Y-3.73810
G01 X4.59521 Y-3.73480
G01 X4.59655 Y-3.73229
G01 X4.59839 Y-3.72961
G01 X4.59994 Y-3.72773
G01 X4.60228 Y-3.72546
G01 X4.60452 Y-3.72370
G01 X4.60764 Y-3.72180
G01 X4.60983 Y-3.72073
G01 X4.61289 Y-3.71964
G01 X4.61566 Y-3.71897
G01 X4.61891 Y-3.71855
G01 X4.62100 Y-3.71846
G01 X4.76952 Y-3.71847
G01 X4.77267 Y-3.71784
G01 X4.77715 Y-3.71746
G01 X4.77961 Y-3.71758
G01 X4.78205 Y-3.71796
G01 X4.78553 Y-3.71877
G01 X4.78810 Y-3.71970
G01 X4.79203 Y-3.72173
G01 X4.79592 Y-3.72464
G01 X4.79873 Y-3.72752
G01 X4.80130 Y-3.73108
G01 X4.80297 Y-3.73417
G01 X4.80449 Y-3.73832
G01 X4.80538 Y-3.74307
G01 X4.80551 Y-3.74697
G01 X4.80503 Y-3.75138
G01 X4.80398 Y-3.75530
G01 X4.80255 Y-3.75867
G01 X4.80117 Y-3.76116
G01 X4.80004 Y-3.76285
G01 X4.79705 Y-3.76632
G01 X4.79282 Y-3.77002
G01 X4.78936 Y-3.77222
G01 X4.78555 Y-3.77388
G01 X4.78158 Y-3.77498
G01 X4.77639 Y-3.77554
G01 X4.64040 Y-3.77554
G01 X4.64481 Y-3.77607
G01 X4.65368 Y-3.77803
G01 X4.65620 Y-3.77875
G01 X4.66800 Y-3.78342
G01 X4.67509 Y-3.78735
G01 X4.71483 Y-3.78735
G01 X4.71829 Y-3.78649
G01 X4.72827 Y-3.78499
G01 X4.73658 Y-3.78460
G01 X4.77590 Y-3.78460
G01 X4.78177 Y-3.78437
G01 X4.79255 Y-3.78289
G01 X4.85198 Y-3.80335
G01 X4.85189 Y-3.80316
G01 X4.84939 Y-3.80115
G01 X4.84635 Y-3.79915
G01 X4.84350 Y-3.79765
G01 X4.83971 Y-3.79607
G01 X4.83664 Y-3.79507
G01 X4.83389 Y-3.79444
G01 X4.82986 Y-3.79386
G01 X4.82677 Y-3.79365
G01 X4.79785 Y-3.79365
G01 X4.79344 Y-3.79474
G01 X4.78313 Y-3.79611
G01 X4.77619 Y-3.79641
G01 X4.73674 Y-3.79641
G01 X4.72904 Y-3.79681
G01 X4.72027 Y-3.79814
G01 X4.71681 Y-3.79906
G01 X4.71618 Y-3.79944
G01 X4.71353 Y-3.80123
G01 X4.71036 Y-3.80373
G01 X4.70829 Y-3.80565
G01 X4.70637 Y-3.80773
G01 X4.70440 Y-3.81028
G01 X4.70218 Y-3.81367
G01 X4.70064 Y-3.81651
G01 X4.69950 Y-3.81909
G01 X4.69858 Y-3.82177
G01 X4.69756 Y-3.82566
G01 X4.69699 Y-3.82876
G01 X4.69672 Y-3.83151
G01 X4.69668 Y-3.83466
G01 X4.69693 Y-3.83871
G01 X4.69735 Y-3.84152
G01 X4.69809 Y-3.84467
G01 X4.69903 Y-3.84766
G01 X4.70039 Y-3.85095
G01 X4.70167 Y-3.85349
G01 X4.70314 Y-3.85593
G01 X4.70525 Y-3.85888
G01 X4.70731 Y-3.86133
G01 X4.70958 Y-3.86358
G01 X4.71235 Y-3.86593
G01 X4.71466 Y-3.86760
G01 X4.71709 Y-3.86909
G01 X4.71997 Y-3.87059
G01 X4.72298 Y-3.87183
G01 X4.72647 Y-3.87293
G01 X4.72924 Y-3.87360
G01 X4.73205 Y-3.87404
G01 X4.73574 Y-3.87433
G01 X4.81813 Y-3.87434
G01 X4.82043 Y-3.87477
G01 X4.82439 Y-3.87524
G01 X4.82951 Y-3.87527
G01 X4.83226 Y-3.87499
G01 X4.83583 Y-3.87436
G01 X4.84090 Y-3.87287
G01 X4.84388 Y-3.87165
G01 X4.84638 Y-3.87039
G01 X4.84876 Y-3.86894
G01 X4.85163 Y-3.86691
G01 X4.85507 Y-3.85871
G01 X4.85726 Y-3.85100
G01 X4.85862 Y-3.84290
G01 X4.85904 Y-3.83248
G01 X4.85838 Y-3.82503
G01 X4.85671 Y-3.81677
G01 X4.85443 Y-3.80941
G01 X4.85198 Y-3.80335
G01 X4.85091 Y-3.80098
G01 X4.84270 Y-3.78631
G01 X4.84109 Y-3.78407
G01 X4.83815 Y-3.78327
G01 X4.83502 Y-3.78264
G01 X4.82815 Y-3.78188
G01 X4.81982 Y-3.78611
G01 X4.80999 Y-3.79015
G01 X4.79510 Y-3.79442
G01 X4.78274 Y-3.79618
G01 X4.77600 Y-3.79641
G01 X4.73674 Y-3.79641
G01 X4.72904 Y-3.79681
G01 X4.71978 Y-3.79824
G01 X4.70971 Y-3.80102
G01 X4.70850 Y-3.80144
G01 X4.69406 Y-3.80783
G01 X4.69263 Y-3.81557
G01 X4.69162 Y-3.82236
G01 X4.69093 Y-3.83562
G01 X4.69666 Y-3.83387
G01 X4.72028 Y-3.83365
G01 X4.72046 Y-3.83651
G01 X4.72124 Y-3.83962
G01 X4.72240 Y-3.84218
G01 X4.72428 Y-3.84486
G01 X4.72667 Y-3.84713
G01 X4.72869 Y-3.84851
G01 X4.73126 Y-3.84970
G01 X4.73481 Y-3.85058
G01 X4.73700 Y-3.85073
G01 X4.82134 Y-3.85073
G01 X4.82333 Y-3.85131
G01 X4.82574 Y-3.85164
G01 X4.82872 Y-3.85163
G01 X4.83193 Y-3.85099
G01 X4.83460 Y-3.84991
G01 X4.83769 Y-3.84784
G01 X4.83925 Y-3.84639
G01 X4.84125 Y-3.84377
G01 X4.84254 Y-3.84121
G01 X4.84348 Y-3.83763
G01 X4.84372 Y-3.83551
G01 X4.84349 Y-3.83221
G01 X4.84278 Y-3.82945
G01 X4.84197 Y-3.82759
G01 X4.84028 Y-3.82482
G01 X4.83861 Y-3.82295
G01 X4.83504 Y-3.81993
G01 X4.83369 Y-3.81915
G01 X4.83179 Y-3.81833
G01 X4.82920 Y-3.81759
G01 X4.82600 Y-3.81727
G01 X4.73659 Y-3.81728
G01 X4.73457 Y-3.81746
G01 X4.73180 Y-3.81810
G01 X4.72916 Y-3.81922
G01 X4.72612 Y-3.82135
G01 X4.72443 Y-3.82296
G01 X4.72240 Y-3.82589
G01 X4.72153 Y-3.82764
G01 X4.72055 Y-3.83111
G01 X4.72028 Y-3.83365
G01 X4.70847 Y-3.83377
G01 X4.70859 Y-3.83660
G01 X4.70890 Y-3.83902
G01 X4.71000 Y-3.84327
G01 X4.71174 Y-3.84730
G01 X4.71276 Y-3.84906
G01 X4.71438 Y-3.85137
G01 X4.71668 Y-3.85404
G01 X4.72032 Y-3.85715
G01 X4.72414 Y-3.85947
G01 X4.72751 Y-3.86090
G01 X4.73222 Y-3.86214
G01 X4.73700 Y-3.86254
G01 X4.81952 Y-3.86252
G01 X4.82267 Y-3.86316
G01 X4.82749 Y-3.86354
G01 X4.83030 Y-3.86334
G01 X4.83349 Y-3.86278
G01 X4.83584 Y-3.86214
G01 X4.83847 Y-3.86113
G01 X4.84224 Y-3.85909
G01 X4.84639 Y-3.85594
G01 X4.84809 Y-3.85422
G01 X4.84987 Y-3.85203
G01 X4.85208 Y-3.84862
G01 X4.85399 Y-3.84427
G01 X4.85462 Y-3.84202
G01 X4.85525 Y-3.83886
G01 X4.85550 Y-3.83647
G01 X4.85553 Y-3.83446
G01 X4.85503 Y-3.82962
G01 X4.85371 Y-3.82493
G01 X4.85291 Y-3.82306
G01 X4.85158 Y-3.82054
G01 X4.84954 Y-3.81750
G01 X4.84643 Y-3.81410
G01 X4.84249 Y-3.81074
G01 X4.84079 Y-3.80959
G01 X4.83863 Y-3.80842
G01 X4.83555 Y-3.80712
G01 X4.83359 Y-3.80648
G01 X4.83117 Y-3.80595
G01 X4.82831 Y-3.80557
G01 X4.82599 Y-3.80546
G01 X4.73618 Y-3.80548
G01 X4.73294 Y-3.80576
G01 X4.72858 Y-3.80673
G01 X4.72446 Y-3.80836
G01 X4.72109 Y-3.81033
G01 X4.71730 Y-3.81336
G01 X4.71586 Y-3.81482
G01 X4.71430 Y-3.81673
G01 X4.71187 Y-3.82051
G01 X4.71018 Y-3.82425
G01 X4.70885 Y-3.82937
G01 X4.70854 Y-3.83176
G01 X4.70847 Y-3.83377
G01 X4.69666 Y-3.83387
G01 X4.69093 Y-3.83562
G01 X4.69171 Y-3.84655
G01 X4.69311 Y-3.85480
G01 X4.69583 Y-3.86505
G01 X4.69638 Y-3.86671
G01 X4.69905 Y-3.86979
G01 X4.70325 Y-3.87147
G01 X4.71312 Y-3.87453
G01 X4.72386 Y-3.87665
G01 X4.73291 Y-3.87750
G01 X4.73706 Y-3.87759
G01 X4.81721 Y-3.87759
G01 X4.82187 Y-3.87792
G01 X4.83425 Y-3.87779
G01 X4.84407 Y-3.87650
G01 X4.84720 Y-3.87584
G01 X4.84999 Y-3.87074
G01 X4.85163 Y-3.86691

G04 P0 ( dwell for no time -- G64 should not smooth over this point )
G00 Z1.000000 ( retract )

M5 ( Spindle off. )
G04 P1.000000
M9 ( Coolant off. )
M2 ( Program end. )

