( pcb2gcode 2.5.0 )
( Software-independent Gcode )

G94 ( Inches per minute feed rate. )
G20 ( Units == INCHES. )

G90 ( Absolute coordinates. )
G00 S12000 ( RPM spindle speed. )
G64 P0.00040 ( set maximum deviation from commanded toolpath )
G01 F360.00000 ( Feedrate. )


G00 Z1.00000 (Retract to tool change height)
T1
M5      (Spindle stop.)
G04 P1.00000 (Wait for spindle to stop)
(MSG, Change tool bit to mill diameter 0.39370in)
M6      (Tool change.)
M0      (Temporary machine stop.)
M3 ( Spindle on clockwise. )
G04 P1.00000 (Wait for spindle to get up to speed)
G04 P0 ( dwell for no time -- G64 should not smooth over this point )
G00 Z0.08000 ( retract )

G00 X-3.03372 Y-2.64484 ( rapid move to begin. )
G01 F180.00000
( Mill infeed pass 1/1 )
G01 Z-0.04000
G04 P0 ( dwell for no time -- G64 should not smooth over this point )
G01 F360.00000
G01 X-3.03372 Y-2.64484
G01 X-3.01409 Y-2.66457
G01 X-3.00785 Y-2.67148
G01 X-3.00271 Y-2.67759
G01 X-2.99735 Y-2.68454
G01 X-2.99230 Y-2.69173
G01 X-2.98646 Y-2.70083
G01 X-2.98149 Y-2.70947
G01 X-2.97696 Y-2.71835
G01 X-2.97223 Y-2.72895
G01 X-2.96884 Y-2.73747
G01 X-2.96573 Y-2.74652
G01 X-2.96307 Y-2.75571
G01 X-2.96036 Y-2.76703
G01 X-2.95857 Y-2.77650
G01 X-2.95725 Y-2.78605
G01 X-2.95616 Y-2.79882
G01 X-2.95580 Y-2.80992
G01 X-2.95581 Y-3.21963
G01 X-2.95600 Y-3.22648
G01 X-2.95643 Y-3.23371
G01 X-2.95765 Y-3.24563
G01 X-2.95967 Y-3.25784
G01 X-2.96125 Y-3.26531
G01 X-2.96277 Y-3.27157
G01 X-2.96450 Y-3.27778
G01 X-2.96655 Y-3.28431
G01 X-2.96922 Y-3.29189
G01 X-2.97154 Y-3.29786
G01 X-2.97658 Y-3.30918
G01 X-2.97999 Y-3.31603
G01 X-2.98325 Y-3.32205
G01 X-2.98671 Y-3.32795
G01 X-2.98994 Y-3.33306
G01 X-2.99422 Y-3.33942
G01 X-2.99822 Y-3.34497
G01 X-3.00216 Y-3.35006
G01 X-3.00627 Y-3.35502
G01 X-3.01106 Y-3.36048
G01 X-3.01573 Y-3.36548
G01 X-3.19917 Y-3.54895
G01 X-3.20827 Y-3.55749
G01 X-3.21620 Y-3.56424
G01 X-3.22445 Y-3.57054
G01 X-3.23472 Y-3.57751
G01 X-3.24321 Y-3.58273
G01 X-3.25231 Y-3.58769
G01 X-3.26094 Y-3.59184
G01 X-3.27162 Y-3.59639
G01 X-3.28143 Y-3.60000
G01 X-3.05000 Y-3.60000
G01 X-3.05000 Y-3.39978
G01 X-3.20031 Y-3.55009
G01 X-3.20528 Y-3.55480
G01 X-3.21100 Y-3.55988
G01 X-3.21590 Y-3.56399
G01 X-3.22092 Y-3.56793
G01 X-3.22607 Y-3.57171
G01 X-3.23201 Y-3.57575
G01 X-3.23910 Y-3.58028
G01 X-3.24599 Y-3.58431
G01 X-3.25231 Y-3.58769
G01 X-3.25840 Y-3.59067
G01 X-3.27236 Y-3.59668
G01 X-3.27871 Y-3.59906
G01 X-3.28514 Y-3.60121
G01 X-3.29163 Y-3.60315
G01 X-3.29819 Y-3.60486
G01 X-3.30565 Y-3.60659
G01 X-3.31314 Y-3.60804
G01 X-3.32068 Y-3.60920
G01 X-3.32786 Y-3.61003
G01 X-3.33903 Y-3.61088
G01 X-3.34896 Y-3.61115
G01 X-3.82362 Y-3.61106
G01 X-3.83443 Y-3.61074
G01 X-3.84560 Y-3.60978
G01 X-3.85472 Y-3.60852
G01 X-3.86539 Y-3.60655
G01 X-3.87439 Y-3.60447
G01 X-3.88367 Y-3.60186
G01 X-3.89434 Y-3.59825
G01 X-3.90296 Y-3.59493
G01 X-3.91177 Y-3.59104
G01 X-3.92074 Y-3.58653
G01 X-3.92988 Y-3.58143
G01 X-3.93806 Y-3.57634
G01 X-3.94631 Y-3.57062
G01 X-3.95462 Y-3.56427
G01 X-3.96079 Y-3.55914
G01 X-3.96674 Y-3.55377
G01 X-3.98622 Y-3.53444
G01 X-3.99781 Y-3.53566
G01 X-4.00940 Y-3.53619
G01 X-4.08940 Y-3.53621
G01 X-4.09740 Y-3.53597
G01 X-4.10538 Y-3.53540
G01 X-4.11293 Y-3.53456
G01 X-4.12102 Y-3.53333
G01 X-4.13358 Y-3.53649
G01 X-4.14029 Y-3.53783
G01 X-4.14624 Y-3.53882
G01 X-4.15380 Y-3.53986
G01 X-4.16061 Y-3.54056
G01 X-4.16744 Y-3.54103
G01 X-4.17429 Y-3.54127
G01 X-4.40659 Y-3.54133
G01 X-4.41366 Y-3.54362
G01 X-4.42020 Y-3.54548
G01 X-4.42680 Y-3.54712
G01 X-4.43590 Y-3.54909
G01 X-4.44259 Y-3.55028
G01 X-4.44933 Y-3.55124
G01 X-4.46535 Y-3.55273
G01 X-4.47699 Y-3.55315
G01 X-4.52632 Y-3.55310
G01 X-4.53825 Y-3.55251
G01 X-4.54588 Y-3.55183
G01 X-4.55263 Y-3.55100
G01 X-4.56138 Y-3.54958
G01 X-4.56805 Y-3.54830
G01 X-4.57507 Y-3.54669
G01 X-4.58269 Y-3.54467
G01 X-4.58922 Y-3.54274
G01 X-4.59529 Y-3.54072
G01 X-4.60323 Y-3.53778
G01 X-4.60916 Y-3.53539
G01 X-4.61574 Y-3.53246
G01 X-4.62320 Y-3.52885
G01 X-4.62887 Y-3.52588
G01 X-4.63444 Y-3.52273
G01 X-4.64134 Y-3.51856
G01 X-4.64704 Y-3.51485
G01 X-4.65261 Y-3.51095
G01 X-4.65908 Y-3.50614
G01 X-4.66439 Y-3.50190
G01 X-4.66926 Y-3.49774
G01 X-4.67525 Y-3.49234
G01 X-4.68042 Y-3.48733
G01 X-4.68655 Y-3.48093
G01 X-4.69083 Y-3.47618
G01 X-4.69522 Y-3.47098
G01 X-4.70034 Y-3.46447
G01 X-4.70439 Y-3.45900
G01 X-4.70824 Y-3.45340
G01 X-4.71260 Y-3.44661
G01 X-4.71609 Y-3.44078
G01 X-4.71938 Y-3.43483
G01 X-4.72325 Y-3.42730
G01 X-4.72615 Y-3.42115
G01 X-4.72885 Y-3.41485
G01 X-4.75000 Y-3.42325
G01 X-4.75547 Y-3.42557
G01 X-4.78803 Y-3.43994
G01 X-4.82261 Y-3.45619
G01 X-4.87408 Y-3.48180
G01 X-4.90000 Y-3.49546
G01 X-4.90000 Y-3.51397
G01 X-4.89158 Y-3.53024
G01 X-4.88326 Y-3.54484
G01 X-4.87844 Y-3.55267
G01 X-4.87299 Y-3.56114
G01 X-4.86299 Y-3.57561
G01 X-4.85458 Y-3.58680
G01 X-4.84395 Y-3.60000
G01 X-4.21601 Y-3.60000
G01 X-4.21917 Y-3.54130
G01 X-4.17550 Y-3.54128
G01 X-4.16825 Y-3.54108
G01 X-4.16181 Y-3.54067
G01 X-4.15180 Y-3.53960
G01 X-4.14029 Y-3.53783
G01 X-4.13084 Y-3.53587
G01 X-4.12102 Y-3.53333
G01 X-4.11452 Y-3.53434
G01 X-4.10737 Y-3.53520
G01 X-4.10059 Y-3.53578
G01 X-4.09340 Y-3.53613
G01 X-4.02232 Y-3.53622
G01 X-4.01886 Y-3.60000
G01 X-3.88937 Y-3.60000
G01 X-3.89698 Y-3.59728
G01 X-3.90296 Y-3.59493
G01 X-3.90922 Y-3.59221
G01 X-3.91503 Y-3.58947
G01 X-3.92109 Y-3.58634
G01 X-3.92884 Y-3.58204
G01 X-3.93468 Y-3.57851
G01 X-3.94040 Y-3.57478
G01 X-3.94631 Y-3.57062
G01 X-3.95241 Y-3.56600
G01 X-3.95742 Y-3.56199
G01 X-3.96230 Y-3.55782
G01 X-3.96963 Y-3.55100
G01 X-3.98622 Y-3.53444
G01 X-3.99781 Y-3.53566
G01 X-4.00940 Y-3.53619
G01 X-4.08940 Y-3.53621
G01 X-4.09740 Y-3.53597
G01 X-4.10538 Y-3.53540
G01 X-4.11293 Y-3.53456
G01 X-4.12102 Y-3.53333
G01 X-4.12268 Y-3.49978
G01 X-4.12151 Y-3.46950
G01 X-4.12059 Y-3.44991
G01 X-4.11839 Y-3.41080
G01 X-4.11752 Y-3.39859
G01 X-4.11607 Y-3.38184
G01 X-4.11501 Y-3.37243
G01 X-4.11386 Y-3.36411
G01 X-4.11172 Y-3.35257
G01 X-4.11022 Y-3.34670
G01 X-4.10925 Y-3.34352
G01 X-4.10672 Y-3.33663
G01 X-4.10454 Y-3.33008
G01 X-4.10321 Y-3.32529
G01 X-4.10181 Y-3.31896
G01 X-4.10065 Y-3.31132
G01 X-4.10015 Y-3.30534
G01 X-4.10001 Y-3.30054
G01 X-4.10013 Y-3.29505
G01 X-4.10054 Y-3.28969
G01 X-4.10140 Y-3.28334
G01 X-4.10246 Y-3.27781
G01 X-4.10377 Y-3.27257
G01 X-4.10495 Y-3.26857
G01 X-4.10991 Y-3.25435
G01 X-4.11119 Y-3.24961
G01 X-4.11300 Y-3.24101
G01 X-4.11470 Y-3.22993
G01 X-4.11571 Y-3.22141
G01 X-4.11707 Y-3.20653
G01 X-4.12326 Y-3.20279
G01 X-4.13289 Y-3.19753
G01 X-4.14289 Y-3.19268
G01 X-4.15007 Y-3.18958
G01 X-4.16298 Y-3.18466
G01 X-4.16763 Y-3.18309
G01 X-4.18219 Y-3.17874
G01 X-4.19378 Y-3.17587
G01 X-4.19889 Y-3.17476
G01 X-4.21310 Y-3.17210
G01 X-4.21848 Y-3.17125
G01 X-4.23523 Y-3.16914
G01 X-4.24090 Y-3.16859
G01 X-4.26285 Y-3.16717
G01 X-4.29192 Y-3.09698
G01 X-4.29883 Y-3.09025
G01 X-4.31006 Y-3.07864
G01 X-4.31441 Y-3.07384
G01 X-4.32286 Y-3.06395
G01 X-4.32671 Y-3.05916
G01 X-4.33289 Y-3.05099
G01 X-4.33601 Y-3.04659
G01 X-4.34807 Y-3.02868
G01 X-4.35460 Y-3.01942
G01 X-4.36357 Y-3.00740
G01 X-4.37472 Y-2.99337
G01 X-4.38035 Y-2.98561
G01 X-4.38331 Y-2.98117
G01 X-4.38823 Y-2.97306
G01 X-4.39026 Y-2.96944
G01 X-4.39479 Y-2.96059
G01 X-4.39938 Y-2.95033
G01 X-4.40203 Y-2.94368
G01 X-4.40566 Y-2.93337
G01 X-4.41044 Y-2.93139
G01 X-4.42379 Y-2.92882
G01 X-4.42791 Y-2.92783
G01 X-4.43931 Y-2.92459
G01 X-4.44977 Y-2.92083
G01 X-4.45869 Y-2.91693
G01 X-4.46295 Y-2.91482
G01 X-4.46875 Y-2.91162
G01 X-4.47713 Y-2.90628
G01 X-4.48036 Y-2.90396
G01 X-4.48564 Y-2.89982
G01 X-4.49040 Y-2.89567
G01 X-4.49428 Y-2.89192
G01 X-4.49616 Y-2.88107
G01 X-4.49888 Y-2.86932
G01 X-4.49982 Y-2.86374
G01 X-4.50043 Y-2.85826
G01 X-4.50074 Y-2.85283
G01 X-4.50065 Y-2.84503
G01 X-4.49997 Y-2.83737
G01 X-4.49875 Y-2.83007
G01 X-4.49494 Y-2.82764
G01 X-4.48779 Y-2.82364
G01 X-4.48117 Y-2.82058
G01 X-4.47716 Y-2.81902
G01 X-4.47093 Y-2.81705
G01 X-4.46499 Y-2.81568
G01 X-4.45924 Y-2.81483
G01 X-4.45228 Y-2.81442
G01 X-4.44509 Y-2.81471
G01 X-4.43979 Y-2.81539
G01 X-4.43239 Y-2.81700
G01 X-4.42517 Y-2.81933
G01 X-4.29805 Y-2.81937
G01 X-4.29085 Y-2.82002
G01 X-4.28359 Y-2.82153
G01 X-4.27853 Y-2.82311
G01 X-4.27529 Y-2.82433
G01 X-4.27100 Y-2.82621
G01 X-4.26776 Y-2.82783
G01 X-4.26266 Y-2.83073
G01 X-4.25942 Y-2.83279
G01 X-4.25317 Y-2.83722
G01 X-4.24718 Y-2.84209
G01 X-4.24042 Y-2.84832
G01 X-4.21140 Y-2.87730
G01 X-4.19612 Y-2.88363
G01 X-4.06278 Y-3.01698
G01 X-4.05754 Y-3.02200
G01 X-4.05053 Y-3.02819
G01 X-4.03911 Y-3.03702
G01 X-4.03643 Y-3.03892
G01 X-4.02216 Y-3.04798
G01 X-4.01961 Y-3.04943
G01 X-4.00542 Y-3.05671
G01 X-3.99693 Y-3.06050
G01 X-3.72642 Y-3.06050
G01 X-3.71413 Y-3.06399
G01 X-3.70132 Y-3.06701
G01 X-3.69572 Y-3.06812
G01 X-3.68343 Y-3.07011
G01 X-3.67784 Y-3.07081
G01 X-3.66588 Y-3.07188
G01 X-3.66029 Y-3.07218
G01 X-3.64860 Y-3.07242
G01 X-3.63905 Y-3.07217
G01 X-3.63227 Y-3.07178
G01 X-3.62264 Y-3.07089
G01 X-3.61376 Y-3.06974
G01 X-3.60437 Y-3.06817
G01 X-3.59120 Y-3.06533
G01 X-3.58561 Y-3.06392
G01 X-3.57520 Y-3.06099
G01 X-3.56653 Y-3.05820
G01 X-3.56096 Y-3.05731
G01 X-3.54587 Y-3.05424
G01 X-3.53036 Y-3.05001
G01 X-3.51633 Y-3.04524
G01 X-3.50688 Y-3.04154
G01 X-3.48047 Y-3.03060
G01 X-3.46992 Y-3.02384
G01 X-3.45820 Y-3.01698
G01 X-3.44461 Y-3.00979
G01 X-3.45343 Y-2.98070
G01 X-3.45957 Y-2.95429
G01 X-3.45838 Y-2.92213
G01 X-3.45772 Y-2.91139
G01 X-3.45664 Y-2.89933
G01 X-3.45560 Y-2.89107
G01 X-3.45454 Y-2.88460
G01 X-3.45071 Y-2.86714
G01 X-3.44967 Y-2.85943
G01 X-3.44930 Y-2.85400
G01 X-3.44932 Y-2.84564
G01 X-3.44955 Y-2.84203
G01 X-3.45028 Y-2.83561
G01 X-3.45141 Y-2.82927
G01 X-3.45312 Y-2.82217
G01 X-3.45471 Y-2.81443
G01 X-3.44743 Y-2.80988
G01 X-3.44015 Y-2.80663
G01 X-3.43287 Y-2.80468
G01 X-3.42559 Y-2.80403
G01 X-3.37441 Y-2.80403
G01 X-3.36423 Y-2.80530
G01 X-3.35406 Y-2.80911
G01 X-3.34830 Y-2.80912
G01 X-3.34200 Y-2.80947
G01 X-3.33583 Y-2.81032
G01 X-3.33193 Y-2.81108
G01 X-3.32581 Y-2.81266
G01 X-3.31778 Y-2.81545
G01 X-3.24540 Y-2.84540
G01 X-3.24269 Y-2.85193
G01 X-3.23657 Y-2.85874
G01 X-3.22931 Y-2.86757
G01 X-3.22627 Y-2.87157
G01 X-3.22092 Y-2.87914
G01 X-3.21428 Y-2.88984
G01 X-3.21208 Y-2.89384
G01 X-3.20893 Y-2.90011
G01 X-3.20611 Y-2.90650
G01 X-3.20373 Y-2.91273
G01 X-3.20193 Y-2.91824
G01 X-3.20009 Y-2.92509
G01 X-3.19894 Y-2.93058
G01 X-3.19814 Y-2.93559
G01 X-3.19754 Y-2.94101
G01 X-3.19715 Y-2.94992
G01 X-3.19728 Y-2.95522
G01 X-3.19778 Y-2.96150
G01 X-3.19915 Y-2.97052
G01 X-3.20036 Y-2.97603
G01 X-3.20232 Y-2.98304
G01 X-3.20435 Y-2.98900
G01 X-3.20660 Y-2.99466
G01 X-3.20908 Y-3.00020
G01 X-3.20912 Y-3.18184
G01 X-3.20956 Y-3.18895
G01 X-3.21052 Y-3.19548
G01 X-3.21141 Y-3.19970
G01 X-3.21585 Y-3.20532
G01 X-3.21990 Y-3.20974
G01 X-3.28997 Y-3.27981
G01 X-3.29328 Y-3.28293
G01 X-3.29842 Y-3.28719
G01 X-3.30540 Y-3.29200
G01 X-3.31098 Y-3.29522
G01 X-3.31402 Y-3.29677
G01 X-3.32251 Y-3.30052
G01 X-3.32346 Y-3.30590
G01 X-3.32489 Y-3.31230
G01 X-3.32739 Y-3.32099
G01 X-3.32923 Y-3.32619
G01 X-3.33119 Y-3.33094
G01 X-3.33312 Y-3.33506
G01 X-3.33604 Y-3.34048
G01 X-3.33812 Y-3.34386
G01 X-3.34175 Y-3.34906
G01 X-3.34408 Y-3.35202
G01 X-3.34737 Y-3.35575
G01 X-3.35017 Y-3.35861
G01 X-3.35496 Y-3.36291
G01 X-3.35892 Y-3.36601
G01 X-3.36201 Y-3.36817
G01 X-3.36867 Y-3.36922
G01 X-3.37607 Y-3.36976
G01 X-3.42176 Y-3.36980
G01 X-3.42604 Y-3.36968
G01 X-3.43360 Y-3.36892
G01 X-3.44043 Y-3.36764
G01 X-3.44632 Y-3.36609
G01 X-3.45275 Y-3.36389
G01 X-3.67244 Y-3.36387
G01 X-3.67771 Y-3.36359
G01 X-3.68242 Y-3.36300
G01 X-3.71942 Y-3.35648
G01 X-3.72522 Y-3.35780
G01 X-3.73067 Y-3.35878
G01 X-3.73916 Y-3.35984
G01 X-3.74682 Y-3.36030
G01 X-3.75415 Y-3.36027
G01 X-3.76042 Y-3.35989
G01 X-3.76578 Y-3.35930
G01 X-3.77098 Y-3.35851
G01 X-3.77645 Y-3.35744
G01 X-3.78121 Y-3.35631
G01 X-3.78790 Y-3.35439
G01 X-3.78881 Y-3.35040
G01 X-3.79033 Y-3.34485
G01 X-3.79409 Y-3.33436
G01 X-3.79655 Y-3.32624
G01 X-3.79751 Y-3.32229
G01 X-3.79878 Y-3.31561
G01 X-3.79975 Y-3.30702
G01 X-3.80000 Y-3.30047
G01 X-3.79984 Y-3.29449
G01 X-3.79940 Y-3.28909
G01 X-3.79801 Y-3.28008
G01 X-3.79676 Y-3.27458
G01 X-3.79529 Y-3.26935
G01 X-3.79353 Y-3.26406
G01 X-3.79127 Y-3.25802
G01 X-3.78911 Y-3.25082
G01 X-3.78714 Y-3.24178
G01 X-3.78518 Y-3.22892
G01 X-3.79889 Y-3.22509
G01 X-3.81260 Y-3.22382
G01 X-3.88740 Y-3.22382
G01 X-3.89788 Y-3.22456
G01 X-3.90836 Y-3.22680
G01 X-3.91884 Y-3.23053
G01 X-3.92932 Y-3.23575
G01 X-3.97068 Y-3.23575
G01 X-3.98116 Y-3.23053
G01 X-3.99164 Y-3.22680
G01 X-4.00212 Y-3.22456
G01 X-4.01260 Y-3.22382
G01 X-4.04280 Y-3.22382
G01 X-4.04817 Y-3.22366
G01 X-4.05558 Y-3.22303
G01 X-4.06260 Y-3.22194
G01 X-4.06773 Y-3.22085
G01 X-4.07627 Y-3.21848
G01 X-4.08133 Y-3.21674
G01 X-4.08740 Y-3.21436
G01 X-4.10145 Y-3.20966
G01 X-4.11707 Y-3.20653
G01 X-4.12326 Y-3.20279
G01 X-4.13289 Y-3.19753
G01 X-4.14289 Y-3.19268
G01 X-4.15007 Y-3.18958
G01 X-4.16298 Y-3.18466
G01 X-4.16763 Y-3.18309
G01 X-4.18219 Y-3.17874
G01 X-4.19378 Y-3.17587
G01 X-4.19889 Y-3.17476
G01 X-4.21310 Y-3.17210
G01 X-4.21848 Y-3.17125
G01 X-4.23523 Y-3.16914
G01 X-4.24090 Y-3.16859
G01 X-4.26102 Y-3.16724
G01 X-4.26285 Y-3.16717
G01 X-4.26972 Y-3.18291
G01 X-4.33313 Y-3.24632
G01 X-4.34375 Y-3.25613
G01 X-4.35457 Y-3.26476
G01 X-4.36173 Y-3.26969
G01 X-4.37043 Y-3.27485
G01 X-4.37932 Y-3.27917
G01 X-4.38893 Y-3.28315
G01 X-4.39664 Y-3.28582
G01 X-4.40116 Y-3.28701
G01 X-4.40824 Y-3.28838
G01 X-4.41446 Y-3.28905
G01 X-4.41938 Y-3.28924
G01 X-4.44536 Y-3.28924
G01 X-4.44568 Y-3.28936
G01 X-4.44897 Y-3.28938
G01 X-4.67385 Y-3.28938
G01 X-4.73079 Y-3.30990
G01 X-4.73678 Y-3.31210
G01 X-4.74550 Y-3.31556
G01 X-4.92556 Y-3.13552
G01 X-4.93244 Y-3.12823
G01 X-4.93923 Y-3.12027
G01 X-4.94297 Y-3.11561
G01 X-4.94704 Y-3.11019
G01 X-4.95376 Y-3.10029
G01 X-4.95730 Y-3.09451
G01 X-4.96108 Y-3.08790
G01 X-4.96656 Y-3.07725
G01 X-4.97138 Y-3.06629
G01 X-4.97401 Y-3.05957
G01 X-4.97627 Y-3.05317
G01 X-4.97962 Y-3.04209
G01 X-4.98280 Y-3.02885
G01 X-4.98435 Y-3.02061
G01 X-4.98559 Y-3.01192
G01 X-4.98658 Y-3.00194
G01 X-4.98708 Y-2.99312
G01 X-4.98719 Y-2.98629
G01 X-4.98718 Y-2.91322
G01 X-4.98700 Y-2.90485
G01 X-4.98656 Y-2.89769
G01 X-4.98582 Y-2.89015
G01 X-4.98444 Y-2.88022
G01 X-4.98312 Y-2.87272
G01 X-4.98161 Y-2.86567
G01 X-4.97973 Y-2.85829
G01 X-4.97769 Y-2.85137
G01 X-4.97502 Y-2.84335
G01 X-4.97225 Y-2.83583
G01 X-4.96917 Y-2.82843
G01 X-4.96579 Y-2.82116
G01 X-4.96211 Y-2.81404
G01 X-4.95738 Y-2.80563
G01 X-4.95296 Y-2.79846
G01 X-4.94825 Y-2.79149
G01 X-4.94324 Y-2.78473
G01 X-4.93508 Y-2.77479
G01 X-4.92753 Y-2.76649
G01 X-4.87232 Y-2.71124
G01 X-4.85484 Y-2.71142
G01 X-4.82784 Y-2.71053
G01 X-4.80762 Y-2.70899
G01 X-4.80248 Y-2.70848
G01 X-4.78056 Y-2.70563
G01 X-4.76530 Y-2.70298
G01 X-4.74714 Y-2.69902
G01 X-4.71399 Y-2.69060
G01 X-4.69449 Y-2.68598
G01 X-4.67432 Y-2.68152
G01 X-4.64072 Y-2.67469
G01 X-4.63037 Y-2.67215
G01 X-4.62129 Y-2.66959
G01 X-4.37875 Y-2.66958
G01 X-4.36799 Y-2.67256
G01 X-4.35586 Y-2.67542
G01 X-4.35106 Y-2.67639
G01 X-4.33984 Y-2.67834
G01 X-4.32497 Y-2.68017
G01 X-4.31021 Y-2.68116
G01 X-4.30581 Y-2.68130
G01 X-4.29551 Y-2.68132
G01 X-4.28118 Y-2.68069
G01 X-4.15282 Y-2.71106
G01 X-4.14221 Y-2.71425
G01 X-4.13554 Y-2.71671
G01 X-4.12821 Y-2.71982
G01 X-4.12500 Y-2.72485
G01 X-4.12047 Y-2.73262
G01 X-4.11533 Y-2.74302
G01 X-4.08629 Y-2.81300
G01 X-4.08329 Y-2.81870
G01 X-4.07939 Y-2.82349
G01 X-4.07460 Y-2.82739
G01 X-4.06890 Y-2.83039
G01 X-3.96421 Y-2.87375
G01 X-3.93110 Y-2.87375
G01 X-3.91613 Y-2.87283
G01 X-3.90115 Y-2.87006
G01 X-3.88618 Y-2.86545
G01 X-3.87121 Y-2.85899
G01 X-3.85623 Y-2.85068
G01 X-3.84126 Y-2.84053
G01 X-3.82628 Y-2.82854
G01 X-3.81131 Y-2.81470
G01 X-3.88390 Y-2.74210
G01 X-3.89422 Y-2.73030
G01 X-3.90160 Y-2.71850
G01 X-3.90602 Y-2.70670
G01 X-3.90750 Y-2.69490
G01 X-3.90750 Y-2.67520
G01 X-3.90897 Y-2.66340
G01 X-3.91340 Y-2.65160
G01 X-3.92077 Y-2.63980
G01 X-3.93110 Y-2.62800
G01 X-3.93310 Y-2.62600
G01 X-4.00277 Y-2.62600
G01 X-4.06890 Y-2.61039
G01 X-4.08184 Y-2.60588
G01 X-4.09348 Y-2.59878
G01 X-4.10382 Y-2.58909
G01 X-4.11287 Y-2.57680
G01 X-4.14506 Y-2.52470
G01 X-4.12418 Y-2.47428
G01 X-4.08890 Y-2.43900
G01 X-4.08390 Y-2.43462
G01 X-4.07890 Y-2.43150
G01 X-4.07390 Y-2.42962
G01 X-4.06890 Y-2.42900
G01 X-3.93110 Y-2.42900
G01 X-3.92610 Y-2.42962
G01 X-3.92110 Y-2.43150
G01 X-3.91610 Y-2.43462
G01 X-3.91110 Y-2.43900
G01 X-3.88232 Y-2.46778
G01 X-3.83338 Y-2.48805
G01 X-3.83152 Y-2.48805
G01 X-3.74610 Y-2.52343
G01 X-3.73792 Y-2.52747
G01 X-3.73065 Y-2.53243
G01 X-3.72431 Y-2.53831
G01 X-3.71888 Y-2.54510
G01 X-3.71780 Y-2.55323
G01 X-3.71723 Y-2.56136
G01 X-3.71636 Y-2.56915
G01 X-3.71461 Y-2.57905
G01 X-3.70633 Y-2.58463
G01 X-3.69836 Y-2.59049
G01 X-3.69224 Y-2.59540
G01 X-3.68396 Y-2.60251
G01 X-3.68046 Y-2.60524
G01 X-3.67461 Y-2.60939
G01 X-3.66786 Y-2.61360
G01 X-3.65827 Y-2.61873
G01 X-3.64951 Y-2.62265
G01 X-3.64032 Y-2.62609
G01 X-3.62990 Y-2.62929
G01 X-3.61779 Y-2.63221
G01 X-3.60890 Y-2.63388
G01 X-3.59504 Y-2.63576
G01 X-3.58176 Y-2.63688
G01 X-3.52784 Y-2.65920
G01 X-3.32557 Y-2.65920
G01 X-3.31247 Y-2.66292
G01 X-3.30259 Y-2.66528
G01 X-3.29365 Y-2.66705
G01 X-3.28438 Y-2.66855
G01 X-3.27206 Y-2.66999
G01 X-3.26255 Y-2.67066
G01 X-3.25271 Y-2.67097
G01 X-3.24287 Y-2.67088
G01 X-3.23217 Y-2.67033
G01 X-3.22104 Y-2.66925
G01 X-3.18501 Y-2.66394
G01 X-3.16064 Y-2.66076
G01 X-3.13969 Y-2.65833
G01 X-3.09651 Y-2.65392
G01 X-3.07256 Y-2.65115
G01 X-3.06599 Y-2.65023
G01 X-3.03372 Y-2.64484
G01 X-3.03114 Y-2.63881
G01 X-3.02881 Y-2.63285
G01 X-3.02430 Y-2.61959
G01 X-3.02115 Y-2.60842
G01 X-3.01816 Y-2.59515
G01 X-3.01631 Y-2.58409
G01 X-3.01526 Y-2.57616
G01 X-3.01466 Y-2.57019
G01 X-3.01387 Y-2.55540
G01 X-3.01390 Y-2.54380
G01 X-3.01429 Y-2.53503
G01 X-3.01480 Y-2.52831
G01 X-3.01553 Y-2.52162
G01 X-3.01669 Y-2.51335
G01 X-3.01773 Y-2.50709
G01 X-3.01897 Y-2.50088
G01 X-3.02248 Y-2.48655
G01 X-3.02465 Y-2.47926
G01 X-3.02720 Y-2.47168
G01 X-3.03154 Y-2.46019
G01 X-3.03790 Y-2.44607
G01 X-3.04113 Y-2.43972
G01 X-3.04419 Y-2.43417
G01 X-3.04821 Y-2.42726
G01 X-3.05160 Y-2.42183
G01 X-3.05517 Y-2.41651
G01 X-3.06048 Y-2.40904
G01 X-3.06432 Y-2.40400
G01 X-3.06833 Y-2.39909
G01 X-3.07432 Y-2.39214
G01 X-3.07893 Y-2.38713
G01 X-3.08399 Y-2.38201
G01 X-3.09036 Y-2.37596
G01 X-3.09507 Y-2.37171
G01 X-3.09991 Y-2.36763
G01 X-3.10709 Y-2.36197
G01 X-3.11250 Y-2.35795
G01 X-3.11803 Y-2.35412
G01 X-3.12443 Y-2.35000
G01 X-3.05000 Y-2.35000
G01 X-3.05000 Y-2.42434
G01 X-3.04988 Y-2.42453
G01 X-3.05563 Y-2.41585
G01 X-3.06383 Y-2.40463
G01 X-3.07274 Y-2.39395
G01 X-3.08004 Y-2.38598
G01 X-3.09036 Y-2.37596
G01 X-3.09808 Y-2.36914
G01 X-3.10867 Y-2.36077
G01 X-3.11770 Y-2.35434
G01 X-3.12877 Y-2.34730
G01 X-3.13806 Y-2.34202
G01 X-3.15048 Y-2.33579
G01 X-3.16066 Y-2.33138
G01 X-3.17254 Y-2.32687
G01 X-3.18387 Y-2.32328
G01 X-3.19116 Y-2.32126
G01 X-3.19731 Y-2.31975
G01 X-3.21095 Y-2.31709
G01 X-3.21878 Y-2.31587
G01 X-3.22705 Y-2.31494
G01 X-3.23700 Y-2.31417
G01 X-3.24580 Y-2.31384
G01 X-3.25495 Y-2.31386
G01 X-3.26285 Y-2.31416
G01 X-3.27357 Y-2.31499
G01 X-3.28232 Y-2.31603
G01 X-3.29137 Y-2.31746
G01 X-3.29913 Y-2.31897
G01 X-3.30881 Y-2.32124
G01 X-3.31729 Y-2.32360
G01 X-3.32639 Y-2.32650
G01 X-3.33455 Y-2.32947
G01 X-3.34453 Y-2.33354
G01 X-3.35287 Y-2.33740
G01 X-3.54714 Y-2.33740
G01 X-3.55998 Y-2.33162
G01 X-3.56588 Y-2.32930
G01 X-3.57292 Y-2.32678
G01 X-3.65123 Y-2.24861
G01 X-3.65870 Y-2.24196
G01 X-3.66714 Y-2.23517
G01 X-3.67454 Y-2.22968
G01 X-3.68219 Y-2.22454
G01 X-3.69252 Y-2.21839
G01 X-3.70424 Y-2.21227
G01 X-3.71477 Y-2.20751
G01 X-3.72556 Y-2.20337
G01 X-3.73161 Y-2.20136
G01 X-3.73891 Y-2.19918
G01 X-3.74971 Y-2.19638
G01 X-3.76183 Y-2.19400
G01 X-3.77368 Y-2.19243
G01 X-3.78488 Y-2.19149
G01 X-3.79570 Y-2.19115
G01 X-4.15588 Y-2.19116
G01 X-4.16697 Y-2.19161
G01 X-4.17971 Y-2.19278
G01 X-4.19076 Y-2.19445
G01 X-4.20212 Y-2.19682
G01 X-4.21217 Y-2.19942
G01 X-4.22131 Y-2.20228
G01 X-4.23184 Y-2.20617
G01 X-4.24073 Y-2.20989
G01 X-4.24906 Y-2.21387
G01 X-4.25755 Y-2.21843
G01 X-4.26656 Y-2.22376
G01 X-4.27526 Y-2.22953
G01 X-4.28206 Y-2.23451
G01 X-4.28897 Y-2.24003
G01 X-4.29441 Y-2.24465
G01 X-4.29995 Y-2.24973
G01 X-4.37708 Y-2.32678
G01 X-4.38412 Y-2.32930
G01 X-4.39002 Y-2.33162
G01 X-4.40286 Y-2.33740
G01 X-4.59713 Y-2.33740
G01 X-4.60841 Y-2.33229
G01 X-4.61618 Y-2.32918
G01 X-4.62286 Y-2.32675
G01 X-4.63655 Y-2.32248
G01 X-4.64274 Y-2.32086
G01 X-4.65087 Y-2.31897
G01 X-4.65746 Y-2.31767
G01 X-4.66570 Y-2.31632
G01 X-4.67762 Y-2.31487
G01 X-4.68557 Y-2.31426
G01 X-4.69228 Y-2.31392
G01 X-4.70660 Y-2.31389
G01 X-4.71380 Y-2.31421
G01 X-4.72295 Y-2.31494
G01 X-4.73004 Y-2.31572
G01 X-4.73670 Y-2.31669
G01 X-4.74649 Y-2.31844
G01 X-4.75346 Y-2.31993
G01 X-4.76037 Y-2.32167
G01 X-4.76955 Y-2.32428
G01 X-4.77596 Y-2.32635
G01 X-4.78266 Y-2.32877
G01 X-4.79154 Y-2.33227
G01 X-4.79844 Y-2.33529
G01 X-4.80450 Y-2.33821
G01 X-4.81333 Y-2.34277
G01 X-4.81953 Y-2.34629
G01 X-4.82557 Y-2.35000
G01 X-4.90000 Y-2.35000
G01 X-4.90000 Y-2.42434
G01 X-4.90012 Y-2.42453
G01 X-4.89391 Y-2.41520
G01 X-4.88952 Y-2.40904
G01 X-4.88518 Y-2.40338
G01 X-4.87568 Y-2.39214
G01 X-4.86744 Y-2.38341
G01 X-4.85701 Y-2.37355
G01 X-4.84824 Y-2.36613
G01 X-4.83686 Y-2.35749
G01 X-4.83164 Y-2.35390
G01 X-4.82557 Y-2.35000
G01 X-4.83164 Y-2.35390
G01 X-4.83718 Y-2.35772
G01 X-4.84855 Y-2.36638
G01 X-4.85760 Y-2.37408
G01 X-4.86772 Y-2.38369
G01 X-4.87594 Y-2.39244
G01 X-4.88167 Y-2.39909
G01 X-4.88568 Y-2.40400
G01 X-4.88952 Y-2.40904
G01 X-4.89437 Y-2.41585
G01 X-4.90054 Y-2.42521
G01 X-4.90775 Y-2.43762
G01 X-4.91329 Y-2.44858
G01 X-4.91920 Y-2.46203
G01 X-4.92148 Y-2.46794
G01 X-4.92423 Y-2.47584
G01 X-4.92618 Y-2.48194
G01 X-4.92793 Y-2.48810
G01 X-4.93128 Y-2.50204
G01 X-4.93325 Y-2.51295
G01 X-4.93442 Y-2.52123
G01 X-4.93513 Y-2.52752
G01 X-4.93566 Y-2.53424
G01 X-4.93606 Y-2.54260
G01 X-4.93619 Y-2.54860
G01 X-4.93613 Y-2.55540
G01 X-4.93573 Y-2.56458
G01 X-4.93524 Y-2.57129
G01 X-4.93452 Y-2.57799
G01 X-4.93342 Y-2.58587
G01 X-4.93241 Y-2.59213
G01 X-4.93119 Y-2.59835
G01 X-4.92751 Y-2.61345
G01 X-4.92410 Y-2.62454
G01 X-4.92148 Y-2.63206
G01 X-4.91876 Y-2.63907
G01 X-4.91577 Y-2.64598
G01 X-4.91105 Y-2.65606
G01 X-4.90717 Y-2.66342
G01 X-4.90261 Y-2.67137
G01 X-4.89883 Y-2.67750
G01 X-4.89460 Y-2.68382
G01 X-4.88878 Y-2.69195
G01 X-4.88361 Y-2.69858
G01 X-4.87714 Y-2.70621
G01 X-4.87261 Y-2.71123
G01 X-4.85989 Y-2.71145
G01 X-4.87232 Y-2.71124
G01 X-4.92528 Y-2.76419
G01 X-4.93110 Y-2.77029
G01 X-4.93664 Y-2.77662
G01 X-4.94348 Y-2.78505
G01 X-4.94917 Y-2.79280
G01 X-4.95383 Y-2.79981
G01 X-4.95839 Y-2.80736
G01 X-4.96362 Y-2.81687
G01 X-4.96768 Y-2.82514
G01 X-4.97135 Y-2.83360
G01 X-4.97422 Y-2.84109
G01 X-4.97733 Y-2.85022
G01 X-4.97973 Y-2.85829
G01 X-4.98161 Y-2.86567
G01 X-4.98312 Y-2.87272
G01 X-4.98450 Y-2.88062
G01 X-4.98582 Y-2.89015
G01 X-4.98665 Y-2.89888
G01 X-4.98703 Y-2.90564
G01 X-4.98717 Y-2.91202
G01 X-4.98716 Y-2.98991
G01 X-4.98692 Y-2.99673
G01 X-4.98644 Y-3.00354
G01 X-4.98559 Y-3.01192
G01 X-4.98454 Y-3.01943
G01 X-4.98220 Y-3.03158
G01 X-4.98033 Y-3.03938
G01 X-4.97876 Y-3.04516
G01 X-4.97510 Y-3.05656
G01 X-4.97047 Y-3.06850
G01 X-4.96569 Y-3.07905
G01 X-4.96011 Y-3.08964
G01 X-4.95628 Y-3.09622
G01 X-4.95312 Y-3.10130
G01 X-4.94957 Y-3.10661
G01 X-4.94586 Y-3.11180
G01 X-4.94124 Y-3.11780
G01 X-4.93587 Y-3.12430
G01 X-4.93163 Y-3.12912
G01 X-4.92696 Y-3.13409
G01 X-4.82131 Y-3.23976
G01 X-4.83430 Y-3.24520
G01 X-4.86856 Y-3.26029
G01 X-4.90000 Y-3.27506
G01 X-4.90000 Y-3.16108
G01 X-4.74550 Y-3.31556
G01 X-4.73678 Y-3.31210
G01 X-4.74567 Y-3.31563
G01 X-4.74599 Y-3.32299
G01 X-4.74604 Y-3.32939
G01 X-4.74586 Y-3.33790
G01 X-4.74544 Y-3.34549
G01 X-4.74439 Y-3.35589
G01 X-4.74324 Y-3.36422
G01 X-4.74182 Y-3.37209
G01 X-4.73967 Y-3.38192
G01 X-4.73752 Y-3.39004
G01 X-4.73481 Y-3.39890
G01 X-4.73203 Y-3.40682
G01 X-4.72885 Y-3.41485
G01 X-4.73340 Y-3.40306
G01 X-4.73752 Y-3.39004
G01 X-4.74031 Y-3.37919
G01 X-4.74298 Y-3.36579
G01 X-4.74477 Y-3.35265
G01 X-4.74570 Y-3.34149
G01 X-4.74605 Y-3.32739
G01 X-4.74567 Y-3.31563
G01 X-4.73678 Y-3.31210
G01 X-4.73079 Y-3.30990
G01 X-4.67385 Y-3.28938
G01 X-4.65705 Y-3.27788
G01 X-4.61948 Y-3.25165
G01 X-4.60322 Y-3.24004
G01 X-4.58847 Y-3.22917
G01 X-4.58143 Y-3.22426
G01 X-4.57161 Y-3.21834
G01 X-4.56531 Y-3.21509
G01 X-4.55949 Y-3.21248
G01 X-4.55470 Y-3.21063
G01 X-4.45113 Y-3.21062
G01 X-4.44933 Y-3.20705
G01 X-4.44642 Y-3.20030
G01 X-4.44489 Y-3.19605
G01 X-4.44313 Y-3.18995
G01 X-4.44186 Y-3.18388
G01 X-4.44097 Y-3.17636
G01 X-4.44080 Y-3.17211
G01 X-4.44094 Y-3.16657
G01 X-4.44153 Y-3.16079
G01 X-4.44302 Y-3.15301
G01 X-4.44482 Y-3.14669
G01 X-4.44719 Y-3.14028
G01 X-4.45042 Y-3.13325
G01 X-4.45430 Y-3.12624
G01 X-4.45682 Y-3.12221
G01 X-4.46250 Y-3.11418
G01 X-4.46628 Y-3.10941
G01 X-4.46951 Y-3.10560
G01 X-4.47621 Y-3.09832
G01 X-4.49868 Y-3.07583
G01 X-4.52305 Y-3.06573
G01 X-4.53197 Y-3.06232
G01 X-4.54635 Y-3.05763
G01 X-4.55287 Y-3.05579
G01 X-4.58872 Y-3.01992
G01 X-4.60424 Y-3.02135
G01 X-4.61471 Y-3.02195
G01 X-4.62848 Y-3.02223
G01 X-4.64023 Y-3.02196
G01 X-4.65476 Y-3.02084
G01 X-4.66568 Y-3.01935
G01 X-4.67574 Y-3.01741
G01 X-4.68464 Y-3.01516
G01 X-4.69260 Y-3.01265
G01 X-4.70200 Y-3.00899
G01 X-4.70627 Y-3.00705
G01 X-4.71178 Y-3.00422
G01 X-4.71862 Y-3.00017
G01 X-4.72356 Y-2.99681
G01 X-4.72710 Y-2.99413
G01 X-4.73255 Y-2.98952
G01 X-4.73667 Y-2.98556
G01 X-4.73969 Y-2.98236
G01 X-4.74314 Y-2.97835
G01 X-4.74638 Y-2.97413
G01 X-4.74772 Y-2.96788
G01 X-4.74852 Y-2.96273
G01 X-4.74917 Y-2.95594
G01 X-4.74933 Y-2.95165
G01 X-4.74921 Y-2.94489
G01 X-4.74892 Y-2.94086
G01 X-4.74841 Y-2.93643
G01 X-4.74723 Y-2.92956
G01 X-4.74639 Y-2.92586
G01 X-4.74554 Y-2.92471
G01 X-4.74085 Y-2.91894
G01 X-4.73780 Y-2.91560
G01 X-4.73383 Y-2.91166
G01 X-4.72870 Y-2.90715
G01 X-4.72323 Y-2.90296
G01 X-4.71556 Y-2.89794
G01 X-4.71049 Y-2.89509
G01 X-4.70335 Y-2.89160
G01 X-4.69278 Y-2.88740
G01 X-4.63345 Y-2.82811
G01 X-4.62363 Y-2.82405
G01 X-4.62017 Y-2.82280
G01 X-4.61525 Y-2.82137
G01 X-4.61088 Y-2.82043
G01 X-4.60420 Y-2.81961
G01 X-4.58983 Y-2.81948
G01 X-4.58271 Y-2.81568
G01 X-4.57559 Y-2.81441
G01 X-4.52441 Y-2.81441
G01 X-4.51941 Y-2.81503
G01 X-4.51441 Y-2.81691
G01 X-4.50941 Y-2.82003
G01 X-4.50441 Y-2.82441
G01 X-4.49875 Y-2.83007
G01 X-4.49997 Y-2.83737
G01 X-4.50065 Y-2.84503
G01 X-4.50074 Y-2.85283
G01 X-4.50043 Y-2.85826
G01 X-4.49982 Y-2.86374
G01 X-4.49888 Y-2.86932
G01 X-4.49616 Y-2.88107
G01 X-4.49428 Y-2.89192
G01 X-4.49040 Y-2.89567
G01 X-4.48564 Y-2.89982
G01 X-4.48036 Y-2.90396
G01 X-4.47713 Y-2.90628
G01 X-4.46875 Y-2.91162
G01 X-4.46295 Y-2.91482
G01 X-4.45869 Y-2.91693
G01 X-4.44977 Y-2.92083
G01 X-4.43931 Y-2.92459
G01 X-4.42791 Y-2.92783
G01 X-4.42379 Y-2.92882
G01 X-4.41044 Y-2.93139
G01 X-4.40566 Y-2.93337
G01 X-4.40203 Y-2.94368
G01 X-4.39938 Y-2.95033
G01 X-4.39479 Y-2.96059
G01 X-4.39026 Y-2.96944
G01 X-4.38823 Y-2.97306
G01 X-4.38331 Y-2.98117
G01 X-4.38035 Y-2.98561
G01 X-4.37472 Y-2.99337
G01 X-4.36357 Y-3.00740
G01 X-4.35460 Y-3.01942
G01 X-4.34807 Y-3.02868
G01 X-4.33601 Y-3.04659
G01 X-4.33289 Y-3.05099
G01 X-4.32671 Y-3.05916
G01 X-4.32286 Y-3.06395
G01 X-4.31441 Y-3.07384
G01 X-4.31006 Y-3.07864
G01 X-4.29883 Y-3.09025
G01 X-4.29192 Y-3.09698
G01 X-4.26285 Y-3.16717
G01 X-4.24090 Y-3.16859
G01 X-4.23523 Y-3.16914
G01 X-4.21848 Y-3.17125
G01 X-4.21310 Y-3.17210
G01 X-4.19889 Y-3.17476
G01 X-4.19378 Y-3.17587
G01 X-4.18219 Y-3.17874
G01 X-4.16763 Y-3.18309
G01 X-4.16298 Y-3.18466
G01 X-4.15007 Y-3.18958
G01 X-4.14289 Y-3.19268
G01 X-4.13289 Y-3.19753
G01 X-4.12326 Y-3.20279
G01 X-4.11707 Y-3.20653
G01 X-4.10145 Y-3.20966
G01 X-4.08740 Y-3.21436
G01 X-4.08133 Y-3.21674
G01 X-4.07627 Y-3.21848
G01 X-4.06773 Y-3.22085
G01 X-4.06260 Y-3.22194
G01 X-4.05558 Y-3.22303
G01 X-4.04817 Y-3.22366
G01 X-4.04280 Y-3.22382
G01 X-4.01260 Y-3.22382
G01 X-4.00212 Y-3.22456
G01 X-3.99164 Y-3.22680
G01 X-3.98116 Y-3.23053
G01 X-3.97068 Y-3.23575
G01 X-3.92932 Y-3.23575
G01 X-3.91884 Y-3.23053
G01 X-3.90836 Y-3.22680
G01 X-3.89788 Y-3.22456
G01 X-3.88740 Y-3.22382
G01 X-3.81260 Y-3.22382
G01 X-3.79889 Y-3.22509
G01 X-3.78518 Y-3.22892
G01 X-3.77367 Y-3.22668
G01 X-3.76211 Y-3.22530
G01 X-3.75099 Y-3.22482
G01 X-3.74315 Y-3.22497
G01 X-3.73605 Y-3.22546
G01 X-3.72631 Y-3.22668
G01 X-3.71970 Y-3.22786
G01 X-3.70929 Y-3.23032
G01 X-3.70227 Y-3.23239
G01 X-3.69116 Y-3.23633
G01 X-3.68271 Y-3.23987
G01 X-3.67460 Y-3.24371
G01 X-3.66548 Y-3.24856
G01 X-3.65734 Y-3.25000
G01 X-3.51212 Y-3.25000
G01 X-3.50109 Y-3.26038
G01 X-3.49684 Y-3.26402
G01 X-3.48973 Y-3.26964
G01 X-3.48548 Y-3.27274
G01 X-3.47959 Y-3.27671
G01 X-3.47533 Y-3.27933
G01 X-3.47036 Y-3.28215
G01 X-3.46185 Y-3.28633
G01 X-3.45432 Y-3.28937
G01 X-3.34531 Y-3.28937
G01 X-3.33859 Y-3.29205
G01 X-3.33291 Y-3.29471
G01 X-3.32718 Y-3.29776
G01 X-3.32251 Y-3.30052
G01 X-3.32718 Y-3.29776
G01 X-3.33291 Y-3.29471
G01 X-3.33859 Y-3.29205
G01 X-3.34531 Y-3.28937
G01 X-3.45432 Y-3.28937
G01 X-3.46185 Y-3.28633
G01 X-3.47036 Y-3.28215
G01 X-3.47533 Y-3.27933
G01 X-3.47959 Y-3.27671
G01 X-3.48548 Y-3.27274
G01 X-3.48973 Y-3.26964
G01 X-3.49684 Y-3.26402
G01 X-3.50109 Y-3.26038
G01 X-3.51212 Y-3.25000
G01 X-3.50142 Y-3.23990
G01 X-3.49716 Y-3.23625
G01 X-3.49001 Y-3.23057
G01 X-3.48576 Y-3.22745
G01 X-3.47984 Y-3.22345
G01 X-3.47072 Y-3.21805
G01 X-3.46249 Y-3.21396
G01 X-3.45432 Y-3.21064
G01 X-3.34532 Y-3.21061
G01 X-3.33799 Y-3.20767
G01 X-3.33743 Y-3.20740
G01 X-3.33479 Y-3.20451
G01 X-3.32936 Y-3.19778
G01 X-3.32419 Y-3.19023
G01 X-3.32035 Y-3.18370
G01 X-3.31710 Y-3.17731
G01 X-3.31405 Y-3.17035
G01 X-3.31120 Y-3.16270
G01 X-3.30902 Y-3.15576
G01 X-3.30986 Y-3.14936
G01 X-3.31140 Y-3.14107
G01 X-3.31439 Y-3.12941
G01 X-3.31729 Y-3.12062
G01 X-3.31959 Y-3.11461
G01 X-3.32531 Y-3.10187
G01 X-3.33069 Y-3.09172
G01 X-3.33541 Y-3.08379
G01 X-3.34355 Y-3.07158
G01 X-3.35312 Y-3.05891
G01 X-3.35566 Y-3.05578
G01 X-3.36781 Y-3.04186
G01 X-3.37765 Y-3.03157
G01 X-3.38319 Y-3.02846
G01 X-3.39466 Y-3.02161
G01 X-3.39866 Y-3.01909
G01 X-3.41278 Y-3.00965
G01 X-3.44461 Y-3.00979
G01 X-3.45343 Y-2.98070
G01 X-3.45957 Y-2.95429
G01 X-3.45838 Y-2.92213
G01 X-3.45772 Y-2.91139
G01 X-3.45664 Y-2.89933
G01 X-3.45560 Y-2.89107
G01 X-3.45454 Y-2.88460
G01 X-3.45071 Y-2.86714
G01 X-3.44967 Y-2.85943
G01 X-3.44930 Y-2.85400
G01 X-3.44932 Y-2.84564
G01 X-3.44955 Y-2.84203
G01 X-3.45028 Y-2.83561
G01 X-3.45141 Y-2.82927
G01 X-3.45312 Y-2.82217
G01 X-3.45471 Y-2.81443
G01 X-3.46206 Y-2.81124
G01 X-3.46886 Y-2.80880
G01 X-3.47514 Y-2.80699
G01 X-3.48396 Y-2.80518
G01 X-3.48995 Y-2.80443
G01 X-3.49356 Y-2.80417
G01 X-3.49948 Y-2.80405
G01 X-3.50581 Y-2.80434
G01 X-3.51449 Y-2.80544
G01 X-3.52073 Y-2.80675
G01 X-3.52779 Y-2.80874
G01 X-3.53521 Y-2.81141
G01 X-3.54307 Y-2.81489
G01 X-3.54668 Y-2.81671
G01 X-3.55513 Y-2.82154
G01 X-3.56072 Y-2.82516
G01 X-3.56944 Y-2.83147
G01 X-3.57627 Y-2.83424
G01 X-3.58573 Y-2.83751
G01 X-3.59640 Y-2.84045
G01 X-3.60873 Y-2.84297
G01 X-3.61613 Y-2.84412
G01 X-3.64453 Y-2.83115
G01 X-3.65536 Y-2.82667
G01 X-3.66112 Y-2.82451
G01 X-3.67158 Y-2.82091
G01 X-3.68297 Y-2.81751
G01 X-3.69480 Y-2.81447
G01 X-3.70810 Y-2.81159
G01 X-3.71979 Y-2.80948
G01 X-3.73384 Y-2.81439
G01 X-3.74610 Y-2.81470
G01 X-3.81131 Y-2.81470

G04 P0 ( dwell for no time -- G64 should not smooth over this point )
G00 Z1.000000 ( retract )

M5 ( Spindle off. )
G04 P1.000000
M9 ( Coolant off. )
M2 ( Program end. )

