( pcb2gcode 2.5.0 )
( Software-independent Gcode )

G94 ( Inches per minute feed rate. )
G20 ( Units == INCHES. )

G90 ( Absolute coordinates. )
G00 S12000 ( RPM spindle speed. )
G64 P0.00040 ( set maximum deviation from commanded toolpath )
G01 F360.00000 ( Feedrate. )


G00 Z1.00000 (Retract to tool change height)
T1
M5      (Spindle stop.)
G04 P1.00000 (Wait for spindle to stop)
(MSG, Change tool bit to mill diameter 0.00787in)
M6      (Tool change.)
M0      (Temporary machine stop.)
M3 ( Spindle on clockwise. )
G04 P1.00000 (Wait for spindle to get up to speed)
G04 P0 ( dwell for no time -- G64 should not smooth over this point )
G00 Z0.08000 ( retract )

G00 X3.18784 Y-2.55104 ( rapid move to begin. )
G01 F180.00000
( Mill infeed pass 1/1 )
G01 Z-0.04000
G04 P0 ( dwell for no time -- G64 should not smooth over this point )
G01 F360.00000
G01 X3.18784 Y-2.55104
G01 X3.18810 Y-2.55589
G01 X3.18889 Y-2.56152
G01 X3.19020 Y-2.56706
G01 X3.19201 Y-2.57245
G01 X3.19434 Y-2.57772
G01 X3.19714 Y-2.58275
G01 X3.20039 Y-2.58750
G01 X3.20403 Y-2.59188
G01 X3.20805 Y-2.59590
G01 X3.21275 Y-2.59979
G01 X3.21752 Y-2.60303
G01 X3.22257 Y-2.60580
G01 X3.22784 Y-2.60810
G01 X3.23325 Y-2.60988
G01 X3.23879 Y-2.61117
G01 X3.24359 Y-2.61184
G01 X3.25024 Y-2.61218
G01 X3.25492 Y-2.61199
G01 X3.25927 Y-2.61149
G01 X3.26500 Y-2.61034
G01 X3.26892 Y-2.60924
G01 X3.27351 Y-2.60757
G01 X3.27724 Y-2.60590
G01 X3.28180 Y-2.60344
G01 X3.28573 Y-2.60089
G01 X3.28946 Y-2.59806
G01 X3.29328 Y-2.59465
G01 X3.29642 Y-2.59137
G01 X3.29873 Y-2.58858
G01 X3.29849 Y-2.58804
G01 X3.29873 Y-2.58858
G01 X3.60126 Y-2.58858
G01 X3.60146 Y-2.58810
G01 X3.60126 Y-2.58858
G01 X3.60412 Y-2.59197
G01 X3.60741 Y-2.59531
G01 X3.61123 Y-2.59862
G01 X3.61500 Y-2.60140
G01 X3.61897 Y-2.60389
G01 X3.62481 Y-2.60684
G01 X3.62881 Y-2.60846
G01 X3.63327 Y-2.60989
G01 X3.63819 Y-2.61105
G01 X3.64245 Y-2.61171
G01 X3.64898 Y-2.61217
G01 X3.65329 Y-2.61210
G01 X3.65802 Y-2.61166
G01 X3.66557 Y-2.61020
G01 X3.66929 Y-2.60904
G01 X3.67040 Y-2.60837
G01 X3.67856 Y-2.60272
G01 X3.68392 Y-2.59846
G01 X3.69260 Y-2.59103
G01 X3.70218 Y-2.58372
G01 X3.70411 Y-2.58062
G01 X3.70703 Y-2.57479
G01 X3.70931 Y-2.56867
G01 X3.71092 Y-2.56244
G01 X3.71201 Y-2.55467
G01 X3.71215 Y-2.54875
G01 X3.71169 Y-2.54252
G01 X3.71116 Y-2.54231
G01 X3.71169 Y-2.54252
G01 X3.81238 Y-2.44183
G01 X3.81218 Y-2.44135
G01 X3.81238 Y-2.44183
G01 X3.90381 Y-2.44183
G01 X3.90887 Y-2.43677
G01 X3.91403 Y-2.43225
G01 X3.91943 Y-2.42883
G01 X3.92498 Y-2.42663
G01 X3.93110 Y-2.42584
G01 X4.06890 Y-2.42584
G01 X4.07502 Y-2.42663
G01 X4.08001 Y-2.42855
G01 X4.08558 Y-2.43194
G01 X4.08972 Y-2.43553
G01 X4.14023 Y-2.43553
G01 X4.14043 Y-2.43505
G01 X4.14023 Y-2.43553
G01 X4.24498 Y-2.54028
G01 X4.24573 Y-2.54004
G01 X4.24498 Y-2.54028
G01 X4.24488 Y-2.54077
G01 X4.24477 Y-2.54152
G01 X4.24539 Y-2.54197
G01 X4.24477 Y-2.54152
G01 X4.01048 Y-2.65866
G01 X4.01052 Y-2.65883
G01 X4.01048 Y-2.65866
G01 X3.93110 Y-2.65866
G01 X3.92867 Y-2.65884
G01 X3.92630 Y-2.65938
G01 X3.92367 Y-2.66043
G01 X3.92158 Y-2.66168
G01 X3.91970 Y-2.66322
G01 X3.91806 Y-2.66503
G01 X3.91671 Y-2.66705
G01 X3.91567 Y-2.66925
G01 X3.91488 Y-2.67197
G01 X3.91456 Y-2.67520
G01 X3.91457 Y-2.81340
G01 X3.91497 Y-2.81662
G01 X3.91582 Y-2.81933
G01 X3.91713 Y-2.82185
G01 X3.91912 Y-2.82440
G01 X3.92158 Y-2.82652
G01 X3.92440 Y-2.82812
G01 X3.92748 Y-2.82913
G01 X3.93069 Y-2.82953
G01 X4.06273 Y-2.82953
G01 X4.06756 Y-2.82753
G01 X4.07285 Y-2.82475
G01 X4.07716 Y-2.82125
G01 X4.08065 Y-2.81695
G01 X4.08343 Y-2.81166
G01 X4.08544 Y-2.80683
G01 X4.08544 Y-2.69338
G01 X4.08449 Y-2.69280
G01 X4.08544 Y-2.69338
G01 X4.27368 Y-2.59925
G01 X4.27367 Y-2.59859
G01 X4.27368 Y-2.59925
G01 X4.27458 Y-2.59976
G01 X4.28147 Y-2.60272
G01 X4.28718 Y-2.60439
G01 X4.29343 Y-2.60549
G01 X4.30121 Y-2.60585
G01 X4.30670 Y-2.60548
G01 X4.31285 Y-2.60439
G01 X4.31853 Y-2.60272
G01 X4.32402 Y-2.60043
G01 X4.32583 Y-2.59953
G01 X4.33129 Y-2.59630
G01 X4.33599 Y-2.59275
G01 X4.34030 Y-2.58871
G01 X4.34512 Y-2.58296
G01 X4.34558 Y-2.58229
G01 X4.34529 Y-2.58168
G01 X4.34558 Y-2.58229
G01 X4.65441 Y-2.58229
G01 X4.65471 Y-2.58166
G01 X4.65441 Y-2.58229
G01 X4.65789 Y-2.58674
G01 X4.66067 Y-2.58970
G01 X4.66398 Y-2.59273
G01 X4.66755 Y-2.59550
G01 X4.67091 Y-2.59772
G01 X4.67440 Y-2.59968
G01 X4.67845 Y-2.60156
G01 X4.68225 Y-2.60299
G01 X4.68653 Y-2.60424
G01 X4.69050 Y-2.60507
G01 X4.69451 Y-2.60561
G01 X4.69898 Y-2.60588
G01 X4.70302 Y-2.60579
G01 X4.70840 Y-2.60525
G01 X4.71378 Y-2.60416
G01 X4.71945 Y-2.60237
G01 X4.72388 Y-2.60053
G01 X4.72777 Y-2.59848
G01 X4.73281 Y-2.59523
G01 X4.73714 Y-2.59176
G01 X4.74130 Y-2.58763
G01 X4.74457 Y-2.58369
G01 X4.74707 Y-2.58013
G01 X4.74926 Y-2.57636
G01 X4.75196 Y-2.57057
G01 X4.75364 Y-2.56569
G01 X4.75485 Y-2.56069
G01 X4.75570 Y-2.55435
G01 X4.75589 Y-2.55000
G01 X4.75570 Y-2.54565
G01 X4.75499 Y-2.54010
G01 X4.75364 Y-2.53430
G01 X4.75181 Y-2.52906
G01 X4.74926 Y-2.52364
G01 X4.74707 Y-2.51987
G01 X4.74409 Y-2.51566
G01 X4.73981 Y-2.51080
G01 X4.73632 Y-2.50752
G01 X4.73221 Y-2.50433
G01 X4.72678 Y-2.50096
G01 X4.72285 Y-2.49900
G01 X4.71763 Y-2.49697
G01 X4.71263 Y-2.49556
G01 X4.70791 Y-2.49469
G01 X4.70185 Y-2.49415
G01 X4.69818 Y-2.49414
G01 X4.69415 Y-2.49443
G01 X4.68883 Y-2.49524
G01 X4.68531 Y-2.49608
G01 X4.68149 Y-2.49727
G01 X4.67638 Y-2.49936
G01 X4.67011 Y-2.50278
G01 X4.66349 Y-2.50769
G01 X4.66026 Y-2.51070
G01 X4.65755 Y-2.51365
G01 X4.65441 Y-2.51771
G01 X4.65472 Y-2.51835
G01 X4.65441 Y-2.51771
G01 X4.34559 Y-2.51771
G01 X4.34532 Y-2.51830
G01 X4.34559 Y-2.51771
G01 X4.34246 Y-2.51366
G01 X4.33918 Y-2.51015
G01 X4.33531 Y-2.50669
G01 X4.33013 Y-2.50295
G01 X4.32599 Y-2.50053
G01 X4.32128 Y-2.49832
G01 X4.31601 Y-2.49646
G01 X4.31175 Y-2.49538
G01 X4.30503 Y-2.49434
G01 X4.30028 Y-2.49411
G01 X4.29513 Y-2.49433
G01 X4.29028 Y-2.49498
G01 X4.29006 Y-2.49560
G01 X4.29028 Y-2.49498
G01 X4.17555 Y-2.38026
G01 X4.17164 Y-2.37710
G01 X4.16768 Y-2.37478
G01 X4.16308 Y-2.37293
G01 X4.15879 Y-2.37190
G01 X4.15350 Y-2.37146
G01 X3.79650 Y-2.37146
G01 X3.79055 Y-2.37202
G01 X3.78472 Y-2.37371
G01 X3.78323 Y-2.37436
G01 X3.77923 Y-2.37651
G01 X3.77470 Y-2.38002
G01 X3.65972 Y-2.49498
G01 X3.65994 Y-2.49560
G01 X3.65972 Y-2.49498
G01 X3.65487 Y-2.49433
G01 X3.64972 Y-2.49411
G01 X3.64497 Y-2.49434
G01 X3.63825 Y-2.49538
G01 X3.63399 Y-2.49646
G01 X3.62872 Y-2.49832
G01 X3.62401 Y-2.50053
G01 X3.61987 Y-2.50295
G01 X3.61469 Y-2.50669
G01 X3.61082 Y-2.51015
G01 X3.60754 Y-2.51366
G01 X3.60440 Y-2.51771
G01 X3.60468 Y-2.51830
G01 X3.60440 Y-2.51771
G01 X3.29558 Y-2.51771
G01 X3.29528 Y-2.51835
G01 X3.29558 Y-2.51771
G01 X3.29245 Y-2.51365
G01 X3.28973 Y-2.51070
G01 X3.28651 Y-2.50769
G01 X3.27989 Y-2.50278
G01 X3.27361 Y-2.49936
G01 X3.26851 Y-2.49727
G01 X3.26469 Y-2.49608
G01 X3.26117 Y-2.49524
G01 X3.25585 Y-2.49443
G01 X3.25182 Y-2.49414
G01 X3.24815 Y-2.49415
G01 X3.24209 Y-2.49469
G01 X3.23737 Y-2.49556
G01 X3.23237 Y-2.49697
G01 X3.22715 Y-2.49900
G01 X3.22322 Y-2.50096
G01 X3.21779 Y-2.50433
G01 X3.21368 Y-2.50752
G01 X3.21019 Y-2.51080
G01 X3.20591 Y-2.51566
G01 X3.20293 Y-2.51987
G01 X3.20074 Y-2.52364
G01 X3.19789 Y-2.52980
G01 X3.19636 Y-2.53430
G01 X3.19532 Y-2.53853
G01 X3.19445 Y-2.54406
G01 X3.19411 Y-2.55000
G01 X3.19435 Y-2.55511
G01 X3.19505 Y-2.56017
G01 X3.19643 Y-2.56587
G01 X3.19782 Y-2.57000
G01 X3.19954 Y-2.57400
G01 X3.20220 Y-2.57892
G01 X3.20553 Y-2.58385
G01 X3.20907 Y-2.58805
G01 X3.21301 Y-2.59187
G01 X3.21637 Y-2.59464
G01 X3.21996 Y-2.59711
G01 X3.22553 Y-2.60024
G01 X3.23026 Y-2.60228
G01 X3.23512 Y-2.60387
G01 X3.24048 Y-2.60507
G01 X3.24513 Y-2.60567
G01 X3.24904 Y-2.60587
G01 X3.25493 Y-2.60566
G01 X3.25894 Y-2.60516
G01 X3.26292 Y-2.60437
G01 X3.26681 Y-2.60330
G01 X3.27098 Y-2.60180
G01 X3.27466 Y-2.60015
G01 X3.27862 Y-2.59800
G01 X3.28206 Y-2.59577
G01 X3.28568 Y-2.59301
G01 X3.28903 Y-2.58999
G01 X3.29211 Y-2.58674
G01 X3.29559 Y-2.58229
G01 X3.29529 Y-2.58166
G01 X3.29559 Y-2.58229
G01 X3.60442 Y-2.58229
G01 X3.60472 Y-2.58166
G01 X3.60442 Y-2.58229
G01 X3.60799 Y-2.58684
G01 X3.61144 Y-2.59045
G01 X3.61451 Y-2.59316
G01 X3.61925 Y-2.59665
G01 X3.62275 Y-2.59879
G01 X3.62680 Y-2.60084
G01 X3.63059 Y-2.60240
G01 X3.63448 Y-2.60368
G01 X3.64021 Y-2.60501
G01 X3.64427 Y-2.60559
G01 X3.64836 Y-2.60586
G01 X3.65290 Y-2.60581
G01 X3.65698 Y-2.60544
G01 X3.66288 Y-2.60436
G01 X3.66475 Y-2.60388
G01 X3.67041 Y-2.60202
G01 X3.67579 Y-2.59958
G01 X3.68116 Y-2.59639
G01 X3.68556 Y-2.59308
G01 X3.69093 Y-2.58805
G01 X3.69492 Y-2.58325
G01 X3.69835 Y-2.57803
G01 X3.70117 Y-2.57246
G01 X3.70346 Y-2.56625
G01 X3.70489 Y-2.56050
G01 X3.70577 Y-2.55344
G01 X3.70585 Y-2.54791
G01 X3.70535 Y-2.54243
G01 X3.70501 Y-2.54030
G01 X3.70435 Y-2.54007
G01 X3.70501 Y-2.54030
G01 X3.80977 Y-2.43553
G01 X3.80957 Y-2.43505
G01 X3.80977 Y-2.43553
G01 X3.91027 Y-2.43553
G01 X3.91443 Y-2.43195
G01 X3.91999 Y-2.42855
G01 X3.92571 Y-2.42650
G01 X3.93110 Y-2.42585
G01 X4.06890 Y-2.42585
G01 X4.07501 Y-2.42667
G01 X4.08001 Y-2.42855
G01 X4.08122 Y-2.42923
G01 X4.14284 Y-2.42923
G01 X4.14304 Y-2.42876
G01 X4.14284 Y-2.42923
G01 X4.25187 Y-2.53827
G01 X4.25262 Y-2.53803
G01 X4.25187 Y-2.53827
G01 X4.25110 Y-2.54178
G01 X4.25066 Y-2.54562
G01 X4.25128 Y-2.54607
G01 X4.25066 Y-2.54562
G01 X4.01197 Y-2.66496
G01 X4.01201 Y-2.66513
G01 X4.01197 Y-2.66496
G01 X3.93070 Y-2.66497
G01 X3.92871 Y-2.66525
G01 X3.92718 Y-2.66574
G01 X3.92575 Y-2.66647
G01 X3.92445 Y-2.66742
G01 X3.92306 Y-2.66886
G01 X3.92198 Y-2.67055
G01 X3.92115 Y-2.67281
G01 X3.92087 Y-2.67480
G01 X3.92087 Y-2.81340
G01 X3.92115 Y-2.81539
G01 X3.92164 Y-2.81692
G01 X3.92259 Y-2.81869
G01 X3.92386 Y-2.82024
G01 X3.92541 Y-2.82151
G01 X3.92718 Y-2.82246
G01 X3.92910 Y-2.82304
G01 X3.93110 Y-2.82324
G01 X4.06890 Y-2.82324
G01 X4.07050 Y-2.82311
G01 X4.07206 Y-2.82274
G01 X4.07459 Y-2.82151
G01 X4.07642 Y-2.81995
G01 X4.07783 Y-2.81800
G01 X4.07875 Y-2.81578
G01 X4.07913 Y-2.81340
G01 X4.07914 Y-2.68948
G01 X4.07820 Y-2.68890
G01 X4.07914 Y-2.68948
G01 X4.27388 Y-2.59211
G01 X4.27387 Y-2.59140
G01 X4.27388 Y-2.59211
G01 X4.27807 Y-2.59447
G01 X4.28360 Y-2.59679
G01 X4.28937 Y-2.59842
G01 X4.29489 Y-2.59932
G01 X4.30044 Y-2.59958
G01 X4.30597 Y-2.59922
G01 X4.31143 Y-2.59825
G01 X4.31677 Y-2.59666
G01 X4.32194 Y-2.59447
G01 X4.32718 Y-2.59147
G01 X4.33136 Y-2.58839
G01 X4.33573 Y-2.58438
G01 X4.33962 Y-2.57981
G01 X4.34219 Y-2.57599
G01 X4.34187 Y-2.57534
G01 X4.34219 Y-2.57599
G01 X4.65779 Y-2.57599
G01 X4.65809 Y-2.57537
G01 X4.65779 Y-2.57599
G01 X4.66003 Y-2.57934
G01 X4.66276 Y-2.58275
G01 X4.66522 Y-2.58535
G01 X4.66819 Y-2.58804
G01 X4.67136 Y-2.59048
G01 X4.67434 Y-2.59243
G01 X4.67779 Y-2.59433
G01 X4.68106 Y-2.59583
G01 X4.68441 Y-2.59707
G01 X4.68824 Y-2.59817
G01 X4.69175 Y-2.59889
G01 X4.69569 Y-2.59940
G01 X4.69927 Y-2.59958
G01 X4.70330 Y-2.59948
G01 X4.70732 Y-2.59903
G01 X4.71222 Y-2.59806
G01 X4.71705 Y-2.59655
G01 X4.72120 Y-2.59483
G01 X4.72482 Y-2.59292
G01 X4.72941 Y-2.58992
G01 X4.73295 Y-2.58705
G01 X4.73651 Y-2.58354
G01 X4.73942 Y-2.58006
G01 X4.74176 Y-2.57673
G01 X4.74381 Y-2.57321
G01 X4.74611 Y-2.56824
G01 X4.74759 Y-2.56393
G01 X4.74867 Y-2.55949
G01 X4.74941 Y-2.55406
G01 X4.74959 Y-2.55000
G01 X4.74941 Y-2.54594
G01 X4.74875 Y-2.54099
G01 X4.74759 Y-2.53607
G01 X4.74592 Y-2.53130
G01 X4.74381 Y-2.52679
G01 X4.74176 Y-2.52327
G01 X4.73913 Y-2.51954
G01 X4.73549 Y-2.51538
G01 X4.73221 Y-2.51230
G01 X4.72859 Y-2.50949
G01 X4.72438 Y-2.50682
G01 X4.72073 Y-2.50496
G01 X4.71563 Y-2.50294
G01 X4.71122 Y-2.50170
G01 X4.70680 Y-2.50089
G01 X4.70140 Y-2.50044
G01 X4.69821 Y-2.50045
G01 X4.69421 Y-2.50075
G01 X4.69026 Y-2.50138
G01 X4.68680 Y-2.50220
G01 X4.68341 Y-2.50327
G01 X4.67973 Y-2.50475
G01 X4.67379 Y-2.50791
G01 X4.66807 Y-2.51207
G01 X4.66460 Y-2.51529
G01 X4.66245 Y-2.51761
G01 X4.66000 Y-2.52070
G01 X4.65777 Y-2.52401
G01 X4.65812 Y-2.52470
G01 X4.65777 Y-2.52401
G01 X4.34218 Y-2.52401
G01 X4.34182 Y-2.52471
G01 X4.34218 Y-2.52401
G01 X4.34091 Y-2.52199
G01 X4.33789 Y-2.51802
G01 X4.33441 Y-2.51431
G01 X4.33105 Y-2.51134
G01 X4.32734 Y-2.50863
G01 X4.32305 Y-2.50610
G01 X4.31889 Y-2.50415
G01 X4.31419 Y-2.50249
G01 X4.30974 Y-2.50138
G01 X4.30481 Y-2.50065
G01 X4.30072 Y-2.50043
G01 X4.29569 Y-2.50060
G01 X4.29075 Y-2.50128
G01 X4.28826 Y-2.50186
G01 X4.28802 Y-2.50262
G01 X4.28826 Y-2.50186
G01 X4.17141 Y-2.38502
G01 X4.16808 Y-2.38229
G01 X4.16529 Y-2.38064
G01 X4.16384 Y-2.37995
G01 X4.16052 Y-2.37874
G01 X4.15746 Y-2.37807
G01 X4.15350 Y-2.37776
G01 X3.79650 Y-2.37776
G01 X3.79155 Y-2.37825
G01 X3.78690 Y-2.37962
G01 X3.78264 Y-2.38181
G01 X3.77888 Y-2.38474
G01 X3.66174 Y-2.50186
G01 X3.66198 Y-2.50262
G01 X3.66174 Y-2.50186
G01 X3.65925 Y-2.50128
G01 X3.65430 Y-2.50060
G01 X3.64928 Y-2.50043
G01 X3.64519 Y-2.50065
G01 X3.64026 Y-2.50138
G01 X3.63581 Y-2.50249
G01 X3.63111 Y-2.50415
G01 X3.62695 Y-2.50610
G01 X3.62266 Y-2.50863
G01 X3.61895 Y-2.51134
G01 X3.61558 Y-2.51431
G01 X3.61211 Y-2.51802
G01 X3.60908 Y-2.52199
G01 X3.60782 Y-2.52401
G01 X3.60818 Y-2.52471
G01 X3.60782 Y-2.52401
G01 X3.29222 Y-2.52401
G01 X3.29188 Y-2.52470
G01 X3.29222 Y-2.52401
G01 X3.29000 Y-2.52070
G01 X3.28755 Y-2.51761
G01 X3.28540 Y-2.51529
G01 X3.28193 Y-2.51207
G01 X3.27621 Y-2.50791
G01 X3.27027 Y-2.50475
G01 X3.26659 Y-2.50327
G01 X3.26320 Y-2.50220
G01 X3.25974 Y-2.50138
G01 X3.25578 Y-2.50075
G01 X3.25179 Y-2.50045
G01 X3.24860 Y-2.50044
G01 X3.24320 Y-2.50089
G01 X3.23878 Y-2.50170
G01 X3.23436 Y-2.50294
G01 X3.22927 Y-2.50496
G01 X3.22562 Y-2.50682
G01 X3.22141 Y-2.50949
G01 X3.21779 Y-2.51230
G01 X3.21451 Y-2.51538
G01 X3.21087 Y-2.51954
G01 X3.20824 Y-2.52327
G01 X3.20619 Y-2.52679
G01 X3.20372 Y-2.53222
G01 X3.20241 Y-2.53607
G01 X3.20144 Y-2.54002
G01 X3.20068 Y-2.54495
G01 X3.20041 Y-2.55000
G01 X3.20062 Y-2.55453
G01 X3.20134 Y-2.55948
G01 X3.20227 Y-2.56344
G01 X3.20354 Y-2.56731
G01 X3.20553 Y-2.57193
G01 X3.20770 Y-2.57586
G01 X3.21055 Y-2.58004
G01 X3.21378 Y-2.58385
G01 X3.21667 Y-2.58671
G01 X3.21980 Y-2.58932
G01 X3.22352 Y-2.59191
G01 X3.22830 Y-2.59458
G01 X3.23249 Y-2.59639
G01 X3.23680 Y-2.59780
G01 X3.24169 Y-2.59888
G01 X3.24569 Y-2.59940
G01 X3.24975 Y-2.59958
G01 X3.25378 Y-2.59944
G01 X3.25776 Y-2.59897
G01 X3.26127 Y-2.59829
G01 X3.26511 Y-2.59723
G01 X3.26845 Y-2.59603
G01 X3.27170 Y-2.59458
G01 X3.27523 Y-2.59269
G01 X3.27861 Y-2.59050
G01 X3.28181 Y-2.58804
G01 X3.28477 Y-2.58535
G01 X3.28723 Y-2.58275
G01 X3.28997 Y-2.57934
G01 X3.29221 Y-2.57599
G01 X3.29187 Y-2.57531
G01 X3.29221 Y-2.57599
G01 X3.60779 Y-2.57599
G01 X3.60817 Y-2.57526
G01 X3.60779 Y-2.57599
G01 X3.61030 Y-2.57970
G01 X3.61312 Y-2.58314
G01 X3.61593 Y-2.58603
G01 X3.61897 Y-2.58868
G01 X3.62222 Y-2.59107
G01 X3.62564 Y-2.59319
G01 X3.62886 Y-2.59485
G01 X3.63335 Y-2.59670
G01 X3.63680 Y-2.59780
G01 X3.64114 Y-2.59878
G01 X3.64472 Y-2.59930
G01 X3.64874 Y-2.59957
G01 X3.65277 Y-2.59951
G01 X3.65637 Y-2.59917
G01 X3.66282 Y-2.59788
G01 X3.66777 Y-2.59629
G01 X3.67286 Y-2.59400
G01 X3.67762 Y-2.59118
G01 X3.68175 Y-2.58807
G01 X3.68633 Y-2.58374
G01 X3.68987 Y-2.57948
G01 X3.69309 Y-2.57451
G01 X3.69556 Y-2.56955
G01 X3.69735 Y-2.56471
G01 X3.69854 Y-2.56008
G01 X3.69944 Y-2.55375
G01 X3.69954 Y-2.54779
G01 X3.69904 Y-2.54265
G01 X3.69814 Y-2.53826
G01 X3.69742 Y-2.53802
G01 X3.69814 Y-2.53826
G01 X3.80716 Y-2.42923
G01 X3.80696 Y-2.42876
G01 X3.80716 Y-2.42923
G01 X3.91878 Y-2.42923
G01 X3.91999 Y-2.42855
G01 X3.92499 Y-2.42667
G01 X3.93110 Y-2.42585
G01 X4.06890 Y-2.42585
G01 X4.07501 Y-2.42667
G01 X4.08057 Y-2.42883
G01 X4.08597 Y-2.43225
G01 X4.09113 Y-2.43677
G01 X4.09619 Y-2.44183
G01 X4.13762 Y-2.44183
G01 X4.13782 Y-2.44135
G01 X4.13762 Y-2.44183
G01 X4.23510 Y-2.53931
G01 X4.23951 Y-2.54003
G01 X4.23510 Y-2.53931
G01 X4.00899 Y-2.65237
G01 X4.00903 Y-2.65253
G01 X4.00899 Y-2.65237
G01 X3.93110 Y-2.65237
G01 X3.92829 Y-2.65254
G01 X3.92551 Y-2.65306
G01 X3.92283 Y-2.65392
G01 X3.92027 Y-2.65510
G01 X3.91787 Y-2.65659
G01 X3.91539 Y-2.65863
G01 X3.91326 Y-2.66095
G01 X3.91205 Y-2.66416
G01 X3.91065 Y-2.67540
G01 X3.91064 Y-2.69529
G01 X3.90918 Y-2.70710
G01 X3.90827 Y-2.70969
G01 X3.90827 Y-2.81300
G01 X3.90855 Y-2.81661
G01 X3.90954 Y-2.82051
G01 X3.91119 Y-2.82418
G01 X3.91321 Y-2.82719
G01 X3.91481 Y-2.82900
G01 X3.91659 Y-2.83064
G01 X3.91854 Y-2.83207
G01 X3.92062 Y-2.83329
G01 X3.92283 Y-2.83428
G01 X3.92512 Y-2.83504
G01 X3.92749 Y-2.83555
G01 X3.92949 Y-2.83578
G01 X4.04752 Y-2.83583
G01 X4.06756 Y-2.82753
G01 X4.07285 Y-2.82475
G01 X4.07716 Y-2.82125
G01 X4.08065 Y-2.81695
G01 X4.08343 Y-2.81166
G01 X4.09173 Y-2.79162
G01 X4.09173 Y-2.69727
G01 X4.09079 Y-2.69669
G01 X4.09173 Y-2.69727
G01 X4.27367 Y-2.60630
G01 X4.27364 Y-2.60575
G01 X4.27367 Y-2.60630
G01 X4.28008 Y-2.60889
G01 X4.28614 Y-2.61062
G01 X4.29313 Y-2.61180
G01 X4.29946 Y-2.61217
G01 X4.30159 Y-2.61214
G01 X4.30725 Y-2.61176
G01 X4.31410 Y-2.61056
G01 X4.32065 Y-2.60866
G01 X4.32649 Y-2.60623
G01 X4.32863 Y-2.60519
G01 X4.33411 Y-2.60199
G01 X4.33989 Y-2.59770
G01 X4.34433 Y-2.59359
G01 X4.34871 Y-2.58858
G01 X4.34849 Y-2.58808
G01 X4.34871 Y-2.58858
G01 X4.65127 Y-2.58858
G01 X4.65151 Y-2.58804
G01 X4.65127 Y-2.58858
G01 X4.65358 Y-2.59137
G01 X4.65672 Y-2.59465
G01 X4.66054 Y-2.59806
G01 X4.66407 Y-2.60075
G01 X4.66782 Y-2.60321
G01 X4.67174 Y-2.60539
G01 X4.67622 Y-2.60746
G01 X4.68048 Y-2.60904
G01 X4.68523 Y-2.61040
G01 X4.68967 Y-2.61132
G01 X4.69371 Y-2.61185
G01 X4.69998 Y-2.61217
G01 X4.70436 Y-2.61203
G01 X4.70872 Y-2.61155
G01 X4.71513 Y-2.61032
G01 X4.71978 Y-2.60894
G01 X4.72186 Y-2.60820
G01 X4.72755 Y-2.60573
G01 X4.73188 Y-2.60339
G01 X4.73704 Y-2.59995
G01 X4.74148 Y-2.59633
G01 X4.74610 Y-2.59172
G01 X4.74922 Y-2.58800
G01 X4.75249 Y-2.58335
G01 X4.75535 Y-2.57835
G01 X4.75790 Y-2.57269
G01 X4.75974 Y-2.56726
G01 X4.76108 Y-2.56166
G01 X4.76194 Y-2.55552
G01 X4.76218 Y-2.54979
G01 X4.76190 Y-2.54404
G01 X4.76108 Y-2.53834
G01 X4.75974 Y-2.53274
G01 X4.75790 Y-2.52731
G01 X4.75535 Y-2.52165
G01 X4.75249 Y-2.51665
G01 X4.74919 Y-2.51196
G01 X4.74549 Y-2.50761
G01 X4.74058 Y-2.50289
G01 X4.73672 Y-2.49984
G01 X4.73154 Y-2.49643
G01 X4.72962 Y-2.49534
G01 X4.72521 Y-2.49316
G01 X4.71942 Y-2.49093
G01 X4.71383 Y-2.48937
G01 X4.70728 Y-2.48825
G01 X4.70251 Y-2.48787
G01 X4.69860 Y-2.48784
G01 X4.69219 Y-2.48831
G01 X4.68781 Y-2.48902
G01 X4.68345 Y-2.49006
G01 X4.67917 Y-2.49141
G01 X4.67500 Y-2.49307
G01 X4.66709 Y-2.49724
G01 X4.66022 Y-2.50221
G01 X4.65627 Y-2.50579
G01 X4.65318 Y-2.50908
G01 X4.65126 Y-2.51141
G01 X4.65147 Y-2.51191
G01 X4.65126 Y-2.51141
G01 X4.34872 Y-2.51141
G01 X4.34847 Y-2.51197
G01 X4.34872 Y-2.51141
G01 X4.34681 Y-2.50908
G01 X4.34343 Y-2.50550
G01 X4.33878 Y-2.50139
G01 X4.33445 Y-2.49823
G01 X4.32989 Y-2.49549
G01 X4.32346 Y-2.49241
G01 X4.31803 Y-2.49049
G01 X4.31327 Y-2.48926
G01 X4.30627 Y-2.48813
G01 X4.30053 Y-2.48782
G01 X4.29523 Y-2.48800
G01 X4.29252 Y-2.48831
G01 X4.29230 Y-2.48888
G01 X4.29252 Y-2.48831
G01 X4.17945 Y-2.37529
G01 X4.17471 Y-2.37157
G01 X4.17089 Y-2.36935
G01 X4.16836 Y-2.36819
G01 X4.16453 Y-2.36679
G01 X4.16056 Y-2.36583
G01 X4.15812 Y-2.36546
G01 X4.15395 Y-2.36517
G01 X3.79650 Y-2.36516
G01 X3.78997 Y-2.36573
G01 X3.78758 Y-2.36625
G01 X3.78369 Y-2.36740
G01 X3.78030 Y-2.36878
G01 X3.77527 Y-2.37158
G01 X3.77024 Y-2.37557
G01 X3.65748 Y-2.48831
G01 X3.65769 Y-2.48888
G01 X3.65748 Y-2.48831
G01 X3.65476 Y-2.48800
G01 X3.64947 Y-2.48782
G01 X3.64373 Y-2.48813
G01 X3.63673 Y-2.48926
G01 X3.63197 Y-2.49049
G01 X3.62653 Y-2.49241
G01 X3.62011 Y-2.49549
G01 X3.61555 Y-2.49823
G01 X3.61121 Y-2.50139
G01 X3.60656 Y-2.50550
G01 X3.60319 Y-2.50908
G01 X3.60128 Y-2.51141
G01 X3.60153 Y-2.51197
G01 X3.60128 Y-2.51141
G01 X3.29874 Y-2.51141
G01 X3.29853 Y-2.51191
G01 X3.29874 Y-2.51141
G01 X3.29682 Y-2.50908
G01 X3.29373 Y-2.50579
G01 X3.29011 Y-2.50248
G01 X3.28326 Y-2.49745
G01 X3.27578 Y-2.49341
G01 X3.27000 Y-2.49113
G01 X3.26655 Y-2.49006
G01 X3.26219 Y-2.48902
G01 X3.25633 Y-2.48815
G01 X3.25227 Y-2.48786
G01 X3.24749 Y-2.48787
G01 X3.24228 Y-2.48830
G01 X3.23704 Y-2.48920
G01 X3.23016 Y-2.49107
G01 X3.22479 Y-2.49316
G01 X3.21999 Y-2.49554
G01 X3.21328 Y-2.49984
G01 X3.20941 Y-2.50289
G01 X3.20558 Y-2.50650
G01 X3.20028 Y-2.51267
G01 X3.19751 Y-2.51665
G01 X3.19465 Y-2.52165
G01 X3.19227 Y-2.52690
G01 X3.19050 Y-2.53194
G01 X3.18900 Y-2.53790
G01 X3.18821 Y-2.54317
G01 X3.18800 Y-2.54536
G01 X3.18784 Y-2.55104
G01 X3.20672 Y-2.55018
G01 X3.20688 Y-2.54622
G01 X3.20748 Y-2.54189
G01 X3.20851 Y-2.53767
G01 X3.20982 Y-2.53391
G01 X3.21165 Y-2.52994
G01 X3.21364 Y-2.52651
G01 X3.21595 Y-2.52328
G01 X3.21884 Y-2.51996
G01 X3.22203 Y-2.51696
G01 X3.22519 Y-2.51453
G01 X3.22890 Y-2.51221
G01 X3.23246 Y-2.51043
G01 X3.23654 Y-2.50886
G01 X3.24038 Y-2.50780
G01 X3.24469 Y-2.50704
G01 X3.24860 Y-2.50674
G01 X3.25170 Y-2.50675
G01 X3.25521 Y-2.50703
G01 X3.25837 Y-2.50753
G01 X3.26139 Y-2.50824
G01 X3.26433 Y-2.50915
G01 X3.26758 Y-2.51045
G01 X3.27291 Y-2.51328
G01 X3.27822 Y-2.51718
G01 X3.28057 Y-2.51936
G01 X3.28269 Y-2.52162
G01 X3.28462 Y-2.52402
G01 X3.28661 Y-2.52690
G01 X3.28853 Y-2.53031
G01 X3.61150 Y-2.53031
G01 X3.61228 Y-2.52877
G01 X3.61439 Y-2.52540
G01 X3.61705 Y-2.52193
G01 X3.61977 Y-2.51902
G01 X3.62276 Y-2.51636
G01 X3.62596 Y-2.51400
G01 X3.62972 Y-2.51176
G01 X3.63332 Y-2.51006
G01 X3.63744 Y-2.50858
G01 X3.64130 Y-2.50760
G01 X3.64563 Y-2.50694
G01 X3.64960 Y-2.50672
G01 X3.65394 Y-2.50690
G01 X3.65790 Y-2.50744
G01 X3.66177 Y-2.50835
G01 X3.66357 Y-2.50894
G01 X3.78305 Y-2.38947
G01 X3.78591 Y-2.38720
G01 X3.78873 Y-2.38569
G01 X3.79256 Y-2.38448
G01 X3.79650 Y-2.38406
G01 X4.15350 Y-2.38406
G01 X4.15679 Y-2.38435
G01 X4.15931 Y-2.38496
G01 X4.16158 Y-2.38583
G01 X4.16425 Y-2.38732
G01 X4.16695 Y-2.38947
G01 X4.28643 Y-2.50894
G01 X4.28823 Y-2.50835
G01 X4.29210 Y-2.50744
G01 X4.29606 Y-2.50690
G01 X4.30040 Y-2.50672
G01 X4.30437 Y-2.50694
G01 X4.30870 Y-2.50760
G01 X4.31256 Y-2.50858
G01 X4.31668 Y-2.51006
G01 X4.32028 Y-2.51176
G01 X4.32404 Y-2.51400
G01 X4.32724 Y-2.51636
G01 X4.33023 Y-2.51902
G01 X4.33294 Y-2.52193
G01 X4.33561 Y-2.52540
G01 X4.33772 Y-2.52877
G01 X4.33850 Y-2.53031
G01 X4.66147 Y-2.53031
G01 X4.66339 Y-2.52690
G01 X4.66538 Y-2.52402
G01 X4.66731 Y-2.52162
G01 X4.66943 Y-2.51936
G01 X4.67178 Y-2.51718
G01 X4.67709 Y-2.51328
G01 X4.68242 Y-2.51045
G01 X4.68567 Y-2.50915
G01 X4.68861 Y-2.50824
G01 X4.69163 Y-2.50753
G01 X4.69479 Y-2.50703
G01 X4.69830 Y-2.50675
G01 X4.70140 Y-2.50674
G01 X4.70568 Y-2.50709
G01 X4.70962 Y-2.50780
G01 X4.71345 Y-2.50886
G01 X4.71789 Y-2.51059
G01 X4.72143 Y-2.51240
G01 X4.72481 Y-2.51453
G01 X4.72796 Y-2.51696
G01 X4.73116 Y-2.51996
G01 X4.73405 Y-2.52328
G01 X4.73636 Y-2.52651
G01 X4.73835 Y-2.52994
G01 X4.74018 Y-2.53391
G01 X4.74149 Y-2.53767
G01 X4.74252 Y-2.54189
G01 X4.74312 Y-2.54622
G01 X4.74328 Y-2.54982
G01 X4.74312 Y-2.55377
G01 X4.74252 Y-2.55811
G01 X4.74149 Y-2.56233
G01 X4.74018 Y-2.56609
G01 X4.73853 Y-2.56973
G01 X4.73655 Y-2.57318
G01 X4.73406 Y-2.57671
G01 X4.73172 Y-2.57945
G01 X4.72890 Y-2.58222
G01 X4.72583 Y-2.58473
G01 X4.72219 Y-2.58716
G01 X4.71834 Y-2.58920
G01 X4.71429 Y-2.59086
G01 X4.71049 Y-2.59199
G01 X4.70697 Y-2.59272
G01 X4.70304 Y-2.59318
G01 X4.69950 Y-2.59328
G01 X4.69640 Y-2.59314
G01 X4.69293 Y-2.59270
G01 X4.68989 Y-2.59209
G01 X4.68652 Y-2.59113
G01 X4.68362 Y-2.59006
G01 X4.68043 Y-2.58861
G01 X4.67772 Y-2.58711
G01 X4.67489 Y-2.58526
G01 X4.67236 Y-2.58331
G01 X4.66974 Y-2.58095
G01 X4.66760 Y-2.57871
G01 X4.66539 Y-2.57599
G01 X4.66362 Y-2.57345
G01 X4.66147 Y-2.56969
G01 X4.33847 Y-2.56969
G01 X4.33726 Y-2.57202
G01 X4.33456 Y-2.57606
G01 X4.33114 Y-2.58006
G01 X4.32759 Y-2.58334
G01 X4.32368 Y-2.58622
G01 X4.31953 Y-2.58862
G01 X4.31468 Y-2.59071
G01 X4.31003 Y-2.59210
G01 X4.30527 Y-2.59296
G01 X4.30044 Y-2.59328
G01 X4.29561 Y-2.59306
G01 X4.29042 Y-2.59221
G01 X4.28575 Y-2.59087
G01 X4.28090 Y-2.58884
G01 X4.27667 Y-2.58645
G01 X4.27440 Y-2.58481
G01 X4.07284 Y-2.68559
G01 X4.07284 Y-2.81300
G01 X4.07250 Y-2.81460
G01 X4.07182 Y-2.81563
G01 X4.07050 Y-2.81660
G01 X4.06890 Y-2.81694
G01 X3.93110 Y-2.81694
G01 X3.92950 Y-2.81660
G01 X3.92817 Y-2.81563
G01 X3.92735 Y-2.81422
G01 X3.92716 Y-2.81300
G01 X3.92725 Y-2.67438
G01 X3.92791 Y-2.67288
G01 X3.92878 Y-2.67201
G01 X3.92988 Y-2.67145
G01 X3.93110 Y-2.67126
G01 X4.01345 Y-2.67126
G01 X4.25676 Y-2.54961
G01 X4.25679 Y-2.54758
G01 X4.25733 Y-2.54277
G01 X4.25828 Y-2.53848
G01 X4.25895 Y-2.53644
G01 X4.14545 Y-2.42294
G01 X3.80455 Y-2.42294
G01 X3.69104 Y-2.53645
G01 X3.69183 Y-2.53890
G01 X3.69274 Y-2.54321
G01 X3.69324 Y-2.54802
G01 X3.69315 Y-2.55332
G01 X3.69243 Y-2.55852
G01 X3.69122 Y-2.56321
G01 X3.68948 Y-2.56772
G01 X3.68748 Y-2.57164
G01 X3.68483 Y-2.57569
G01 X3.68175 Y-2.57942
G01 X3.67827 Y-2.58277
G01 X3.67443 Y-2.58573
G01 X3.66990 Y-2.58843
G01 X3.66547 Y-2.59042
G01 X3.66090 Y-2.59188
G01 X3.65576 Y-2.59290
G01 X3.65226 Y-2.59322
G01 X3.64874 Y-2.59327
G01 X3.64523 Y-2.59302
G01 X3.64206 Y-2.59255
G01 X3.63863 Y-2.59176
G01 X3.63528 Y-2.59070
G01 X3.63202 Y-2.58937
G01 X3.62888 Y-2.58778
G01 X3.62588 Y-2.58594
G01 X3.62304 Y-2.58386
G01 X3.62038 Y-2.58156
G01 X3.61791 Y-2.57905
G01 X3.61566 Y-2.57634
G01 X3.61363 Y-2.57347
G01 X3.61147 Y-2.56969
G01 X3.28853 Y-2.56969
G01 X3.28638 Y-2.57345
G01 X3.28461 Y-2.57599
G01 X3.28240 Y-2.57871
G01 X3.28026 Y-2.58095
G01 X3.27764 Y-2.58331
G01 X3.27485 Y-2.58544
G01 X3.27188 Y-2.58734
G01 X3.26879 Y-2.58899
G01 X3.26598 Y-2.59023
G01 X3.26306 Y-2.59127
G01 X3.25968 Y-2.59219
G01 X3.25663 Y-2.59277
G01 X3.25314 Y-2.59317
G01 X3.24962 Y-2.59328
G01 X3.24608 Y-2.59310
G01 X3.24216 Y-2.59257
G01 X3.23830 Y-2.59167
G01 X3.23455 Y-2.59043
G01 X3.23090 Y-2.58884
G01 X3.22740 Y-2.58691
G01 X3.22410 Y-2.58468
G01 X3.22104 Y-2.58217
G01 X3.21822 Y-2.57939
G01 X3.21567 Y-2.57636
G01 X3.21340 Y-2.57311
G01 X3.21126 Y-2.56930
G01 X3.20965 Y-2.56566
G01 X3.20839 Y-2.56191
G01 X3.20747 Y-2.55805
G01 X3.20691 Y-2.55413
G01 X3.20672 Y-2.55018
G04 P0 ( dwell for no time -- G64 should not smooth over this point )
G00 Z0.08000 ( retract )

G00 X3.45238 Y-2.85136 ( rapid move to begin. )
G01 F180.00000
( Mill infeed pass 1/1 )
G01 Z-0.04000
G04 P0 ( dwell for no time -- G64 should not smooth over this point )
G01 F360.00000
G01 X3.45238 Y-2.85136
G01 X3.45260 Y-2.85659
G01 X3.45311 Y-2.86185
G01 X3.45381 Y-2.86660
G01 X3.45458 Y-2.87048
G01 X3.45582 Y-2.87301
G01 X3.45836 Y-2.87719
G01 X3.46124 Y-2.88103
G01 X3.46390 Y-2.88395
G01 X3.46740 Y-2.88716
G01 X3.46920 Y-2.88859
G01 X3.47343 Y-2.89147
G01 X3.47765 Y-2.89374
G01 X3.48256 Y-2.89575
G01 X3.48686 Y-2.89700
G01 X3.49220 Y-2.89799
G01 X3.49232 Y-2.89776
G01 X3.49220 Y-2.89799
G01 X3.57132 Y-2.97711
G01 X3.57458 Y-2.98001
G01 X3.57799 Y-2.98241
G01 X3.58019 Y-2.98371
G01 X3.58395 Y-2.98550
G01 X3.58789 Y-2.98685
G01 X3.59237 Y-2.98784
G01 X3.59491 Y-2.98815
G01 X3.60107 Y-2.98833
G01 X3.60130 Y-2.98783
G01 X3.60107 Y-2.98833
G01 X3.60282 Y-2.99051
G01 X3.60557 Y-2.99350
G01 X3.60884 Y-2.99661
G01 X3.61194 Y-2.99917
G01 X3.61740 Y-3.00295
G01 X3.62500 Y-3.00693
G01 X3.63000 Y-3.00887
G01 X3.63345 Y-3.00994
G01 X3.63781 Y-3.01098
G01 X3.64330 Y-3.01182
G01 X3.64773 Y-3.01214
G01 X3.65181 Y-3.01216
G01 X3.66060 Y-3.01127
G01 X3.66802 Y-3.00948
G01 X3.67072 Y-3.00861
G01 X3.67811 Y-3.00546
G01 X3.68536 Y-3.00115
G01 X3.69166 Y-2.99616
G01 X3.69313 Y-2.99476
G01 X3.69805 Y-2.98947
G01 X3.69894 Y-2.98833
G01 X3.69872 Y-2.98782
G01 X3.69894 Y-2.98833
G01 X3.99580 Y-2.98833
G01 X4.00194 Y-2.98784
G01 X4.00854 Y-2.98615
G01 X4.01080 Y-2.98522
G01 X4.01583 Y-2.98269
G01 X4.01941 Y-2.98020
G01 X4.02264 Y-2.97737
G01 X4.17277 Y-2.82724
G01 X4.17257 Y-2.82676
G01 X4.17277 Y-2.82724
G01 X4.26242 Y-2.82724
G01 X4.26620 Y-2.82509
G01 X4.26973 Y-2.82332
G01 X4.27418 Y-2.82139
G01 X4.28057 Y-2.81912
G01 X4.28522 Y-2.81787
G01 X4.28789 Y-2.81733
G01 X4.29546 Y-2.81633
G01 X4.29959 Y-2.81618
G01 X4.42459 Y-2.81618
G01 X4.43163 Y-2.81394
G01 X4.43921 Y-2.81230
G01 X4.44487 Y-2.81157
G01 X4.45225 Y-2.81125
G01 X4.45792 Y-2.81154
G01 X4.46379 Y-2.81226
G01 X4.47172 Y-2.81400
G01 X4.47596 Y-2.81528
G01 X4.48231 Y-2.81764
G01 X4.48942 Y-2.82094
G01 X4.50358 Y-2.82094
G01 X4.50773 Y-2.81735
G01 X4.51330 Y-2.81396
G01 X4.51829 Y-2.81203
G01 X4.52441 Y-2.81124
G01 X4.57559 Y-2.81123
G01 X4.58376 Y-2.81263
G01 X4.59062 Y-2.81633
G01 X4.60167 Y-2.81635
G01 X4.60650 Y-2.81662
G01 X4.61394 Y-2.81783
G01 X4.62111 Y-2.81979
G01 X4.62484 Y-2.82114
G01 X4.63520 Y-2.82549
G01 X4.63527 Y-2.82539
G01 X4.63520 Y-2.82549
G01 X4.69451 Y-2.88468
G01 X4.70193 Y-2.88755
G01 X4.70978 Y-2.89117
G01 X4.71720 Y-2.89523
G01 X4.72359 Y-2.89936
G01 X4.72940 Y-2.90367
G01 X4.73606 Y-2.90941
G01 X4.74105 Y-2.91445
G01 X4.74568 Y-2.91978
G01 X4.74935 Y-2.92452
G01 X4.75086 Y-2.93176
G01 X4.75153 Y-2.93595
G01 X4.75231 Y-2.94382
G01 X4.75248 Y-2.95243
G01 X4.75206 Y-2.95944
G01 X4.75103 Y-2.96724
G01 X4.74989 Y-2.97299
G01 X4.74921 Y-2.97551
G01 X4.74939 Y-2.97560
G01 X4.74921 Y-2.97551
G01 X4.74642 Y-2.97928
G01 X4.74295 Y-2.98345
G01 X4.73898 Y-2.98773
G01 X4.73367 Y-2.99275
G01 X4.72907 Y-2.99659
G01 X4.72417 Y-3.00024
G01 X4.71884 Y-3.00376
G01 X4.71324 Y-3.00702
G01 X4.70945 Y-3.00900
G01 X4.70387 Y-3.01161
G01 X4.57625 Y-3.13922
G01 X4.57645 Y-3.13970
G01 X4.57625 Y-3.13922
G01 X4.55193 Y-3.13922
G01 X4.55180 Y-3.13959
G01 X4.55193 Y-3.13922
G01 X4.55151 Y-3.13882
G01 X4.54733 Y-3.13541
G01 X4.54342 Y-3.13291
G01 X4.53893 Y-3.13069
G01 X4.53421 Y-3.12899
G01 X4.53006 Y-3.12799
G01 X4.52346 Y-3.12720
G01 X4.47836 Y-3.12717
G01 X4.47386 Y-3.12740
G01 X4.46819 Y-3.12835
G01 X4.46245 Y-3.13013
G01 X4.45664 Y-3.13288
G01 X4.45293 Y-3.13530
G01 X4.44919 Y-3.14377
G01 X4.44720 Y-3.14964
G01 X4.44607 Y-3.15377
G01 X4.44465 Y-3.16120
G01 X4.44419 Y-3.16533
G01 X4.44395 Y-3.17066
G01 X4.44412 Y-3.17618
G01 X4.44472 Y-3.18176
G01 X4.44618 Y-3.18917
G01 X4.44788 Y-3.19504
G01 X4.44936 Y-3.19918
G01 X4.45295 Y-3.20725
G01 X4.45325 Y-3.20745
G01 X4.53231 Y-3.20748
G01 X4.53433 Y-3.20686
G01 X4.53769 Y-3.20548
G01 X4.54152 Y-3.20341
G01 X4.54451 Y-3.20136
G01 X4.54756 Y-3.19878
G01 X4.54929 Y-3.19699
G01 X4.54915 Y-3.19662
G01 X4.54929 Y-3.19699
G01 X4.59194 Y-3.19688
G01 X4.59553 Y-3.19628
G01 X4.59943 Y-3.19501
G01 X4.60348 Y-3.19288
G01 X4.60612 Y-3.19090
G01 X4.79305 Y-3.00413
G01 X4.79549 Y-3.00125
G01 X4.79649 Y-2.99982
G01 X4.79805 Y-2.99707
G01 X4.79945 Y-2.99346
G01 X4.80026 Y-2.99002
G01 X4.80058 Y-2.98633
G01 X4.80056 Y-2.91289
G01 X4.80005 Y-2.90898
G01 X4.79961 Y-2.90716
G01 X4.79828 Y-2.90343
G01 X4.79636 Y-2.89997
G01 X4.79305 Y-2.89587
G01 X4.66759 Y-2.77043
G01 X4.66355 Y-2.76722
G01 X4.66000 Y-2.76533
G01 X4.65878 Y-2.76485
G01 X4.65520 Y-2.76378
G01 X4.65050 Y-2.76319
G01 X4.15689 Y-2.76317
G01 X4.15379 Y-2.76336
G01 X4.15101 Y-2.76385
G01 X4.14760 Y-2.76491
G01 X4.14408 Y-2.76659
G01 X4.14140 Y-2.76836
G01 X4.13869 Y-2.77071
G01 X3.98514 Y-2.92426
G01 X3.98534 Y-2.92474
G01 X3.98514 Y-2.92426
G01 X3.69238 Y-2.92426
G01 X3.69202 Y-2.92496
G01 X3.69238 Y-2.92426
G01 X3.68796 Y-2.91811
G01 X3.68333 Y-2.91329
G01 X3.68061 Y-2.91099
G01 X3.67674 Y-2.90827
G01 X3.67122 Y-2.90518
G01 X3.66796 Y-2.90378
G01 X3.66419 Y-2.90249
G01 X3.66073 Y-2.90159
G01 X3.65682 Y-2.90088
G01 X3.64957 Y-2.90042
G01 X3.64351 Y-2.90084
G01 X3.63757 Y-2.90200
G01 X3.63149 Y-2.90401
G01 X3.62704 Y-2.90605
G01 X3.62346 Y-2.90811
G01 X3.61976 Y-2.91070
G01 X3.61632 Y-2.91361
G01 X3.61346 Y-2.91648
G01 X3.61111 Y-2.91924
G01 X3.60818 Y-2.92336
G01 X3.60832 Y-2.92639
G01 X3.60818 Y-2.92336
G01 X3.53423 Y-2.84941
G01 X3.53394 Y-2.84956
G01 X3.53423 Y-2.84941
G01 X3.53394 Y-2.84532
G01 X3.53293 Y-2.84038
G01 X3.53109 Y-2.83529
G01 X3.52907 Y-2.83147
G01 X3.52829 Y-2.83025
G01 X3.52522 Y-2.82625
G01 X3.52190 Y-2.82294
G01 X3.51755 Y-2.81973
G01 X3.51360 Y-2.81755
G01 X3.50940 Y-2.81590
G01 X3.50544 Y-2.81487
G01 X3.50097 Y-2.81428
G01 X3.49504 Y-2.81435
G01 X3.49058 Y-2.81504
G01 X3.48585 Y-2.81647
G01 X3.48213 Y-2.81809
G01 X3.47827 Y-2.82038
G01 X3.47469 Y-2.82317
G01 X3.47120 Y-2.82671
G01 X3.46846 Y-2.83036
G01 X3.46623 Y-2.83429
G01 X3.46450 Y-2.83849
G01 X3.46343 Y-2.84240
G01 X3.46267 Y-2.84774
G01 X3.46264 Y-2.85178
G01 X3.46311 Y-2.85605
G01 X3.46397 Y-2.85983
G01 X3.46508 Y-2.86309
G01 X3.46688 Y-2.86697
G01 X3.46893 Y-2.87032
G01 X3.47082 Y-2.87284
G01 X3.47291 Y-2.87514
G01 X3.47606 Y-2.87798
G01 X3.47933 Y-2.88030
G01 X3.48385 Y-2.88272
G01 X3.48716 Y-2.88401
G01 X3.49100 Y-2.88505
G01 X3.49536 Y-2.88569
G01 X3.49782 Y-2.88579
G01 X3.49798 Y-2.88545
G01 X3.49782 Y-2.88579
G01 X3.58023 Y-2.96820
G01 X3.58258 Y-2.97028
G01 X3.58536 Y-2.97217
G01 X3.58837 Y-2.97369
G01 X3.59155 Y-2.97480
G01 X3.59440 Y-2.97541
G01 X3.59809 Y-2.97573
G01 X3.60762 Y-2.97574
G01 X3.60793 Y-2.97510
G01 X3.60762 Y-2.97574
G01 X3.60970 Y-2.97889
G01 X3.61214 Y-2.98202
G01 X3.61456 Y-2.98467
G01 X3.61742 Y-2.98738
G01 X3.61988 Y-2.98938
G01 X3.62411 Y-2.99227
G01 X3.62973 Y-2.99525
G01 X3.63341 Y-2.99673
G01 X3.63680 Y-2.99780
G01 X3.64026 Y-2.99862
G01 X3.64421 Y-2.99925
G01 X3.64821 Y-2.99955
G01 X3.65176 Y-2.99955
G01 X3.65878 Y-2.99880
G01 X3.66561 Y-2.99706
G01 X3.67213 Y-2.99437
G01 X3.67759 Y-2.99118
G01 X3.68370 Y-2.98637
G01 X3.68829 Y-2.98150
G01 X3.69238 Y-2.97574
G01 X3.69201 Y-2.97503
G01 X3.69238 Y-2.97574
G01 X3.99580 Y-2.97574
G01 X3.99989 Y-2.97541
G01 X4.00426 Y-2.97430
G01 X4.00936 Y-2.97187
G01 X4.01168 Y-2.97025
G01 X4.01400 Y-2.96820
G01 X4.16755 Y-2.81465
G01 X4.16735 Y-2.81417
G01 X4.16755 Y-2.81465
G01 X4.42922 Y-2.81465
G01 X4.43453 Y-2.81322
G01 X4.44066 Y-2.81207
G01 X4.44487 Y-2.81157
G01 X4.45225 Y-2.81127
G01 X4.45792 Y-2.81154
G01 X4.46379 Y-2.81228
G01 X4.46978 Y-2.81350
G01 X4.47386 Y-2.81465
G01 X4.51209 Y-2.81465
G01 X4.51330 Y-2.81396
G01 X4.51830 Y-2.81208
G01 X4.52441 Y-2.81126
G01 X4.57559 Y-2.81126
G01 X4.58374 Y-2.81270
G01 X4.58746 Y-2.81465
G01 X4.63903 Y-2.81465
G01 X4.63922 Y-2.81417
G01 X4.63903 Y-2.81465
G01 X4.72409 Y-2.89971
G01 X4.73076 Y-2.90477
G01 X4.73597 Y-2.90935
G01 X4.74002 Y-2.91337
G01 X4.74388 Y-2.91762
G01 X4.74895 Y-2.92403
G01 X4.74946 Y-2.92515
G01 X4.75011 Y-2.92797
G01 X4.75153 Y-2.93595
G01 X4.75231 Y-2.94382
G01 X4.75249 Y-2.94886
G01 X4.75236 Y-2.95528
G01 X4.75198 Y-2.96029
G01 X4.75103 Y-2.96724
G01 X4.74956 Y-2.97441
G01 X4.74889 Y-2.97604
G01 X4.74642 Y-2.97928
G01 X4.74289 Y-2.98351
G01 X4.73890 Y-2.98779
G01 X4.73466 Y-2.99187
G01 X4.73023 Y-2.99566
G01 X4.72407 Y-3.00031
G01 X4.57886 Y-3.14552
G01 X4.57906 Y-3.14600
G01 X4.57886 Y-3.14552
G01 X4.54929 Y-3.14552
G01 X4.54912 Y-3.14594
G01 X4.54929 Y-3.14552
G01 X4.54669 Y-3.14296
G01 X4.54364 Y-3.14052
G01 X4.54000 Y-3.13822
G01 X4.53649 Y-3.13650
G01 X4.53282 Y-3.13516
G01 X4.52745 Y-3.13393
G01 X4.52300 Y-3.13350
G01 X4.47787 Y-3.13347
G01 X4.47451 Y-3.13366
G01 X4.46930 Y-3.13457
G01 X4.46440 Y-3.13613
G01 X4.45976 Y-3.13835
G01 X4.45507 Y-3.14148
G01 X4.45136 Y-3.14483
G01 X4.45030 Y-3.14595
G01 X4.44709 Y-3.15001
G01 X4.44567 Y-3.15551
G01 X4.44489 Y-3.15964
G01 X4.44419 Y-3.16533
G01 X4.44395 Y-3.17066
G01 X4.44423 Y-3.17763
G01 X4.44496 Y-3.18333
G01 X4.44577 Y-3.18746
G01 X4.44709 Y-3.19249
G01 X4.45058 Y-3.19687
G01 X4.45545 Y-3.20133
G01 X4.45978 Y-3.20417
G01 X4.46502 Y-3.20662
G01 X4.46771 Y-3.20745
G01 X4.54672 Y-3.20749
G01 X4.54883 Y-3.20598
G01 X4.55171 Y-3.20352
G01 X4.55196 Y-3.20329
G01 X4.55183 Y-3.20293
G01 X4.55196 Y-3.20329
G01 X4.59075 Y-3.20325
G01 X4.59290 Y-3.20310
G01 X4.59615 Y-3.20259
G01 X4.60056 Y-3.20131
G01 X4.60279 Y-3.20039
G01 X4.60670 Y-3.19829
G01 X4.61029 Y-3.19563
G01 X4.79777 Y-3.00831
G01 X4.80059 Y-3.00497
G01 X4.80194 Y-3.00298
G01 X4.80389 Y-2.99946
G01 X4.80557 Y-2.99496
G01 X4.80647 Y-2.99105
G01 X4.80687 Y-2.98671
G01 X4.80685 Y-2.91246
G01 X4.80622 Y-2.90765
G01 X4.80571 Y-2.90555
G01 X4.80403 Y-2.90084
G01 X4.80183 Y-2.89684
G01 X4.80061 Y-2.89505
G01 X4.79750 Y-2.89142
G01 X4.67205 Y-2.76597
G01 X4.66732 Y-2.76216
G01 X4.66260 Y-2.75960
G01 X4.66073 Y-2.75886
G01 X4.65686 Y-2.75769
G01 X4.65248 Y-2.75701
G01 X4.65050 Y-2.75689
G01 X4.15689 Y-2.75687
G01 X4.15301 Y-2.75711
G01 X4.14949 Y-2.75774
G01 X4.14531 Y-2.75904
G01 X4.14131 Y-2.76092
G01 X4.13756 Y-2.76336
G01 X4.13449 Y-2.76600
G01 X4.09125 Y-2.80924
G01 X4.08920 Y-2.81420
G01 X4.08612 Y-2.82019
G01 X4.08141 Y-2.82596
G01 X4.07608 Y-2.83021
G01 X4.07037 Y-2.83318
G01 X4.06514 Y-2.83535
G01 X3.98253 Y-2.91796
G01 X3.98273 Y-2.91844
G01 X3.98253 Y-2.91796
G01 X3.69567 Y-2.91796
G01 X3.69533 Y-2.91864
G01 X3.69567 Y-2.91796
G01 X3.69330 Y-2.91467
G01 X3.68745 Y-2.90852
G01 X3.68433 Y-2.90590
G01 X3.68109 Y-2.90356
G01 X3.67457 Y-2.89982
G01 X3.66963 Y-2.89769
G01 X3.66581 Y-2.89640
G01 X3.66228 Y-2.89548
G01 X3.65721 Y-2.89459
G01 X3.65002 Y-2.89412
G01 X3.64312 Y-2.89454
G01 X3.63642 Y-2.89579
G01 X3.62995 Y-2.89783
G01 X3.62416 Y-2.90045
G01 X3.62008 Y-2.90280
G01 X3.61653 Y-2.90526
G01 X3.61179 Y-2.90922
G01 X3.60896 Y-2.91206
G01 X3.60750 Y-2.91377
G01 X3.60747 Y-2.91628
G01 X3.60750 Y-2.91377
G01 X3.54035 Y-2.84662
G01 X3.54007 Y-2.84677
G01 X3.54035 Y-2.84662
G01 X3.54013 Y-2.84408
G01 X3.53877 Y-2.83790
G01 X3.53684 Y-2.83270
G01 X3.53381 Y-2.82715
G01 X3.53051 Y-2.82270
G01 X3.52635 Y-2.81846
G01 X3.52164 Y-2.81485
G01 X3.51712 Y-2.81226
G01 X3.51176 Y-2.81004
G01 X3.50747 Y-2.80888
G01 X3.50575 Y-2.80852
G01 X3.50041 Y-2.80792
G01 X3.49545 Y-2.80798
G01 X3.49057 Y-2.80864
G01 X3.48841 Y-2.80910
G01 X3.48376 Y-2.81052
G01 X3.47931 Y-2.81246
G01 X3.47476 Y-2.81515
G01 X3.47086 Y-2.81814
G01 X3.46735 Y-2.82159
G01 X3.46591 Y-2.82325
G01 X3.46298 Y-2.82726
G01 X3.46055 Y-2.83155
G01 X3.45866 Y-2.83611
G01 X3.45705 Y-2.84208
G01 X3.45634 Y-2.84818
G01 X3.45636 Y-2.85231
G01 X3.45674 Y-2.85600
G01 X3.45785 Y-2.86134
G01 X3.45915 Y-2.86522
G01 X3.46062 Y-2.86856
G01 X3.46336 Y-2.87335
G01 X3.46664 Y-2.87763
G01 X3.46886 Y-2.88001
G01 X3.47158 Y-2.88244
G01 X3.47310 Y-2.88364
G01 X3.47705 Y-2.88630
G01 X3.48068 Y-2.88821
G01 X3.48412 Y-2.88960
G01 X3.49005 Y-2.89128
G01 X3.49476 Y-2.89197
G01 X3.49511 Y-2.89199
G01 X3.49526 Y-2.89170
G01 X3.49511 Y-2.89199
G01 X3.57577 Y-2.97265
G01 X3.57945 Y-2.97580
G01 X3.58222 Y-2.97763
G01 X3.58557 Y-2.97934
G01 X3.59076 Y-2.98110
G01 X3.59446 Y-2.98179
G01 X3.59806 Y-2.98203
G01 X3.60423 Y-2.98204
G01 X3.60454 Y-2.98143
G01 X3.60423 Y-2.98204
G01 X3.60720 Y-2.98594
G01 X3.61021 Y-2.98924
G01 X3.61343 Y-2.99226
G01 X3.61658 Y-2.99479
G01 X3.62017 Y-2.99726
G01 X3.62739 Y-3.00110
G01 X3.63189 Y-3.00286
G01 X3.63531 Y-3.00392
G01 X3.63924 Y-3.00484
G01 X3.64415 Y-3.00557
G01 X3.64776 Y-3.00584
G01 X3.65140 Y-3.00586
G01 X3.65950 Y-3.00507
G01 X3.66646 Y-3.00337
G01 X3.66870 Y-3.00263
G01 X3.67563 Y-2.99965
G01 X3.68178 Y-2.99597
G01 X3.68798 Y-2.99099
G01 X3.69366 Y-2.98488
G01 X3.69567 Y-2.98204
G01 X3.69541 Y-2.98147
G01 X3.69567 Y-2.98204
G01 X3.99580 Y-2.98204
G01 X4.00112 Y-2.98159
G01 X4.00659 Y-2.98016
G01 X4.01102 Y-2.97814
G01 X4.01290 Y-2.97708
G01 X4.01554 Y-2.97523
G01 X4.01845 Y-2.97265
G01 X4.17016 Y-2.82094
G01 X4.16996 Y-2.82046
G01 X4.17016 Y-2.82094
G01 X4.27535 Y-2.82094
G01 X4.28057 Y-2.81912
G01 X4.28533 Y-2.81786
G01 X4.29044 Y-2.81690
G01 X4.29797 Y-2.81622
G01 X4.42459 Y-2.81618
G01 X4.43163 Y-2.81394
G01 X4.43930 Y-2.81228
G01 X4.44487 Y-2.81157
G01 X4.45235 Y-2.81127
G01 X4.45792 Y-2.81154
G01 X4.46379 Y-2.81228
G01 X4.46978 Y-2.81350
G01 X4.47596 Y-2.81528
G01 X4.48243 Y-2.81769
G01 X4.48916 Y-2.82081
G01 X4.49252 Y-2.82259
G01 X4.49831 Y-2.82606
G01 X4.50233 Y-2.82204
G01 X4.50733 Y-2.81766
G01 X4.51274 Y-2.81424
G01 X4.51830 Y-2.81208
G01 X4.52441 Y-2.81126
G01 X4.57559 Y-2.81126
G01 X4.58374 Y-2.81270
G01 X4.59062 Y-2.81633
G01 X4.60180 Y-2.81635
G01 X4.60447 Y-2.81647
G01 X4.60894 Y-2.81694
G01 X4.61608 Y-2.81833
G01 X4.62111 Y-2.81979
G01 X4.62430 Y-2.82094
G01 X4.63642 Y-2.82094
G01 X4.63662 Y-2.82046
G01 X4.63642 Y-2.82094
G01 X4.70387 Y-2.88840
G01 X4.70978 Y-2.89117
G01 X4.71720 Y-2.89525
G01 X4.72359 Y-2.89936
G01 X4.72940 Y-2.90367
G01 X4.73478 Y-2.90825
G01 X4.74008 Y-2.91343
G01 X4.74388 Y-2.91762
G01 X4.74866 Y-2.92362
G01 X4.74946 Y-2.92515
G01 X4.75010 Y-2.92791
G01 X4.75153 Y-2.93595
G01 X4.75231 Y-2.94382
G01 X4.75249 Y-2.94886
G01 X4.75231 Y-2.95612
G01 X4.75165 Y-2.96315
G01 X4.75081 Y-2.96851
G01 X4.74989 Y-2.97299
G01 X4.74921 Y-2.97551
G01 X4.74642 Y-2.97928
G01 X4.74295 Y-2.98345
G01 X4.73798 Y-2.98872
G01 X4.73466 Y-2.99187
G01 X4.73023 Y-2.99566
G01 X4.72417 Y-3.00024
G01 X4.71891 Y-3.00372
G01 X4.71493 Y-3.00608
G01 X4.70765 Y-3.00987
G01 X4.70091 Y-3.01288
G01 X4.69635 Y-3.01465
G01 X4.68962 Y-3.01694
G01 X4.57364 Y-3.13292
G01 X4.57384 Y-3.13340
G01 X4.57364 Y-3.13292
G01 X4.55431 Y-3.13292
G01 X4.55422 Y-3.13322
G01 X4.55431 Y-3.13292
G01 X4.55010 Y-3.12969
G01 X4.54597 Y-3.12712
G01 X4.54120 Y-3.12481
G01 X4.53662 Y-3.12315
G01 X4.53454 Y-3.12256
G01 X4.52998 Y-3.12156
G01 X4.52467 Y-3.12096
G01 X4.47836 Y-3.12087
G01 X4.47433 Y-3.12103
G01 X4.46673 Y-3.12222
G01 X4.46093 Y-3.12399
G01 X4.45894 Y-3.12476
G01 X4.45520 Y-3.13098
G01 X4.45193 Y-3.13735
G01 X4.45010 Y-3.14150
G01 X4.44780 Y-3.14769
G01 X4.44567 Y-3.15551
G01 X4.44465 Y-3.16120
G01 X4.44409 Y-3.16675
G01 X4.44395 Y-3.17204
G01 X4.44423 Y-3.17763
G01 X4.44496 Y-3.18333
G01 X4.44577 Y-3.18746
G01 X4.44726 Y-3.19309
G01 X4.44936 Y-3.19918
G01 X4.45304 Y-3.20744
G01 X4.55472 Y-3.20739
G01 X4.55579 Y-3.20768
G01 X4.56070 Y-3.20958
G01 X4.59115 Y-3.20954
G01 X4.59352 Y-3.20938
G01 X4.59671 Y-3.20888
G01 X4.59981 Y-3.20817
G01 X4.60468 Y-3.20646
G01 X4.60961 Y-3.20390
G01 X4.61379 Y-3.20089
G01 X4.61603 Y-3.19893
G01 X4.80225 Y-3.01274
G01 X4.80636 Y-3.00776
G01 X4.80938 Y-3.00257
G01 X4.81147 Y-2.99724
G01 X4.81245 Y-2.99328
G01 X4.81286 Y-2.99085
G01 X4.81318 Y-2.98633
G01 X4.81310 Y-2.91161
G01 X4.81222 Y-2.90553
G01 X4.81063 Y-2.90043
G01 X4.80933 Y-2.89735
G01 X4.80668 Y-2.89270
G01 X4.80518 Y-2.89069
G01 X4.80196 Y-2.88696
G01 X4.67595 Y-2.76098
G01 X4.67091 Y-2.75699
G01 X4.66521 Y-2.75386
G01 X4.66304 Y-2.75299
G01 X4.65924 Y-2.75179
G01 X4.65337 Y-2.75078
G01 X4.65050 Y-2.75060
G01 X4.15689 Y-2.75057
G01 X4.15222 Y-2.75086
G01 X4.14798 Y-2.75162
G01 X4.14339 Y-2.75303
G01 X4.13894 Y-2.75506
G01 X4.13645 Y-2.75650
G01 X4.13272 Y-2.75916
G01 X4.12978 Y-2.76180
G01 X4.09755 Y-2.79403
G01 X4.08907 Y-2.81447
G01 X4.08573 Y-2.82068
G01 X4.08138 Y-2.82594
G01 X4.07606 Y-2.83018
G01 X4.07037 Y-2.83318
G01 X4.04993 Y-2.84165
G01 X3.97992 Y-2.91167
G01 X3.98012 Y-2.91214
G01 X3.97992 Y-2.91167
G01 X3.69891 Y-2.91167
G01 X3.69871 Y-2.91215
G01 X3.69891 Y-2.91167
G01 X3.69710 Y-2.90943
G01 X3.69239 Y-2.90451
G01 X3.68905 Y-2.90162
G01 X3.68403 Y-2.89795
G01 X3.67698 Y-2.89398
G01 X3.67168 Y-2.89173
G01 X3.66782 Y-2.89042
G01 X3.66343 Y-2.88928
G01 X3.65774 Y-2.88831
G01 X3.65001 Y-2.88782
G01 X3.64231 Y-2.88829
G01 X3.63603 Y-2.88943
G01 X3.63333 Y-2.89012
G01 X3.62662 Y-2.89239
G01 X3.62031 Y-2.89537
G01 X3.61653 Y-2.89759
G01 X3.61225 Y-2.90059
G01 X3.60737 Y-2.90473
G01 X3.60724 Y-2.90682
G01 X3.60737 Y-2.90473
G01 X3.54645 Y-2.84381
G01 X3.54621 Y-2.84394
G01 X3.54645 Y-2.84381
G01 X3.54624 Y-2.84240
G01 X3.54470 Y-2.83575
G01 X3.54258 Y-2.83012
G01 X3.54016 Y-2.82550
G01 X3.53868 Y-2.82311
G01 X3.53530 Y-2.81861
G01 X3.53112 Y-2.81429
G01 X3.52893 Y-2.81245
G01 X3.52348 Y-2.81073
G01 X3.51705 Y-2.80914
G01 X3.51134 Y-2.80813
G01 X3.50557 Y-2.80748
G01 X3.49945 Y-2.80720
G01 X3.49373 Y-2.80732
G01 X3.48755 Y-2.80786
G01 X3.47871 Y-2.80938
G01 X3.46982 Y-2.81180
G01 X3.46790 Y-2.81245
G01 X3.46712 Y-2.81306
G01 X3.46262 Y-2.81742
G01 X3.46089 Y-2.81944
G01 X3.45786 Y-2.82355
G01 X3.45462 Y-2.82936
G01 X3.45389 Y-2.83303
G01 X3.45299 Y-2.83916
G01 X3.45247 Y-2.84578
G01 X3.45238 Y-2.85136
G01 X3.46894 Y-2.85140
G01 X3.46897 Y-2.84810
G01 X3.46942 Y-2.84453
G01 X3.47034 Y-2.84091
G01 X3.47169 Y-2.83747
G01 X3.47370 Y-2.83387
G01 X3.47593 Y-2.83088
G01 X3.47882 Y-2.82793
G01 X3.48176 Y-2.82563
G01 X3.48494 Y-2.82374
G01 X3.48879 Y-2.82210
G01 X3.49239 Y-2.82111
G01 X3.49648 Y-2.82054
G01 X3.50020 Y-2.82053
G01 X3.50430 Y-2.82107
G01 X3.50787 Y-2.82203
G01 X3.51132 Y-2.82344
G01 X3.51492 Y-2.82552
G01 X3.51820 Y-2.82808
G01 X3.52108 Y-2.83108
G01 X3.52352 Y-2.83445
G01 X3.52523 Y-2.83763
G01 X3.52670 Y-2.84152
G01 X3.52761 Y-2.84558
G01 X3.52794 Y-2.84972
G01 X3.52783 Y-2.85192
G01 X3.60648 Y-2.93056
G01 X3.61135 Y-2.93056
G01 X3.61364 Y-2.92652
G01 X3.61572 Y-2.92358
G01 X3.61821 Y-2.92063
G01 X3.62072 Y-2.91813
G01 X3.62346 Y-2.91580
G01 X3.62670 Y-2.91352
G01 X3.62976 Y-2.91174
G01 X3.63453 Y-2.90958
G01 X3.63956 Y-2.90800
G01 X3.64475 Y-2.90704
G01 X3.64954 Y-2.90672
G01 X3.65608 Y-2.90714
G01 X3.65923 Y-2.90771
G01 X3.66223 Y-2.90848
G01 X3.66555 Y-2.90960
G01 X3.66840 Y-2.91082
G01 X3.67365 Y-2.91376
G01 X3.67661 Y-2.91587
G01 X3.67899 Y-2.91786
G01 X3.68316 Y-2.92219
G01 X3.68677 Y-2.92718
G01 X3.68866 Y-2.93056
G01 X3.98775 Y-2.93056
G01 X4.14314 Y-2.77516
G01 X4.14527 Y-2.77334
G01 X4.14744 Y-2.77193
G01 X4.15017 Y-2.77068
G01 X4.15255 Y-2.76997
G01 X4.15461 Y-2.76961
G01 X4.15689 Y-2.76947
G01 X4.65050 Y-2.76949
G01 X4.65420 Y-2.77000
G01 X4.65715 Y-2.77096
G01 X4.66027 Y-2.77261
G01 X4.66314 Y-2.77488
G01 X4.78859 Y-2.90033
G01 X4.79106 Y-2.90337
G01 X4.79261 Y-2.90617
G01 X4.79365 Y-2.90919
G01 X4.79427 Y-2.91326
G01 X4.79428 Y-2.98633
G01 X4.79399 Y-2.98927
G01 X4.79342 Y-2.99164
G01 X4.79250 Y-2.99406
G01 X4.79085 Y-2.99696
G01 X4.78859 Y-2.99967
G01 X4.60267 Y-3.18556
G01 X4.60008 Y-3.18757
G01 X4.59667 Y-3.18932
G01 X4.59375 Y-3.19022
G01 X4.59074 Y-3.19065
G01 X4.54639 Y-3.19069
G01 X4.54320 Y-3.19423
G01 X4.54065 Y-3.19637
G01 X4.53790 Y-3.19824
G01 X4.53496 Y-3.19980
G01 X4.53188 Y-3.20104
G01 X4.52868 Y-3.20196
G01 X4.52537 Y-3.20253
G01 X4.52176 Y-3.20275
G01 X4.47651 Y-3.20269
G01 X4.47171 Y-3.20204
G01 X4.46728 Y-3.20074
G01 X4.46289 Y-3.19869
G01 X4.45904 Y-3.19613
G01 X4.45545 Y-3.19287
G01 X4.45240 Y-3.18910
G01 X4.45007 Y-3.18512
G01 X4.44828 Y-3.18060
G01 X4.44720 Y-3.17587
G01 X4.44686 Y-3.17104
G01 X4.44723 Y-3.16643
G01 X4.44834 Y-3.16170
G01 X4.44991 Y-3.15775
G01 X4.45232 Y-3.15354
G01 X4.45519 Y-3.14992
G01 X4.45874 Y-3.14662
G01 X4.46235 Y-3.14414
G01 X4.46646 Y-3.14210
G01 X4.47084 Y-3.14068
G01 X4.47514 Y-3.13994
G01 X4.47835 Y-3.13976
G01 X4.52300 Y-3.13980
G01 X4.52677 Y-3.14019
G01 X4.53028 Y-3.14097
G01 X4.53366 Y-3.14215
G01 X4.53689 Y-3.14370
G01 X4.53992 Y-3.14561
G01 X4.54271 Y-3.14785
G01 X4.54523 Y-3.15039
G01 X4.54637 Y-3.15182
G01 X4.58147 Y-3.15182
G01 X4.75541 Y-2.97788
G01 X4.75541 Y-2.92212
G01 X4.64163 Y-2.80835
G01 X4.16494 Y-2.80835
G01 X4.00954 Y-2.96374
G01 X4.00783 Y-2.96526
G01 X4.00587 Y-2.96663
G01 X4.00231 Y-2.96831
G01 X3.99887 Y-2.96919
G01 X3.99580 Y-2.96944
G01 X3.68858 Y-2.96944
G01 X3.68700 Y-2.97245
G01 X3.68344 Y-2.97747
G01 X3.67921 Y-2.98194
G01 X3.67438 Y-2.98576
G01 X3.66906 Y-2.98885
G01 X3.66336 Y-2.99116
G01 X3.65738 Y-2.99264
G01 X3.65140 Y-2.99326
G01 X3.64830 Y-2.99325
G01 X3.64479 Y-2.99297
G01 X3.64163 Y-2.99247
G01 X3.63861 Y-2.99176
G01 X3.63567 Y-2.99084
G01 X3.63242 Y-2.98955
G01 X3.62709 Y-2.98672
G01 X3.62408 Y-2.98467
G01 X3.62167 Y-2.98272
G01 X3.61941 Y-2.98063
G01 X3.61704 Y-2.97806
G01 X3.61512 Y-2.97563
G01 X3.61316 Y-2.97272
G01 X3.61134 Y-2.96944
G01 X3.59843 Y-2.96944
G01 X3.59563 Y-2.96923
G01 X3.59315 Y-2.96870
G01 X3.59075 Y-2.96785
G01 X3.58849 Y-2.96670
G01 X3.58639 Y-2.96526
G01 X3.58468 Y-2.96374
G01 X3.50036 Y-2.87942
G01 X3.49879 Y-2.87952
G01 X3.49552 Y-2.87938
G01 X3.49190 Y-2.87879
G01 X3.48879 Y-2.87791
G01 X3.48579 Y-2.87668
G01 X3.48292 Y-2.87512
G01 X3.48029 Y-2.87329
G01 X3.47783 Y-2.87115
G01 X3.47591 Y-2.86910
G01 X3.47397 Y-2.86654
G01 X3.47211 Y-2.86339
G01 X3.47081 Y-2.86045
G01 X3.46995 Y-2.85779
G01 X3.46927 Y-2.85462
G01 X3.46894 Y-2.85140
G04 P0 ( dwell for no time -- G64 should not smooth over this point )
G00 Z0.08000 ( retract )

G00 X3.12981 Y-3.21762 ( rapid move to begin. )
G01 F180.00000
( Mill infeed pass 1/1 )
G01 Z-0.04000
G04 P0 ( dwell for no time -- G64 should not smooth over this point )
G01 F360.00000
G01 X3.12981 Y-3.21762
G01 X3.13003 Y-3.22155
G01 X3.13036 Y-3.22399
G01 X3.13137 Y-3.22843
G01 X3.13272 Y-3.23225
G01 X3.13444 Y-3.23585
G01 X3.13574 Y-3.23806
G01 X3.13787 Y-3.24113
G01 X3.14078 Y-3.24446
G01 X3.32276 Y-3.42643
G01 X3.32677 Y-3.42979
G01 X3.32982 Y-3.43178
G01 X3.33186 Y-3.43291
G01 X3.33771 Y-3.43533
G01 X3.34353 Y-3.43669
G01 X3.34933 Y-3.43713
G01 X3.82528 Y-3.43695
G01 X3.83130 Y-3.43588
G01 X3.83661 Y-3.43405
G01 X3.84194 Y-3.43127
G01 X3.84584 Y-3.42843
G01 X3.84808 Y-3.42647
G01 X3.87845 Y-3.39601
G01 X3.88190 Y-3.39162
G01 X3.88432 Y-3.38745
G01 X3.88625 Y-3.38282
G01 X3.88747 Y-3.37840
G01 X3.88786 Y-3.37630
G01 X3.88828 Y-3.37234
G01 X3.88832 Y-3.36219
G01 X3.88681 Y-3.36087
G01 X3.88832 Y-3.36219
G01 X3.89181 Y-3.36178
G01 X3.89529 Y-3.36080
G01 X3.89787 Y-3.35966
G01 X3.90030 Y-3.35821
G01 X3.90252 Y-3.35648
G01 X3.90451 Y-3.35449
G01 X3.90625 Y-3.35226
G01 X3.90769 Y-3.34984
G01 X3.90883 Y-3.34726
G01 X3.90964 Y-3.34456
G01 X3.91015 Y-3.34138
G01 X3.91024 Y-3.33833
G01 X3.90863 Y-3.33663
G01 X3.91024 Y-3.33833
G01 X3.98976 Y-3.33833
G01 X3.99140 Y-3.33661
G01 X3.98976 Y-3.33833
G01 X3.98979 Y-3.34058
G01 X3.99005 Y-3.34298
G01 X3.99067 Y-3.34573
G01 X3.99146 Y-3.34802
G01 X3.99249 Y-3.35020
G01 X3.99398 Y-3.35259
G01 X3.99548 Y-3.35449
G01 X3.99718 Y-3.35621
G01 X3.99905 Y-3.35775
G01 X4.00072 Y-3.35887
G01 X4.00285 Y-3.36002
G01 X4.00508 Y-3.36093
G01 X4.00741 Y-3.36161
G01 X4.00978 Y-3.36203
G01 X4.01260 Y-3.36220
G01 X4.08780 Y-3.36220
G01 X4.09101 Y-3.36192
G01 X4.09415 Y-3.36118
G01 X4.09642 Y-3.36035
G01 X4.09858 Y-3.35928
G01 X4.10030 Y-3.35821
G01 X4.10222 Y-3.35675
G01 X4.10397 Y-3.35508
G01 X4.10529 Y-3.35356
G01 X4.10669 Y-3.35159
G01 X4.10775 Y-3.34974
G01 X4.10626 Y-3.34451
G01 X4.10220 Y-3.33317
G01 X4.10016 Y-3.32613
G01 X4.09839 Y-3.31785
G01 X4.09752 Y-3.31169
G01 X4.09701 Y-3.30553
G01 X4.09685 Y-3.30054
G01 X4.09698 Y-3.29488
G01 X4.09741 Y-3.28935
G01 X4.09828 Y-3.28275
G01 X4.09940 Y-3.27708
G01 X4.10072 Y-3.27176
G01 X4.10253 Y-3.26579
G01 X4.10394 Y-3.26181
G01 X4.10381 Y-3.25861
G01 X4.10311 Y-3.25549
G01 X3.43235 Y-3.20750
G01 X3.43532 Y-3.20650
G01 X3.43823 Y-3.20521
G01 X3.44189 Y-3.20318
G01 X3.44490 Y-3.20106
G01 X3.44732 Y-3.19899
G01 X3.44905 Y-3.19725
G01 X3.44892 Y-3.19687
G01 X3.44905 Y-3.19725
G01 X4.04280 Y-3.19725
G01 X4.04717 Y-3.19687
G01 X4.04997 Y-3.19624
G01 X4.05275 Y-3.19525
G01 X4.05683 Y-3.19312
G01 X4.05883 Y-3.19171
G01 X4.06118 Y-3.18963
G01 X4.26537 Y-2.98544
G01 X4.26525 Y-2.98330
G01 X4.26537 Y-2.98544
G01 X4.26880 Y-2.98854
G01 X4.27367 Y-2.99202
G01 X4.27897 Y-2.99490
G01 X4.28419 Y-2.99700
G01 X4.29001 Y-2.99857
G01 X4.29555 Y-2.99938
G01 X4.30156 Y-2.99956
G01 X4.30839 Y-2.99885
G01 X4.31385 Y-2.99761
G01 X4.31949 Y-2.99558
G01 X4.32454 Y-2.99309
G01 X4.32957 Y-2.98980
G01 X4.33386 Y-2.98622
G01 X4.33796 Y-2.98190
G01 X4.34103 Y-2.97785
G01 X4.34366 Y-2.97351
G01 X4.34599 Y-2.96854
G01 X4.34754 Y-2.96409
G01 X4.34879 Y-2.95885
G01 X4.34944 Y-2.95382
G01 X4.34957 Y-2.94869
G01 X4.34917 Y-2.94359
G01 X4.34792 Y-2.93728
G01 X4.34601 Y-2.93151
G01 X4.34341 Y-2.92603
G01 X4.34014 Y-2.92092
G01 X4.33599 Y-2.91589
G01 X4.33120 Y-2.91146
G01 X4.32599 Y-2.90778
G01 X4.32536 Y-2.90808
G01 X4.32599 Y-2.90778
G01 X4.32599 Y-2.87599
G01 X4.32414 Y-2.87414
G01 X4.32599 Y-2.87599
G01 X4.42694 Y-2.87599
G01 X4.42704 Y-2.87567
G01 X4.42694 Y-2.87599
G01 X4.43036 Y-2.87885
G01 X4.43415 Y-2.88130
G01 X4.43785 Y-2.88309
G01 X4.44345 Y-2.88488
G01 X4.44750 Y-2.88559
G01 X4.45201 Y-2.88582
G01 X4.45722 Y-2.88537
G01 X4.46026 Y-2.88476
G01 X4.46434 Y-2.88347
G01 X4.46759 Y-2.88205
G01 X4.47069 Y-2.88030
G01 X4.47387 Y-2.87804
G01 X4.47646 Y-2.87577
G01 X4.47934 Y-2.87264
G01 X4.48184 Y-2.86915
G01 X4.48360 Y-2.86606
G01 X4.48489 Y-2.86315
G01 X4.48623 Y-2.85907
G01 X4.48707 Y-2.85485
G01 X4.48739 Y-2.85056
G01 X4.48731 Y-2.84741
G01 X4.48694 Y-2.84433
G01 X4.48588 Y-2.83970
G01 X4.48401 Y-2.83478
G01 X4.48124 Y-2.82991
G01 X4.47774 Y-2.82552
G01 X4.47360 Y-2.82174
G01 X4.47204 Y-2.82068
G01 X4.46826 Y-2.81962
G01 X4.46276 Y-2.81849
G01 X4.45887 Y-2.81796
G01 X4.45349 Y-2.81760
G01 X4.44955 Y-2.81759
G01 X4.44535 Y-2.81785
G01 X4.44151 Y-2.81831
G01 X4.43721 Y-2.81908
G01 X4.43320 Y-2.82004
G01 X4.42518 Y-2.82253
G01 X4.29818 Y-2.82252
G01 X4.29131 Y-2.82314
G01 X4.28668 Y-2.82402
G01 X4.28249 Y-2.82512
G01 X4.27757 Y-2.82684
G01 X4.27522 Y-2.82938
G01 X4.27278 Y-2.83266
G01 X4.27171 Y-2.83450
G01 X4.26937 Y-2.83980
G01 X4.26851 Y-2.84287
G01 X4.26792 Y-2.84640
G01 X4.26780 Y-2.84836
G01 X4.26772 Y-2.90068
G01 X4.26820 Y-2.90088
G01 X4.26772 Y-2.90068
G01 X4.02943 Y-3.13897
G01 X4.02963 Y-3.13945
G01 X4.02943 Y-3.13897
G01 X3.45167 Y-3.13897
G01 X3.45155 Y-3.13932
G01 X3.45167 Y-3.13897
G01 X3.44860 Y-3.13636
G01 X3.44541 Y-3.13411
G01 X3.44168 Y-3.13198
G01 X3.43776 Y-3.13021
G01 X3.43445 Y-3.12908
G01 X3.42913 Y-3.12780
G01 X3.42224 Y-3.12717
G01 X3.37656 Y-3.12720
G01 X3.37193 Y-3.12764
G01 X3.36775 Y-3.12847
G01 X3.36186 Y-3.13036
G01 X3.35741 Y-3.13245
G01 X3.35374 Y-3.13469
G01 X3.34888 Y-3.13845
G01 X3.34560 Y-3.14173
G01 X3.34291 Y-3.14504
G01 X3.33960 Y-3.15021
G01 X3.33760 Y-3.15440
G01 X3.33618 Y-3.15842
G01 X3.33474 Y-3.16477
G01 X3.33428 Y-3.17014
G01 X3.33436 Y-3.17440
G01 X3.33488 Y-3.17863
G01 X3.33621 Y-3.18426
G01 X3.33840 Y-3.18990
G01 X3.33917 Y-3.19147
G01 X3.34202 Y-3.19625
G01 X3.34592 Y-3.20109
G01 X3.34742 Y-3.20267
G01 X3.35094 Y-3.20577
G01 X3.35323 Y-3.20745
G01 X3.44674 Y-3.20748
G01 X3.44877 Y-3.20603
G01 X3.45168 Y-3.20354
G01 X3.45156 Y-3.20319
G01 X3.45168 Y-3.20354
G01 X4.04280 Y-3.20354
G01 X4.04775 Y-3.20316
G01 X4.05176 Y-3.20228
G01 X4.05574 Y-3.20084
G01 X4.05941 Y-3.19894
G01 X4.06270 Y-3.19669
G01 X4.06563 Y-3.19409
G01 X4.26565 Y-2.99407
G01 X4.26546 Y-2.99233
G01 X4.26565 Y-2.99407
G01 X4.26999 Y-2.99714
G01 X4.27590 Y-3.00042
G01 X4.28184 Y-3.00284
G01 X4.28801 Y-3.00456
G01 X4.28990 Y-3.00495
G01 X4.29541 Y-3.00569
G01 X4.30259 Y-3.00582
G01 X4.30897 Y-3.00516
G01 X4.31520 Y-3.00378
G01 X4.32118 Y-3.00171
G01 X4.32656 Y-2.99915
G01 X4.32831 Y-2.99816
G01 X4.33360 Y-2.99465
G01 X4.33815 Y-2.99083
G01 X4.34251 Y-2.98627
G01 X4.34613 Y-2.98155
G01 X4.34911 Y-2.97667
G01 X4.35175 Y-2.97110
G01 X4.35364 Y-2.96570
G01 X4.35495 Y-2.96017
G01 X4.35570 Y-2.95450
G01 X4.35586 Y-2.94834
G01 X4.35545 Y-2.94308
G01 X4.35419 Y-2.93646
G01 X4.35365 Y-2.93443
G01 X4.35169 Y-2.92876
G01 X4.34848 Y-2.92222
G01 X4.34471 Y-2.91647
G01 X4.34053 Y-2.91152
G01 X4.33480 Y-2.90627
G01 X4.33228 Y-2.90449
G01 X4.33171 Y-2.90475
G01 X4.33228 Y-2.90449
G01 X4.33228 Y-2.88228
G01 X4.33044 Y-2.88044
G01 X4.33228 Y-2.88228
G01 X4.42458 Y-2.88228
G01 X4.42467 Y-2.88200
G01 X4.42458 Y-2.88228
G01 X4.42617 Y-2.88360
G01 X4.43142 Y-2.88698
G01 X4.43591 Y-2.88910
G01 X4.44058 Y-2.89066
G01 X4.44230 Y-2.89107
G01 X4.44675 Y-2.89185
G01 X4.45299 Y-2.89209
G01 X4.45843 Y-2.89155
G01 X4.46161 Y-2.89091
G01 X4.46554 Y-2.88974
G01 X4.47021 Y-2.88778
G01 X4.47424 Y-2.88551
G01 X4.47794 Y-2.88286
G01 X4.48100 Y-2.88015
G01 X4.48408 Y-2.87680
G01 X4.48682 Y-2.87308
G01 X4.48913 Y-2.86908
G01 X4.49115 Y-2.86443
G01 X4.49238 Y-2.86045
G01 X4.49334 Y-2.85547
G01 X4.49369 Y-2.85087
G01 X4.49349 Y-2.84593
G01 X4.49299 Y-2.84230
G01 X4.49178 Y-2.83746
G01 X4.48971 Y-2.83210
G01 X4.48658 Y-2.82657
G01 X4.48248 Y-2.82458
G01 X4.47608 Y-2.82198
G01 X4.46826 Y-2.81962
G01 X4.46276 Y-2.81849
G01 X4.45887 Y-2.81796
G01 X4.45349 Y-2.81760
G01 X4.44955 Y-2.81759
G01 X4.44535 Y-2.81785
G01 X4.44033 Y-2.81850
G01 X4.43592 Y-2.81936
G01 X4.43179 Y-2.82044
G01 X4.43111 Y-2.82066
G01 X4.42917 Y-2.82205
G01 X4.42697 Y-2.82401
G01 X4.42709 Y-2.82437
G01 X4.42697 Y-2.82401
G01 X4.29924 Y-2.82402
G01 X4.29534 Y-2.82443
G01 X4.29146 Y-2.82546
G01 X4.28784 Y-2.82703
G01 X4.28513 Y-2.82869
G01 X4.28107 Y-2.83219
G01 X4.27761 Y-2.83680
G01 X4.27541 Y-2.84159
G01 X4.27465 Y-2.84429
G01 X4.27418 Y-2.84709
G01 X4.27402 Y-2.90329
G01 X4.27449 Y-2.90349
G01 X4.27402 Y-2.90329
G01 X4.03204 Y-3.14527
G01 X4.03224 Y-3.14575
G01 X4.03204 Y-3.14527
G01 X3.44905 Y-3.14527
G01 X3.44888 Y-3.14570
G01 X3.44905 Y-3.14527
G01 X3.44780 Y-3.14397
G01 X3.44502 Y-3.14155
G01 X3.44202 Y-3.13942
G01 X3.43926 Y-3.13782
G01 X3.43499 Y-3.13590
G01 X3.43178 Y-3.13485
G01 X3.42815 Y-3.13403
G01 X3.42187 Y-3.13347
G01 X3.37686 Y-3.13349
G01 X3.37288 Y-3.13386
G01 X3.36904 Y-3.13464
G01 X3.36419 Y-3.13622
G01 X3.36043 Y-3.13799
G01 X3.35707 Y-3.14004
G01 X3.35307 Y-3.14316
G01 X3.35030 Y-3.14593
G01 X3.34784 Y-3.14897
G01 X3.34512 Y-3.15325
G01 X3.34344 Y-3.15678
G01 X3.34214 Y-3.16046
G01 X3.34101 Y-3.16541
G01 X3.34060 Y-3.16930
G01 X3.34061 Y-3.17321
G01 X3.34129 Y-3.17863
G01 X3.34222 Y-3.18235
G01 X3.34425 Y-3.18756
G01 X3.34719 Y-3.19264
G01 X3.35131 Y-3.19767
G01 X3.35573 Y-3.20154
G01 X3.36125 Y-3.20496
G01 X3.36591 Y-3.20695
G01 X3.36766 Y-3.20745
G01 X3.37034 Y-3.20746
G01 X4.00166 Y-3.24823
G01 X3.46513 Y-3.20984
G01 X4.04280 Y-3.20984
G01 X4.04910 Y-3.20933
G01 X4.05315 Y-3.20843
G01 X4.05518 Y-3.20778
G01 X4.05908 Y-3.20624
G01 X4.06300 Y-3.20413
G01 X4.06656 Y-3.20166
G01 X4.06982 Y-3.19880
G01 X4.26634 Y-3.00229
G01 X4.26612 Y-3.00075
G01 X4.26634 Y-3.00229
G01 X4.27321 Y-3.00611
G01 X4.28023 Y-3.00896
G01 X4.28676 Y-3.01075
G01 X4.29336 Y-3.01181
G01 X4.29602 Y-3.01203
G01 X4.30241 Y-3.01214
G01 X4.30917 Y-3.01150
G01 X4.31581 Y-3.01011
G01 X4.31838 Y-3.00938
G01 X4.32395 Y-3.00739
G01 X4.33037 Y-3.00426
G01 X4.33608 Y-3.00063
G01 X4.33791 Y-2.99926
G01 X4.34244 Y-2.99545
G01 X4.34715 Y-2.99054
G01 X4.35133 Y-2.98510
G01 X4.35465 Y-2.97966
G01 X4.35758 Y-2.97349
G01 X4.35957 Y-2.96783
G01 X4.36115 Y-2.96132
G01 X4.36198 Y-2.95499
G01 X4.36216 Y-2.94816
G01 X4.36173 Y-2.94258
G01 X4.36037 Y-2.93522
G01 X4.35975 Y-2.93281
G01 X4.35752 Y-2.92638
G01 X4.35419 Y-2.91950
G01 X4.35002 Y-2.91305
G01 X4.34535 Y-2.90746
G01 X4.33908 Y-2.90163
G01 X4.33858 Y-2.90124
G01 X4.33806 Y-2.90146
G01 X4.33858 Y-2.90124
G01 X4.33858 Y-2.88858
G01 X4.33674 Y-2.88674
G01 X4.33858 Y-2.88858
G01 X4.42232 Y-2.88858
G01 X4.42239 Y-2.88832
G01 X4.42232 Y-2.88858
G01 X4.42248 Y-2.88871
G01 X4.42707 Y-2.89176
G01 X4.43299 Y-2.89472
G01 X4.43929 Y-2.89684
G01 X4.44467 Y-2.89792
G01 X4.44693 Y-2.89818
G01 X4.45205 Y-2.89842
G01 X4.45756 Y-2.89804
G01 X4.46275 Y-2.89712
G01 X4.46772 Y-2.89565
G01 X4.47300 Y-2.89343
G01 X4.47727 Y-2.89104
G01 X4.48156 Y-2.88802
G01 X4.48456 Y-2.88544
G01 X4.48867 Y-2.88112
G01 X4.49137 Y-2.87756
G01 X4.49415 Y-2.87303
G01 X4.49528 Y-2.87080
G01 X4.49579 Y-2.86872
G01 X4.49670 Y-2.86331
G01 X4.49729 Y-2.85800
G01 X4.49759 Y-2.85274
G01 X4.49759 Y-2.84752
G01 X4.49736 Y-2.84287
G01 X4.49684 Y-2.83778
G01 X4.49590 Y-2.83199
G01 X4.48940 Y-2.82807
G01 X4.48637 Y-2.82646
G01 X4.47997 Y-2.82349
G01 X4.47397 Y-2.82126
G01 X4.46826 Y-2.81962
G01 X4.46276 Y-2.81849
G01 X4.45738 Y-2.81782
G01 X4.45226 Y-2.81757
G01 X4.44535 Y-2.81785
G01 X4.44033 Y-2.81850
G01 X4.43320 Y-2.82004
G01 X4.42630 Y-2.82227
G01 X4.42517 Y-2.82248
G01 X4.29963 Y-2.82248
G01 X4.29585 Y-2.82264
G01 X4.29131 Y-2.82314
G01 X4.28668 Y-2.82402
G01 X4.28249 Y-2.82512
G01 X4.27958 Y-2.82608
G01 X4.27648 Y-2.82725
G01 X4.27234 Y-2.82907
G01 X4.26924 Y-2.83061
G01 X4.26559 Y-2.83269
G01 X4.26383 Y-2.83659
G01 X4.26264 Y-2.84036
G01 X4.26182 Y-2.84458
G01 X4.26154 Y-2.84708
G01 X4.26143 Y-2.89807
G01 X4.26190 Y-2.89827
G01 X4.26143 Y-2.89807
G01 X4.02682 Y-3.13267
G01 X4.02702 Y-3.13315
G01 X4.02682 Y-3.13267
G01 X3.45403 Y-3.13267
G01 X3.45395 Y-3.13294
G01 X3.45403 Y-3.13267
G01 X3.45310 Y-3.13188
G01 X3.44942 Y-3.12921
G01 X3.44387 Y-3.12604
G01 X3.44006 Y-3.12435
G01 X3.43610 Y-3.12299
G01 X3.42989 Y-3.12154
G01 X3.42228 Y-3.12087
G01 X3.37606 Y-3.12092
G01 X3.37080 Y-3.12143
G01 X3.36519 Y-3.12261
G01 X3.35988 Y-3.12437
G01 X3.35508 Y-3.12657
G01 X3.35041 Y-3.12934
G01 X3.34829 Y-3.13084
G01 X3.34451 Y-3.13391
G01 X3.34021 Y-3.13833
G01 X3.33721 Y-3.14215
G01 X3.33417 Y-3.14701
G01 X3.33170 Y-3.15219
G01 X3.32984 Y-3.15761
G01 X3.32860 Y-3.16320
G01 X3.32803 Y-3.16847
G01 X3.32804 Y-3.17420
G01 X3.32858 Y-3.17904
G01 X3.32978 Y-3.18464
G01 X3.33073 Y-3.18765
G01 X3.33320 Y-3.19364
G01 X3.33634 Y-3.19906
G01 X3.33796 Y-3.20136
G01 X3.34167 Y-3.20580
G01 X3.34591 Y-3.20747
G01 X3.45109 Y-3.20752
G01 X3.45425 Y-3.20740
G01 X3.45561 Y-3.20776
G01 X3.46088 Y-3.20984
G01 X4.04280 Y-3.20984
G01 X4.04869 Y-3.20939
G01 X4.05437 Y-3.20806
G01 X4.05869 Y-3.20642
G01 X4.06267 Y-3.20433
G01 X4.06626 Y-3.20190
G01 X4.06982 Y-3.19880
G01 X4.26634 Y-3.00229
G01 X4.27250 Y-3.00576
G01 X4.27466 Y-3.00676
G01 X4.28061 Y-3.00908
G01 X4.28751 Y-3.01092
G01 X4.29450 Y-3.01194
G01 X4.30082 Y-3.01215
G01 X4.30321 Y-3.01209
G01 X4.30956 Y-3.01144
G01 X4.31618 Y-3.01003
G01 X4.31838 Y-3.00938
G01 X4.32395 Y-3.00739
G01 X4.33037 Y-3.00426
G01 X4.33608 Y-3.00063
G01 X4.33791 Y-2.99926
G01 X4.34244 Y-2.99545
G01 X4.34715 Y-2.99054
G01 X4.35133 Y-2.98510
G01 X4.35465 Y-2.97966
G01 X4.35758 Y-2.97349
G01 X4.35957 Y-2.96783
G01 X4.36115 Y-2.96132
G01 X4.36195 Y-2.95540
G01 X4.36217 Y-2.94857
G01 X4.36177 Y-2.94296
G01 X4.36139 Y-2.94032
G01 X4.35975 Y-2.93281
G01 X4.35752 Y-2.92638
G01 X4.35439 Y-2.91986
G01 X4.35002 Y-2.91305
G01 X4.34590 Y-2.90808
G01 X4.34419 Y-2.90627
G01 X4.33858 Y-2.90124
G01 X4.33858 Y-2.88858
G01 X4.42232 Y-2.88858
G01 X4.42675 Y-2.89155
G01 X4.42873 Y-2.89268
G01 X4.43335 Y-2.89486
G01 X4.43820 Y-2.89651
G01 X4.44077 Y-2.89719
G01 X4.44542 Y-2.89803
G01 X4.45281 Y-2.89841
G01 X4.45798 Y-2.89799
G01 X4.46237 Y-2.89720
G01 X4.46693 Y-2.89591
G01 X4.46928 Y-2.89505
G01 X4.47337 Y-2.89324
G01 X4.47762 Y-2.89082
G01 X4.48187 Y-2.88778
G01 X4.48513 Y-2.88491
G01 X4.48894 Y-2.88080
G01 X4.49209 Y-2.87653
G01 X4.49493 Y-2.87156
G01 X4.49541 Y-2.87052
G01 X4.49579 Y-2.86872
G01 X4.49702 Y-2.86072
G01 X4.49747 Y-2.85546
G01 X4.49763 Y-2.85024
G01 X4.49751 Y-2.84519
G01 X4.49715 Y-2.84050
G01 X4.49590 Y-2.83199
G01 X4.48940 Y-2.82807
G01 X4.48637 Y-2.82646
G01 X4.47997 Y-2.82349
G01 X4.47608 Y-2.82198
G01 X4.47008 Y-2.82009
G01 X4.46276 Y-2.81849
G01 X4.45887 Y-2.81796
G01 X4.45349 Y-2.81760
G01 X4.44955 Y-2.81759
G01 X4.44422 Y-2.81796
G01 X4.44033 Y-2.81850
G01 X4.43592 Y-2.81936
G01 X4.43179 Y-2.82044
G01 X4.42630 Y-2.82227
G01 X4.42517 Y-2.82248
G01 X4.29963 Y-2.82248
G01 X4.29585 Y-2.82264
G01 X4.29131 Y-2.82314
G01 X4.28668 Y-2.82402
G01 X4.28249 Y-2.82512
G01 X4.27958 Y-2.82608
G01 X4.27648 Y-2.82725
G01 X4.27234 Y-2.82907
G01 X4.26924 Y-2.83061
G01 X4.26559 Y-2.83269
G01 X4.26383 Y-2.83659
G01 X4.26264 Y-2.84036
G01 X4.26182 Y-2.84458
G01 X4.26154 Y-2.84708
G01 X4.26143 Y-2.89807
G01 X4.02682 Y-3.13267
G01 X3.45403 Y-3.13267
G01 X3.44911 Y-3.12901
G01 X3.44387 Y-3.12604
G01 X3.44006 Y-3.12435
G01 X3.43610 Y-3.12299
G01 X3.42989 Y-3.12154
G01 X3.42228 Y-3.12087
G01 X3.37606 Y-3.12092
G01 X3.37080 Y-3.12143
G01 X3.36603 Y-3.12240
G01 X3.36097 Y-3.12398
G01 X3.35847 Y-3.12498
G01 X3.35406 Y-3.12710
G01 X3.34932 Y-3.13006
G01 X3.34483 Y-3.13362
G01 X3.34137 Y-3.13704
G01 X3.33799 Y-3.14112
G01 X3.33649 Y-3.14324
G01 X3.33396 Y-3.14740
G01 X3.33170 Y-3.15219
G01 X3.32984 Y-3.15761
G01 X3.32876 Y-3.16235
G01 X3.32810 Y-3.16761
G01 X3.32798 Y-3.17020
G01 X3.34688 Y-3.17001
G01 X3.34722 Y-3.16645
G01 X3.34797 Y-3.16294
G01 X3.34928 Y-3.15914
G01 X3.35085 Y-3.15591
G01 X3.35277 Y-3.15289
G01 X3.35472 Y-3.15044
G01 X3.35724 Y-3.14789
G01 X3.36040 Y-3.14539
G01 X3.36346 Y-3.14351
G01 X3.36650 Y-3.14208
G01 X3.37034 Y-3.14080
G01 X3.37385 Y-3.14009
G01 X3.37734 Y-3.13978
G01 X3.42188 Y-3.13976
G01 X3.42721 Y-3.14026
G01 X3.43004 Y-3.14091
G01 X3.43298 Y-3.14187
G01 X3.43579 Y-3.14312
G01 X3.43846 Y-3.14463
G01 X3.44097 Y-3.14639
G01 X3.44330 Y-3.14839
G01 X3.44620 Y-3.15157
G01 X4.03465 Y-3.15157
G01 X4.28031 Y-2.90591
G01 X4.28041 Y-2.84805
G01 X4.28079 Y-2.84573
G01 X4.28134 Y-2.84373
G01 X4.28312 Y-2.83987
G01 X4.28555 Y-2.83663
G01 X4.28853 Y-2.83400
G01 X4.29102 Y-2.83249
G01 X4.29382 Y-2.83132
G01 X4.29677 Y-2.83059
G01 X4.29959 Y-2.83032
G01 X4.42962 Y-2.83031
G01 X4.43067 Y-2.82916
G01 X4.43305 Y-2.82701
G01 X4.43607 Y-2.82488
G01 X4.43894 Y-2.82332
G01 X4.44235 Y-2.82196
G01 X4.44596 Y-2.82102
G01 X4.44959 Y-2.82054
G01 X4.45292 Y-2.82051
G01 X4.45690 Y-2.82097
G01 X4.46137 Y-2.82215
G01 X4.46613 Y-2.82432
G01 X4.46996 Y-2.82691
G01 X4.47334 Y-2.83006
G01 X4.47618 Y-2.83370
G01 X4.47842 Y-2.83774
G01 X4.47999 Y-2.84199
G01 X4.48062 Y-2.84472
G01 X4.48099 Y-2.84750
G01 X4.48107 Y-2.85114
G01 X4.48077 Y-2.85436
G01 X4.48023 Y-2.85711
G01 X4.47912 Y-2.86061
G01 X4.47799 Y-2.86318
G01 X4.47639 Y-2.86599
G01 X4.47422 Y-2.86895
G01 X4.47203 Y-2.87129
G01 X4.46992 Y-2.87313
G01 X4.46764 Y-2.87477
G01 X4.46483 Y-2.87638
G01 X4.46146 Y-2.87782
G01 X4.45877 Y-2.87863
G01 X4.45602 Y-2.87919
G01 X4.45240 Y-2.87951
G01 X4.44827 Y-2.87933
G01 X4.44460 Y-2.87868
G01 X4.44067 Y-2.87743
G01 X4.43684 Y-2.87558
G01 X4.43342 Y-2.87328
G01 X4.43100 Y-2.87117
G01 X4.42964 Y-2.86969
G01 X4.31969 Y-2.86969
G01 X4.31969 Y-2.91154
G01 X4.32262 Y-2.91310
G01 X4.32728 Y-2.91640
G01 X4.33146 Y-2.92028
G01 X4.33486 Y-2.92434
G01 X4.33792 Y-2.92914
G01 X4.34018 Y-2.93391
G01 X4.34184 Y-2.93894
G01 X4.34293 Y-2.94449
G01 X4.34327 Y-2.94890
G01 X4.34316 Y-2.95330
G01 X4.34260 Y-2.95768
G01 X4.34160 Y-2.96196
G01 X4.34017 Y-2.96612
G01 X4.33812 Y-2.97049
G01 X4.33584 Y-2.97427
G01 X4.33319 Y-2.97778
G01 X4.32959 Y-2.98158
G01 X4.32587 Y-2.98470
G01 X4.32147 Y-2.98758
G01 X4.31673 Y-2.98991
G01 X4.31215 Y-2.99154
G01 X4.30703 Y-2.99270
G01 X4.30130 Y-2.99326
G01 X4.29605 Y-2.99310
G01 X4.29124 Y-2.99238
G01 X4.28615 Y-2.99100
G01 X4.28126 Y-2.98901
G01 X4.27667 Y-2.98645
G01 X4.27273 Y-2.98361
G01 X4.26884 Y-2.98004
G01 X4.26562 Y-2.97629
G01 X4.05672 Y-3.18518
G01 X4.05462 Y-3.18700
G01 X4.05287 Y-3.18817
G01 X4.05057 Y-3.18934
G01 X4.04864 Y-3.19005
G01 X4.04613 Y-3.19066
G01 X4.04280 Y-3.19095
G01 X3.44619 Y-3.19095
G01 X3.44321 Y-3.19422
G01 X3.44087 Y-3.19621
G01 X3.43835 Y-3.19796
G01 X3.43567 Y-3.19946
G01 X3.43286 Y-3.20069
G01 X3.43031 Y-3.20154
G01 X3.42732 Y-3.20224
G01 X3.42199 Y-3.20275
G01 X3.37812 Y-3.20275
G01 X3.37324 Y-3.20234
G01 X3.36829 Y-3.20111
G01 X3.36381 Y-3.19920
G01 X3.35925 Y-3.19629
G01 X3.35582 Y-3.19327
G01 X3.35240 Y-3.18909
G01 X3.34996 Y-3.18487
G01 X3.34831 Y-3.18071
G01 X3.34733 Y-3.17670
G01 X3.34694 Y-3.17359
G01 X3.34688 Y-3.17001
G01 X4.03195 Y-3.25039
G01 X4.11804 Y-3.25655
G01 X4.11358 Y-3.26021
G01 X4.10975 Y-3.26424
G01 X4.12250 Y-3.25360
G01 X4.11804 Y-3.25655
G01 X4.11264 Y-3.25617
G01 X4.14821 Y-3.25871
G01 X4.12887 Y-3.25733
G01 X4.12559 Y-3.25909
G01 X4.12218 Y-3.26134
G01 X4.11770 Y-3.26498
G01 X4.11417 Y-3.26861
G01 X4.11128 Y-3.27224
G01 X4.10857 Y-3.27649
G01 X4.10648 Y-3.28064
G01 X4.10478 Y-3.28502
G01 X4.10388 Y-3.28822
G01 X4.10335 Y-3.29391
G01 X4.10316 Y-3.30050
G01 X4.10867 Y-3.30003
G01 X4.10890 Y-3.29557
G01 X4.10961 Y-3.29121
G01 X4.11065 Y-3.28734
G01 X4.11222 Y-3.28323
G01 X4.11402 Y-3.27966
G01 X4.11639 Y-3.27595
G01 X4.11913 Y-3.27251
G01 X4.12194 Y-3.26965
G01 X4.12566 Y-3.26659
G01 X4.12899 Y-3.26441
G01 X4.13253 Y-3.26254
G01 X4.13661 Y-3.26089
G01 X4.14045 Y-3.25978
G01 X4.14478 Y-3.25900
G01 X4.14877 Y-3.25868
G01 X4.15321 Y-3.25879
G01 X4.15801 Y-3.25945
G01 X4.16232 Y-3.26055
G01 X4.16687 Y-3.26227
G01 X4.17078 Y-3.26427
G01 X4.17484 Y-3.26696
G01 X4.17855 Y-3.27011
G01 X4.18186 Y-3.27367
G01 X4.18474 Y-3.27761
G01 X4.18712 Y-3.28183
G01 X4.18886 Y-3.28592
G01 X4.19024 Y-3.29058
G01 X4.19107 Y-3.29537
G01 X4.19133 Y-3.29977
G01 X4.19107 Y-3.30463
G01 X4.19032 Y-3.30905
G01 X4.45381 Y-3.30905
G01 X4.45679 Y-3.30578
G01 X4.45913 Y-3.30379
G01 X4.46165 Y-3.30204
G01 X4.46433 Y-3.30054
G01 X4.46714 Y-3.29931
G01 X4.47006 Y-3.29836
G01 X4.47304 Y-3.29770
G01 X4.47549 Y-3.29738
G01 X4.47824 Y-3.29724
G01 X4.52300 Y-3.29728
G01 X4.52643 Y-3.29761
G01 X4.52944 Y-3.29823
G01 X4.53202 Y-3.29900
G01 X4.53544 Y-3.30043
G01 X4.53815 Y-3.30191
G01 X4.54055 Y-3.30355
G01 X4.54293 Y-3.30552
G01 X4.54509 Y-3.30770
G01 X4.54702 Y-3.31008
G01 X4.54884 Y-3.31285
G01 X4.55043 Y-3.31594
G01 X4.55154 Y-3.31880
G01 X4.55236 Y-3.32176
G01 X4.55290 Y-3.32478
G01 X4.55313 Y-3.32786
G01 X4.55308 Y-3.33077
G01 X4.55277 Y-3.33360
G01 X4.55221 Y-3.33636
G01 X4.55141 Y-3.33906
G01 X4.55027 Y-3.34189
G01 X4.54897 Y-3.34441
G01 X4.54746 Y-3.34678
G01 X4.54559 Y-3.34920
G01 X4.54366 Y-3.35127
G01 X4.54156 Y-3.35314
G01 X4.53930 Y-3.35482
G01 X4.53690 Y-3.35629
G01 X4.53382 Y-3.35779
G01 X4.53116 Y-3.35876
G01 X4.52821 Y-3.35954
G01 X4.52544 Y-3.36000
G01 X4.52266 Y-3.36022
G01 X4.47812 Y-3.36023
G01 X4.47331 Y-3.35982
G01 X4.46995 Y-3.35909
G01 X4.46702 Y-3.35812
G01 X4.46421 Y-3.35688
G01 X4.46154 Y-3.35537
G01 X4.45903 Y-3.35361
G01 X4.45670 Y-3.35161
G01 X4.45380 Y-3.34843
G01 X4.17754 Y-3.34838
G01 X4.17502 Y-3.34807
G01 X4.17218 Y-3.34730
G01 X4.17030 Y-3.34652
G01 X4.16854 Y-3.34557
G01 X4.16540 Y-3.34322
G01 X4.16174 Y-3.33957
G01 X4.15931 Y-3.34027
G01 X4.15498 Y-3.34103
G01 X4.15012 Y-3.34133
G01 X4.14526 Y-3.34106
G01 X4.14047 Y-3.34022
G01 X4.13582 Y-3.33882
G01 X4.13098 Y-3.33669
G01 X4.12678 Y-3.33419
G01 X4.12261 Y-3.33095
G01 X4.11915 Y-3.32750
G01 X4.11613 Y-3.32369
G01 X4.11339 Y-3.31917
G01 X4.11138 Y-3.31472
G01 X4.10992 Y-3.31008
G01 X4.10901 Y-3.30530
G01 X4.10867 Y-3.30003
G01 X4.10895 Y-3.29515
G01 X4.10961 Y-3.29121
G01 X4.11065 Y-3.28734
G01 X4.11222 Y-3.28323
G01 X4.11402 Y-3.27966
G01 X4.11662 Y-3.27562
G01 X4.11913 Y-3.27251
G01 X4.12194 Y-3.26965
G01 X4.12566 Y-3.26659
G01 X4.12899 Y-3.26441
G01 X4.13253 Y-3.26254
G01 X4.13623 Y-3.26103
G01 X4.14006 Y-3.25988
G01 X4.14439 Y-3.25905
G01 X4.14821 Y-3.25871
G01 X4.39183 Y-3.27614
G01 X4.39449 Y-3.27877
G01 X4.39608 Y-3.28012
G01 X4.39975 Y-3.28267
G01 X4.40215 Y-3.28400
G01 X4.40871 Y-3.28527
G01 X4.41469 Y-3.28591
G01 X4.41942 Y-3.28609
G01 X4.44536 Y-3.28609
G01 X4.44898 Y-3.28623
G01 X4.54683 Y-3.28620
G01 X4.55172 Y-3.28225
G01 X4.55540 Y-3.27834
G01 X4.55686 Y-3.27650
G01 X4.55998 Y-3.27180
G01 X4.56247 Y-3.26668
G01 X4.56419 Y-3.26163
G01 X4.56518 Y-3.25705
G01 X4.56570 Y-3.25198
G01 X4.56566 Y-3.24732
G01 X4.56504 Y-3.24220
G01 X4.56389 Y-3.23739
G01 X4.56267 Y-3.23381
G01 X4.56112 Y-3.23036
G01 X4.55843 Y-3.22568
G01 X4.55563 Y-3.22189
G01 X4.55214 Y-3.21814
G01 X4.54879 Y-3.21525
G01 X4.54674 Y-3.21379
G01 X4.45117 Y-3.21377
G01 X4.45005 Y-3.21358
G01 X4.44991 Y-3.21397
G01 X4.45005 Y-3.21358
G01 X4.44908 Y-3.21300
G01 X4.44836 Y-3.21212
G01 X4.44825 Y-3.21220
G01 X4.44836 Y-3.21212
G01 X4.44651 Y-3.20844
G01 X4.44450 Y-3.20397
G01 X4.44187 Y-3.19701
G01 X4.44120 Y-3.19482
G01 X4.43963 Y-3.18886
G01 X4.43877 Y-3.18449
G01 X4.43782 Y-3.17649
G01 X4.43763 Y-3.17061
G01 X4.43780 Y-3.16635
G01 X4.43841 Y-3.16032
G01 X4.43949 Y-3.15427
G01 X4.44111 Y-3.14792
G01 X4.44185 Y-3.14564
G01 X4.44427 Y-3.13911
G01 X4.44624 Y-3.13465
G01 X4.44972 Y-3.12787
G01 X4.45362 Y-3.12139
G01 X4.45362 Y-3.05717
G01 X4.45314 Y-3.05698
G01 X4.45362 Y-3.05717
G01 X4.57960 Y-2.93094
G01 X4.58247 Y-2.92693
G01 X4.58390 Y-2.92444
G01 X4.58562 Y-2.92074
G01 X4.58723 Y-2.91573
G01 X4.58806 Y-2.91099
G01 X4.58828 Y-2.90823
G01 X4.58831 Y-2.89455
G01 X4.58762 Y-2.89420
G01 X4.58831 Y-2.89455
G01 X4.58949 Y-2.89371
G01 X4.58965 Y-2.89175
G01 X4.58949 Y-2.89371
G01 X4.63828 Y-2.94249
G01 X4.63881 Y-2.94228
G01 X4.63828 Y-2.94249
G01 X4.63815 Y-2.94359
G01 X4.63785 Y-2.94792
G01 X4.63787 Y-2.95263
G01 X4.63847 Y-2.95903
G01 X4.63966 Y-2.96502
G01 X4.64143 Y-2.97086
G01 X4.64304 Y-2.97494
G01 X4.64495 Y-2.97889
G01 X4.64789 Y-2.98394
G01 X4.65143 Y-2.98883
G01 X4.65489 Y-2.99280
G01 X4.65895 Y-2.99671
G01 X4.66298 Y-2.99996
G01 X4.66759 Y-3.00307
G01 X4.67474 Y-3.00681
G01 X4.68042 Y-3.00902
G01 X4.68589 Y-3.01054
G01 X4.68769 Y-3.01095
G01 X4.69418 Y-3.00874
G01 X4.69857 Y-3.00702
G01 X4.70665 Y-3.00335
G01 X4.71175 Y-3.00063
G01 X4.71690 Y-2.99753
G01 X4.72170 Y-2.99427
G01 X4.72517 Y-2.99165
G01 X4.73042 Y-2.98720
G01 X4.73441 Y-2.98337
G01 X4.73737 Y-2.98023
G01 X4.74071 Y-2.97634
G01 X4.74348 Y-2.97274
G01 X4.74463 Y-2.96729
G01 X4.74540 Y-2.96235
G01 X4.74578 Y-2.95887
G01 X4.74617 Y-2.95227
G01 X4.74618 Y-2.94817
G01 X4.74578 Y-2.94113
G01 X4.74467 Y-2.93292
G01 X4.74346 Y-2.92719
G01 X4.74082 Y-2.92379
G01 X4.73640 Y-2.91870
G01 X4.73054 Y-2.91290
G01 X4.72668 Y-2.90957
G01 X4.72138 Y-2.90550
G01 X4.71397 Y-2.90065
G01 X4.70900 Y-2.89786
G01 X4.70204 Y-2.89447
G01 X4.69170 Y-2.89035
G01 X4.69055 Y-2.88963
G01 X4.69049 Y-2.88972
G01 X4.69055 Y-2.88963
G01 X4.63166 Y-2.83078
G01 X4.62249 Y-2.82699
G01 X4.61917 Y-2.82579
G01 X4.61448 Y-2.82442
G01 X4.61033 Y-2.82354
G01 X4.60400 Y-2.82275
G01 X4.58906 Y-2.82253
G01 X4.58902 Y-2.82269
G01 X4.58906 Y-2.82253
G01 X4.58167 Y-2.81869
G01 X4.57531 Y-2.81756
G01 X4.52461 Y-2.81756
G01 X4.52017 Y-2.81811
G01 X4.51581 Y-2.81975
G01 X4.51129 Y-2.82257
G01 X4.50656 Y-2.82671
G01 X4.50214 Y-2.83114
G01 X4.50343 Y-2.83990
G01 X4.50380 Y-2.84492
G01 X4.50393 Y-2.85029
G01 X4.50376 Y-2.85577
G01 X4.50328 Y-2.86146
G01 X4.50248 Y-2.86712
G01 X4.50157 Y-2.87181
G01 X4.50159 Y-2.87640
G01 X4.50186 Y-2.87920
G01 X4.50237 Y-2.88157
G01 X4.50327 Y-2.88423
G01 X4.50431 Y-2.88642
G01 X4.50579 Y-2.88882
G01 X4.50757 Y-2.89101
G01 X4.50950 Y-2.89288
G01 X4.51165 Y-2.89300
G01 X4.50950 Y-2.89288
G01 X4.38790 Y-3.01448
G01 X4.38505 Y-3.01775
G01 X4.38199 Y-3.02233
G01 X4.37940 Y-3.02783
G01 X4.37799 Y-3.03257
G01 X4.37739 Y-3.03562
G01 X4.37695 Y-3.04130
G01 X4.37698 Y-3.24674
G01 X4.37754 Y-3.25210
G01 X4.37812 Y-3.25482
G01 X4.37957 Y-3.25942
G01 X4.38199 Y-3.26449
G01 X4.38568 Y-3.26985
G01 X4.39183 Y-3.27614
G01 X4.40245 Y-3.27690
G01 X4.40475 Y-3.27827
G01 X4.40880 Y-3.28009
G01 X4.41268 Y-3.28121
G01 X4.41480 Y-3.28163
G01 X4.41938 Y-3.28203
G01 X4.44805 Y-3.28203
G01 X4.44817 Y-3.28168
G01 X4.44805 Y-3.28203
G01 X4.44842 Y-3.28238
G01 X4.45131 Y-3.28483
G01 X4.45325 Y-3.28621
G01 X4.53239 Y-3.28619
G01 X4.53286 Y-3.28607
G01 X4.53868 Y-3.28374
G01 X4.54311 Y-3.28111
G01 X4.54768 Y-3.27741
G01 X4.55100 Y-3.27381
G01 X4.55433 Y-3.26899
G01 X4.55663 Y-3.26430
G01 X4.55806 Y-3.26014
G01 X4.55893 Y-3.25622
G01 X4.55941 Y-3.25153
G01 X4.55939 Y-3.24790
G01 X4.55906 Y-3.24465
G01 X4.55813 Y-3.24011
G01 X4.55674 Y-3.23596
G01 X4.55487 Y-3.23198
G01 X4.55306 Y-3.22898
G01 X4.55087 Y-3.22604
G01 X4.54792 Y-3.22283
G01 X4.54438 Y-3.21980
G01 X4.54115 Y-3.21762
G01 X4.53760 Y-3.21573
G01 X4.53390 Y-3.21424
G01 X4.53234 Y-3.21378
G01 X4.46061 Y-3.21374
G01 X4.45331 Y-3.21375
G01 X4.45117 Y-3.21528
G01 X4.44829 Y-3.21774
G01 X4.44805 Y-3.21796
G01 X4.44817 Y-3.21832
G01 X4.44805 Y-3.21796
G01 X4.44732 Y-3.21796
G01 X4.44548 Y-3.21981
G01 X4.44732 Y-3.21796
G01 X4.44732 Y-3.21008
G01 X4.44345 Y-3.20137
G01 X4.44189 Y-3.19700
G01 X4.44006 Y-3.19068
G01 X4.43847 Y-3.18256
G01 X4.43783 Y-3.17661
G01 X4.43765 Y-3.17061
G01 X4.43780 Y-3.16635
G01 X4.43840 Y-3.16044
G01 X4.43995 Y-3.15230
G01 X4.44117 Y-3.14781
G01 X4.44327 Y-3.14161
G01 X4.44431 Y-3.13901
G01 X4.44732 Y-3.13242
G01 X4.44732 Y-3.05457
G01 X4.44684 Y-3.05437
G01 X4.44732 Y-3.05457
G01 X4.57490 Y-2.92675
G01 X4.57748 Y-2.92304
G01 X4.57932 Y-2.91948
G01 X4.58080 Y-2.91532
G01 X4.58133 Y-2.91322
G01 X4.58198 Y-2.90826
G01 X4.58201 Y-2.89083
G01 X4.58120 Y-2.89037
G01 X4.58201 Y-2.89083
G01 X4.58338 Y-2.89017
G01 X4.58576 Y-2.88863
G01 X4.58757 Y-2.88699
G01 X4.58939 Y-2.88470
G01 X4.58932 Y-2.88185
G01 X4.58939 Y-2.88470
G01 X4.64500 Y-2.94030
G01 X4.64564 Y-2.94007
G01 X4.64500 Y-2.94030
G01 X4.64443 Y-2.94408
G01 X4.64413 Y-2.94897
G01 X4.64419 Y-2.95288
G01 X4.64459 Y-2.95718
G01 X4.64564 Y-2.96295
G01 X4.64705 Y-2.96786
G01 X4.64918 Y-2.97323
G01 X4.65080 Y-2.97651
G01 X4.65288 Y-2.98003
G01 X4.65600 Y-2.98445
G01 X4.66012 Y-2.98914
G01 X4.66325 Y-2.99211
G01 X4.66715 Y-2.99521
G01 X4.67115 Y-2.99786
G01 X4.67610 Y-3.00051
G01 X4.68293 Y-3.00321
G01 X4.68862 Y-3.00471
G01 X4.69553 Y-3.00569
G01 X4.70127 Y-3.00587
G01 X4.70493 Y-3.00420
G01 X4.71029 Y-3.00145
G01 X4.71558 Y-2.99837
G01 X4.72055 Y-2.99508
G01 X4.72517 Y-2.99165
G01 X4.72949 Y-2.98803
G01 X4.73355 Y-2.98424
G01 X4.73737 Y-2.98023
G01 X4.74148 Y-2.97538
G01 X4.74348 Y-2.97274
G01 X4.74375 Y-2.97161
G01 X4.74530 Y-2.96312
G01 X4.74607 Y-2.95501
G01 X4.74618 Y-2.94817
G01 X4.74578 Y-2.94113
G01 X4.74481 Y-2.93374
G01 X4.74346 Y-2.92719
G01 X4.74082 Y-2.92379
G01 X4.73640 Y-2.91870
G01 X4.73054 Y-2.91290
G01 X4.72668 Y-2.90957
G01 X4.72138 Y-2.90550
G01 X4.71397 Y-2.90065
G01 X4.70693 Y-2.89679
G01 X4.70128 Y-2.89414
G01 X4.69371 Y-2.89447
G01 X4.69034 Y-2.89504
G01 X4.69012 Y-2.89565
G01 X4.69034 Y-2.89504
G01 X4.62199 Y-2.82681
G01 X4.61917 Y-2.82579
G01 X4.61448 Y-2.82442
G01 X4.60801 Y-2.82317
G01 X4.60160 Y-2.82265
G01 X4.58906 Y-2.82253
G01 X4.58167 Y-2.81869
G01 X4.57531 Y-2.81756
G01 X4.52461 Y-2.81756
G01 X4.52017 Y-2.81811
G01 X4.51581 Y-2.81975
G01 X4.51129 Y-2.82257
G01 X4.50787 Y-2.82556
G01 X4.50787 Y-2.87559
G01 X4.50805 Y-2.87802
G01 X4.50859 Y-2.88039
G01 X4.50946 Y-2.88266
G01 X4.51066 Y-2.88478
G01 X4.51189 Y-2.88639
G01 X4.51392 Y-2.88837
G01 X4.51626 Y-2.88998
G01 X4.51796 Y-2.89082
G01 X4.51876 Y-2.89038
G01 X4.51796 Y-2.89082
G01 X4.51796 Y-2.89332
G01 X4.51844 Y-2.89352
G01 X4.51796 Y-2.89332
G01 X4.39263 Y-3.01865
G01 X4.38997 Y-3.02169
G01 X4.38732 Y-3.02572
G01 X4.38524 Y-3.03020
G01 X4.38407 Y-3.03420
G01 X4.38362 Y-3.03656
G01 X4.38326 Y-3.04093
G01 X4.38327 Y-3.24631
G01 X4.38373 Y-3.25088
G01 X4.38427 Y-3.25342
G01 X4.38554 Y-3.25738
G01 X4.38799 Y-3.26225
G01 X4.39012 Y-3.26532
G01 X4.39155 Y-3.26694
G01 X4.39896 Y-3.27433
G01 X4.40245 Y-3.27690
G01 X4.45644 Y-3.28076
G01 X4.45892 Y-3.28242
G01 X4.46212 Y-3.28413
G01 X4.46581 Y-3.28566
G01 X4.46764 Y-3.28621
G01 X4.55670 Y-3.28621
G01 X4.56110 Y-3.28136
G01 X4.56434 Y-3.27673
G01 X4.56563 Y-3.27459
G01 X4.56813 Y-3.26945
G01 X4.56989 Y-3.26450
G01 X4.57056 Y-3.26208
G01 X4.57146 Y-3.25766
G01 X4.57200 Y-3.25196
G01 X4.57198 Y-3.24744
G01 X4.57142 Y-3.24210
G01 X4.57023 Y-3.23659
G01 X4.56867 Y-3.23187
G01 X4.56629 Y-3.22662
G01 X4.56363 Y-3.22212
G01 X4.56042 Y-3.21780
G01 X4.55820 Y-3.21536
G01 X4.55414 Y-3.21378
G01 X4.46774 Y-3.21376
G01 X4.46593 Y-3.21430
G01 X4.46233 Y-3.21577
G01 X4.45848 Y-3.21785
G01 X4.45549 Y-3.21990
G01 X4.45244 Y-3.22248
G01 X4.45072 Y-3.22426
G01 X4.45085 Y-3.22464
G01 X4.45072 Y-3.22426
G01 X4.44102 Y-3.22426
G01 X4.43918 Y-3.22611
G01 X4.44102 Y-3.22426
G01 X4.44102 Y-3.19418
G01 X4.43963 Y-3.18886
G01 X4.43848 Y-3.18268
G01 X4.43783 Y-3.17661
G01 X4.43765 Y-3.17061
G01 X4.43791 Y-3.16481
G01 X4.43867 Y-3.15864
G01 X4.43952 Y-3.15415
G01 X4.44102 Y-3.14833
G01 X4.44102 Y-3.05196
G01 X4.44054 Y-3.05176
G01 X4.44102 Y-3.05196
G01 X4.57003 Y-2.92274
G01 X4.57225 Y-2.91952
G01 X4.57380 Y-2.91638
G01 X4.57503 Y-2.91260
G01 X4.57562 Y-2.90901
G01 X4.57572 Y-2.88582
G01 X4.57432 Y-2.88468
G01 X4.57572 Y-2.88582
G01 X4.57759 Y-2.88563
G01 X4.58024 Y-2.88471
G01 X4.58161 Y-2.88387
G01 X4.58283 Y-2.88283
G01 X4.58387 Y-2.88161
G01 X4.58471 Y-2.88024
G01 X4.58563 Y-2.87759
G01 X4.58582 Y-2.87574
G01 X4.58467 Y-2.87432
G01 X4.58582 Y-2.87574
G01 X4.58934 Y-2.87574
G01 X4.58954 Y-2.87526
G01 X4.58934 Y-2.87574
G01 X4.65186 Y-2.93826
G01 X4.65263 Y-2.93802
G01 X4.65186 Y-2.93826
G01 X4.65144 Y-2.93999
G01 X4.65079 Y-2.94400
G01 X4.65044 Y-2.94849
G01 X4.65048 Y-2.95255
G01 X4.65092 Y-2.95703
G01 X4.65176 Y-2.96149
G01 X4.65301 Y-2.96585
G01 X4.65465 Y-2.97005
G01 X4.65644 Y-2.97369
G01 X4.65852 Y-2.97718
G01 X4.66116 Y-2.98083
G01 X4.66414 Y-2.98425
G01 X4.66740 Y-2.98737
G01 X4.67059 Y-2.98992
G01 X4.67453 Y-2.99254
G01 X4.67906 Y-2.99495
G01 X4.68421 Y-2.99700
G01 X4.68955 Y-2.99847
G01 X4.69503 Y-2.99933
G01 X4.70057 Y-2.99958
G01 X4.70608 Y-2.99921
G01 X4.71109 Y-2.99833
G01 X4.71638 Y-2.99680
G01 X4.72055 Y-2.99508
G01 X4.72619 Y-2.99083
G01 X4.73042 Y-2.98720
G01 X4.73355 Y-2.98424
G01 X4.73817 Y-2.97934
G01 X4.74348 Y-2.97274
G01 X4.74463 Y-2.96729
G01 X4.74530 Y-2.96312
G01 X4.74607 Y-2.95501
G01 X4.74618 Y-2.94817
G01 X4.74578 Y-2.94113
G01 X4.74481 Y-2.93374
G01 X4.74346 Y-2.92719
G01 X4.73906 Y-2.92168
G01 X4.73555 Y-2.91781
G01 X4.73054 Y-2.91290
G01 X4.72548 Y-2.90860
G01 X4.72047 Y-2.90486
G01 X4.71488 Y-2.90270
G01 X4.70807 Y-2.90108
G01 X4.70150 Y-2.90044
G01 X4.69498 Y-2.90067
G01 X4.68822 Y-2.90184
G01 X4.68798 Y-2.90259
G01 X4.68822 Y-2.90184
G01 X4.61699 Y-2.83071
G01 X4.61586 Y-2.82973
G01 X4.61293 Y-2.82775
G01 X4.60979 Y-2.82620
G01 X4.60607 Y-2.82499
G01 X4.60293 Y-2.82443
G01 X4.58582 Y-2.82430
G01 X4.58468 Y-2.82569
G01 X4.58582 Y-2.82430
G01 X4.58563 Y-2.82241
G01 X4.58505 Y-2.82050
G01 X4.58167 Y-2.81869
G01 X4.57531 Y-2.81756
G01 X4.52461 Y-2.81756
G01 X4.52017 Y-2.81811
G01 X4.51581 Y-2.81975
G01 X4.51508 Y-2.82021
G01 X4.51437 Y-2.82241
G01 X4.51417 Y-2.82441
G01 X4.51424 Y-2.87679
G01 X4.51480 Y-2.87913
G01 X4.51568 Y-2.88094
G01 X4.51689 Y-2.88254
G01 X4.51872 Y-2.88410
G01 X4.52087 Y-2.88519
G01 X4.52361 Y-2.88579
G01 X4.52426 Y-2.88582
G01 X4.52568 Y-2.88467
G01 X4.52426 Y-2.88582
G01 X4.52426 Y-2.89593
G01 X4.52474 Y-2.89613
G01 X4.52426 Y-2.89593
G01 X4.39672 Y-3.02349
G01 X4.39512 Y-3.02532
G01 X4.39347 Y-3.02766
G01 X4.39128 Y-3.03206
G01 X4.39006 Y-3.03625
G01 X4.38959 Y-3.04037
G01 X4.38957 Y-3.24631
G01 X4.38998 Y-3.25006
G01 X4.39031 Y-3.25163
G01 X4.39126 Y-3.25472
G01 X4.39300 Y-3.25836
G01 X4.39574 Y-3.26222
G01 X4.40393 Y-3.27026
G01 X4.40698 Y-3.27232
G01 X4.41033 Y-3.27391
G01 X4.41154 Y-3.27438
G01 X4.41510 Y-3.27530
G01 X4.41938 Y-3.27573
G01 X4.45071 Y-3.27574
G01 X4.45085 Y-3.27537
G01 X4.45071 Y-3.27574
G01 X4.45229 Y-3.27738
G01 X4.45644 Y-3.28076
G01 X4.53239 Y-3.28619
G01 X4.18781 Y-3.26154
G01 X4.17469 Y-3.25928
G01 X4.16938 Y-3.25648
G01 X4.16415 Y-3.25451
G01 X4.15878 Y-3.25318
G01 X4.15327 Y-3.25248
G01 X4.14785 Y-3.25242
G01 X4.14357 Y-3.25280
G01 X4.13930 Y-3.25359
G01 X4.13417 Y-3.25507
G01 X4.12887 Y-3.25733
G01 X4.11804 Y-3.25655
G01 X4.18781 Y-3.26154
G01 X4.18341 Y-3.25768
G01 X4.18186 Y-3.25650
G01 X4.17722 Y-3.25343
G01 X4.17191 Y-3.25072
G01 X4.16493 Y-3.24819
G01 X4.15996 Y-3.24699
G01 X4.15486 Y-3.24630
G01 X4.14775 Y-3.24611
G01 X4.14290 Y-3.24653
G01 X4.13773 Y-3.24748
G01 X4.13147 Y-3.24937
G01 X4.12699 Y-3.25122
G01 X4.12250 Y-3.25360
G01 X4.37695 Y-3.04130
G01 X4.39585 Y-3.04130
G01 X4.39617 Y-3.03779
G01 X4.39698 Y-3.03477
G01 X4.39867 Y-3.03121
G01 X4.40003 Y-3.02928
G01 X4.40154 Y-3.02756
G01 X4.53056 Y-2.89854
G01 X4.53056 Y-2.87953
G01 X4.52441 Y-2.87953
G01 X4.52319 Y-2.87933
G01 X4.52244 Y-2.87900
G01 X4.52148 Y-2.87822
G01 X4.52081 Y-2.87719
G01 X4.52049 Y-2.87600
G01 X4.52047 Y-2.82441
G01 X4.52081 Y-2.82281
G01 X4.52177 Y-2.82148
G01 X4.52281 Y-2.82081
G01 X4.52441 Y-2.82047
G01 X4.57600 Y-2.82049
G01 X4.57719 Y-2.82081
G01 X4.57822 Y-2.82148
G01 X4.57900 Y-2.82244
G01 X4.57933 Y-2.82319
G01 X4.57953 Y-2.82441
G01 X4.57953 Y-2.83058
G01 X4.60229 Y-2.83070
G01 X4.60483 Y-2.83118
G01 X4.60767 Y-2.83215
G01 X4.60998 Y-2.83333
G01 X4.61227 Y-2.83493
G01 X4.68647 Y-2.90898
G01 X4.69001 Y-2.90789
G01 X4.69567 Y-2.90694
G01 X4.70180 Y-2.90676
G01 X4.70750 Y-2.90738
G01 X4.71294 Y-2.90870
G01 X4.71829 Y-2.91077
G01 X4.72330 Y-2.91353
G01 X4.72790 Y-2.91691
G01 X4.73230 Y-2.92119
G01 X4.73479 Y-2.92424
G01 X4.73796 Y-2.92919
G01 X4.73963 Y-2.93260
G01 X4.74078 Y-2.93548
G01 X4.74174 Y-2.93854
G01 X4.74251 Y-2.94185
G01 X4.74303 Y-2.94533
G01 X4.74327 Y-2.94882
G01 X4.74324 Y-2.95190
G01 X4.74299 Y-2.95499
G01 X4.74251 Y-2.95815
G01 X4.74174 Y-2.96146
G01 X4.74065 Y-2.96487
G01 X4.73893 Y-2.96892
G01 X4.73657 Y-2.97315
G01 X4.73376 Y-2.97708
G01 X4.73053 Y-2.98068
G01 X4.72691 Y-2.98390
G01 X4.72296 Y-2.98669
G01 X4.71872 Y-2.98902
G01 X4.71425 Y-2.99087
G01 X4.71003 Y-2.99210
G01 X4.70568 Y-2.99291
G01 X4.70088 Y-2.99327
G01 X4.69604 Y-2.99310
G01 X4.69126 Y-2.99239
G01 X4.68658 Y-2.99115
G01 X4.68168 Y-2.98921
G01 X4.67779 Y-2.98715
G01 X4.67446 Y-2.98494
G01 X4.67169 Y-2.98274
G01 X4.66883 Y-2.98003
G01 X4.66621 Y-2.97705
G01 X4.66388 Y-2.97385
G01 X4.66190 Y-2.97054
G01 X4.66035 Y-2.96736
G01 X4.65893 Y-2.96366
G01 X4.65785 Y-2.95985
G01 X4.65713 Y-2.95596
G01 X4.65676 Y-2.95204
G01 X4.65674 Y-2.94852
G01 X4.65701 Y-2.94499
G01 X4.65764 Y-2.94108
G01 X4.65893 Y-2.93642
G01 X4.59195 Y-2.86944
G01 X4.57953 Y-2.86944
G01 X4.57951 Y-2.87600
G01 X4.57900 Y-2.87756
G01 X4.57822 Y-2.87852
G01 X4.57719 Y-2.87919
G01 X4.57600 Y-2.87950
G01 X4.56943 Y-2.87953
G01 X4.56934 Y-2.90842
G01 X4.56882 Y-2.91142
G01 X4.56785 Y-2.91426
G01 X4.56667 Y-2.91657
G01 X4.56507 Y-2.91886
G01 X4.43472 Y-3.04935
G01 X4.43472 Y-3.23056
G01 X4.45361 Y-3.23056
G01 X4.45680 Y-3.22703
G01 X4.45934 Y-3.22489
G01 X4.46210 Y-3.22302
G01 X4.46505 Y-3.22145
G01 X4.46836 Y-3.22013
G01 X4.47157 Y-3.21925
G01 X4.47487 Y-3.21870
G01 X4.47823 Y-3.21850
G01 X4.52188 Y-3.21850
G01 X4.52502 Y-3.21869
G01 X4.52831 Y-3.21922
G01 X4.53191 Y-3.22023
G01 X4.53461 Y-3.22130
G01 X4.53757 Y-3.22283
G01 X4.54054 Y-3.22480
G01 X4.54328 Y-3.22711
G01 X4.54558 Y-3.22953
G01 X4.54785 Y-3.23252
G01 X4.54966 Y-3.23560
G01 X4.55102 Y-3.23863
G01 X4.55194 Y-3.24139
G01 X4.55272 Y-3.24487
G01 X4.55311 Y-3.24861
G01 X4.55309 Y-3.25193
G01 X4.55277 Y-3.25483
G01 X4.55209 Y-3.25808
G01 X4.55098 Y-3.26147
G01 X4.54873 Y-3.26607
G01 X4.54611 Y-3.26983
G01 X4.54314 Y-3.27302
G01 X4.53955 Y-3.27591
G01 X4.53558 Y-3.27824
G01 X4.53132 Y-3.27997
G01 X4.52686 Y-3.28105
G01 X4.52266 Y-3.28148
G01 X4.47835 Y-3.28150
G01 X4.47431 Y-3.28123
G01 X4.47104 Y-3.28063
G01 X4.46785 Y-3.27969
G01 X4.46478 Y-3.27842
G01 X4.46221 Y-3.27704
G01 X4.45945 Y-3.27519
G01 X4.45690 Y-3.27306
G01 X4.45458 Y-3.27067
G01 X4.45361 Y-3.26944
G01 X4.41938 Y-3.26943
G01 X4.41624 Y-3.26911
G01 X4.41327 Y-3.26831
G01 X4.41009 Y-3.26684
G01 X4.40751 Y-3.26507
G01 X4.40046 Y-3.25804
G01 X4.39862 Y-3.25548
G01 X4.39704 Y-3.25217
G01 X4.39622 Y-3.24923
G01 X4.39587 Y-3.24631
G01 X4.39585 Y-3.04130
G01 X4.10618 Y-3.25570
G01 X4.11264 Y-3.25617
G01 X4.10795 Y-3.26950
G01 X4.10554 Y-3.27851
G01 X4.10450 Y-3.28387
G01 X4.10381 Y-3.28873
G01 X4.10335 Y-3.29391
G01 X4.10316 Y-3.29910
G01 X4.10330 Y-3.30520
G01 X4.10389 Y-3.31194
G01 X4.10546 Y-3.31691
G01 X4.10740 Y-3.32130
G01 X4.11092 Y-3.32723
G01 X4.11413 Y-3.33135
G01 X4.11777 Y-3.33507
G01 X4.12249 Y-3.33887
G01 X4.12766 Y-3.34207
G01 X4.13279 Y-3.34440
G01 X4.13935 Y-3.34642
G01 X4.14408 Y-3.34727
G01 X4.14927 Y-3.34762
G01 X4.15567 Y-3.34730
G01 X4.15984 Y-3.34657
G01 X4.16001 Y-3.34604
G01 X4.15984 Y-3.34657
G01 X4.16130 Y-3.34801
G01 X4.16522 Y-3.35093
G01 X4.16766 Y-3.35224
G01 X4.16985 Y-3.35315
G01 X4.17415 Y-3.35430
G01 X4.17754 Y-3.35468
G01 X4.45095 Y-3.35473
G01 X4.45111 Y-3.35429
G01 X4.45095 Y-3.35473
G01 X4.45220 Y-3.35603
G01 X4.45498 Y-3.35845
G01 X4.45798 Y-3.36058
G01 X4.46074 Y-3.36218
G01 X4.46501 Y-3.36409
G01 X4.46822 Y-3.36515
G01 X4.47184 Y-3.36597
G01 X4.47813 Y-3.36653
G01 X4.52349 Y-3.36648
G01 X4.52640 Y-3.36624
G01 X4.52928 Y-3.36575
G01 X4.53281 Y-3.36484
G01 X4.53647 Y-3.36351
G01 X4.53933 Y-3.36214
G01 X4.54266 Y-3.36016
G01 X4.54538 Y-3.35816
G01 X4.54791 Y-3.35592
G01 X4.55025 Y-3.35345
G01 X4.55250 Y-3.35059
G01 X4.55433 Y-3.34773
G01 X4.55591 Y-3.34471
G01 X4.55743 Y-3.34089
G01 X4.55838 Y-3.33764
G01 X4.55896 Y-3.33478
G01 X4.55931 Y-3.33188
G01 X4.55943 Y-3.32763
G01 X4.55917 Y-3.32426
G01 X4.55833 Y-3.31965
G01 X4.55744 Y-3.31659
G01 X4.55609 Y-3.31317
G01 X4.55448 Y-3.31002
G01 X4.55255 Y-3.30698
G01 X4.54993 Y-3.30366
G01 X4.54735 Y-3.30103
G01 X4.54492 Y-3.29897
G01 X4.54140 Y-3.29651
G01 X4.53782 Y-3.29458
G01 X4.53449 Y-3.29319
G01 X4.53224 Y-3.29249
G01 X4.46763 Y-3.29251
G01 X4.46468 Y-3.29350
G01 X4.46177 Y-3.29478
G01 X4.45811 Y-3.29682
G01 X4.45510 Y-3.29894
G01 X4.45268 Y-3.30101
G01 X4.45095 Y-3.30275
G01 X4.45108 Y-3.30313
G01 X4.45095 Y-3.30275
G01 X4.19750 Y-3.30275
G01 X4.19576 Y-3.30454
G01 X4.19750 Y-3.30275
G01 X4.19764 Y-3.29978
G01 X4.19733 Y-3.29460
G01 X4.19616 Y-3.28830
G01 X4.19477 Y-3.28373
G01 X4.19291 Y-3.27934
G01 X4.19002 Y-3.27416
G01 X4.18675 Y-3.26969
G01 X4.18295 Y-3.26560
G01 X4.17900 Y-3.26221
G01 X4.17690 Y-3.26076
G01 X4.53209 Y-3.29249
G01 X4.45327 Y-3.29251
G01 X4.45122 Y-3.29397
G01 X4.44832 Y-3.29645
G01 X4.44844 Y-3.29681
G01 X4.44832 Y-3.29645
G01 X4.20376 Y-3.29645
G01 X4.20241 Y-3.29800
G01 X4.20376 Y-3.29645
G01 X4.20359 Y-3.29386
G01 X4.20240 Y-3.28723
G01 X4.20042 Y-3.28086
G01 X4.19822 Y-3.27584
G01 X4.19510 Y-3.27041
G01 X4.19162 Y-3.26570
G01 X4.18781 Y-3.26154
G01 X4.10396 Y-3.31246
G01 X4.10490 Y-3.31836
G01 X4.10626 Y-3.32449
G01 X4.10820 Y-3.33125
G01 X4.10985 Y-3.33601
G01 X4.11419 Y-3.34034
G01 X4.11925 Y-3.34431
G01 X4.12439 Y-3.34746
G01 X4.12584 Y-3.34820
G01 X4.13136 Y-3.35061
G01 X4.13746 Y-3.35246
G01 X4.14371 Y-3.35357
G01 X4.14966 Y-3.35393
G01 X4.15600 Y-3.35360
G01 X4.15783 Y-3.35332
G01 X4.15792 Y-3.35298
G01 X4.15783 Y-3.35332
G01 X4.16079 Y-3.35556
G01 X4.16466 Y-3.35778
G01 X4.16857 Y-3.35938
G01 X4.17286 Y-3.36048
G01 X4.17754 Y-3.36098
G01 X4.44832 Y-3.36102
G01 X4.44845 Y-3.36068
G01 X4.44832 Y-3.36102
G01 X4.45140 Y-3.36364
G01 X4.45459 Y-3.36589
G01 X4.45832 Y-3.36802
G01 X4.46224 Y-3.36979
G01 X4.46554 Y-3.37092
G01 X4.47131 Y-3.37227
G01 X4.47813 Y-3.37283
G01 X4.52267 Y-3.37282
G01 X4.52646 Y-3.37256
G01 X4.53073 Y-3.37189
G01 X4.53483 Y-3.37082
G01 X4.53895 Y-3.36930
G01 X4.54242 Y-3.36763
G01 X4.54616 Y-3.36540
G01 X4.54934 Y-3.36306
G01 X4.55229 Y-3.36045
G01 X4.55502 Y-3.35757
G01 X4.55763 Y-3.35423
G01 X4.55978 Y-3.35089
G01 X4.56162 Y-3.34737
G01 X4.56322 Y-3.34345
G01 X4.56438 Y-3.33965
G01 X4.56524 Y-3.33542
G01 X4.56566 Y-3.33140
G01 X4.56567 Y-3.32641
G01 X4.56536 Y-3.32293
G01 X4.56459 Y-3.31870
G01 X4.56341 Y-3.31457
G01 X4.56183 Y-3.31057
G01 X4.55985 Y-3.30672
G01 X4.55736 Y-3.30286
G01 X4.55464 Y-3.29948
G01 X4.55222 Y-3.29697
G01 X4.54865 Y-3.29388
G01 X4.54670 Y-3.29250
G01 X4.53224 Y-3.29249
G01 X4.11053 Y-3.33780
G01 X4.11226 Y-3.34260
G01 X4.11383 Y-3.34808
G01 X4.11667 Y-3.35016
G01 X4.12254 Y-3.35361
G01 X4.12876 Y-3.35637
G01 X4.13486 Y-3.35829
G01 X4.14143 Y-3.35960
G01 X4.14410 Y-3.35992
G01 X4.15041 Y-3.36023
G01 X4.15610 Y-3.35992
G01 X4.15615 Y-3.35973
G01 X4.15610 Y-3.35992
G01 X4.15666 Y-3.36034
G01 X4.15924 Y-3.36202
G01 X4.16250 Y-3.36374
G01 X4.16558 Y-3.36501
G01 X4.17077 Y-3.36649
G01 X4.17635 Y-3.36725
G01 X4.44597 Y-3.36732
G01 X4.44605 Y-3.36706
G01 X4.44597 Y-3.36732
G01 X4.44690 Y-3.36812
G01 X4.45058 Y-3.37078
G01 X4.45646 Y-3.37412
G01 X4.45994 Y-3.37565
G01 X4.46427 Y-3.37713
G01 X4.46898 Y-3.37825
G01 X4.47124 Y-3.37860
G01 X4.47772 Y-3.37913
G01 X4.52341 Y-3.37910
G01 X4.52778 Y-3.37876
G01 X4.53142 Y-3.37817
G01 X4.53692 Y-3.37676
G01 X4.54240 Y-3.37465
G01 X4.54596 Y-3.37289
G01 X4.54949 Y-3.37075
G01 X4.55376 Y-3.36757
G01 X4.55652 Y-3.36512
G01 X4.55908 Y-3.36247
G01 X4.56264 Y-3.35806
G01 X4.56572 Y-3.35316
G01 X4.56742 Y-3.34983
G01 X4.56893 Y-3.34616
G01 X4.57062 Y-3.34061
G01 X4.57143 Y-3.33659
G01 X4.57186 Y-3.33297
G01 X4.57202 Y-3.32705
G01 X4.57150 Y-3.32137
G01 X4.57072 Y-3.31727
G01 X4.56971 Y-3.31361
G01 X4.56757 Y-3.30797
G01 X4.56491 Y-3.30290
G01 X4.56176 Y-3.29825
G01 X4.55936 Y-3.29530
G01 X4.55666 Y-3.29251
G01 X4.44894 Y-3.29253
G01 X4.44487 Y-3.29239
G01 X4.41929 Y-3.29239
G01 X4.41430 Y-3.29219
G01 X4.41026 Y-3.29183
G01 X4.40345 Y-3.29074
G01 X4.40066 Y-3.29013
G01 X4.20934 Y-3.29003
G01 X4.20833 Y-3.29134
G01 X4.20934 Y-3.29003
G01 X4.20862 Y-3.28613
G01 X4.20668 Y-3.27962
G01 X4.20431 Y-3.27396
G01 X4.20000 Y-3.26643
G01 X4.19661 Y-3.26184
G01 X4.19252 Y-3.25735
G01 X4.18631 Y-3.25194
G01 X4.18140 Y-3.24861
G01 X4.17940 Y-3.24746
G01 X4.17410 Y-3.24479
G01 X4.16850 Y-3.24269
G01 X4.16257 Y-3.24111
G01 X4.16047 Y-3.24069
G01 X4.15398 Y-3.23990
G01 X4.14681 Y-3.23986
G01 X4.14206 Y-3.24029
G01 X4.13698 Y-3.24121
G01 X4.13090 Y-3.24288
G01 X4.12362 Y-3.24586
G01 X4.11895 Y-3.24838
G01 X4.11457 Y-3.25129
G01 X4.11386 Y-3.25182
G01 X4.11264 Y-3.25617
G01 X3.85585 Y-3.23780
G01 X3.81220 Y-3.23780
G01 X3.80819 Y-3.23822
G01 X3.80546 Y-3.23894
G01 X3.80321 Y-3.23981
G01 X3.80072 Y-3.24113
G01 X3.79872 Y-3.24249
G01 X3.79688 Y-3.24406
G01 X3.79496 Y-3.24612
G01 X3.79353 Y-3.24807
G01 X3.79223 Y-3.25030
G01 X3.79424 Y-3.25698
G01 X3.79777 Y-3.26671
G01 X3.79983 Y-3.27386
G01 X3.80111 Y-3.27952
G01 X3.80199 Y-3.28461
G01 X3.80267 Y-3.29017
G01 X3.80305 Y-3.29564
G01 X3.80316 Y-3.30046
G01 X3.80289 Y-3.30720
G01 X3.80190 Y-3.31609
G01 X3.80059 Y-3.32294
G01 X3.79960 Y-3.32705
G01 X3.79802 Y-3.33249
G01 X3.79606 Y-3.33818
G01 X3.79608 Y-3.34018
G01 X3.79631 Y-3.34220
G01 X3.79732 Y-3.34570
G01 X3.79821 Y-3.34752
G01 X3.79932 Y-3.34922
G01 X3.80062 Y-3.35077
G01 X3.80211 Y-3.35215
G01 X3.80516 Y-3.35414
G01 X3.80703 Y-3.35494
G01 X3.80898 Y-3.35550
G01 X3.81260 Y-3.35590
G01 X3.81796 Y-3.35590
G01 X3.81974 Y-3.35418
G01 X3.81796 Y-3.35590
G01 X3.81796 Y-3.35710
G01 X3.81844 Y-3.35730
G01 X3.81796 Y-3.35710
G01 X3.81217 Y-3.36289
G01 X3.80386 Y-3.36046
G01 X3.77738 Y-3.36046
G01 X3.77154 Y-3.36161
G01 X3.76362 Y-3.36274
G01 X3.75606 Y-3.36335
G01 X3.74963 Y-3.36350
G01 X3.74414 Y-3.36334
G01 X3.73555 Y-3.36265
G01 X3.72751 Y-3.36145
G01 X3.72261 Y-3.36046
G01 X3.71497 Y-3.36046
G01 X3.68291 Y-3.36611
G01 X3.67795 Y-3.36673
G01 X3.67256 Y-3.36702
G01 X3.45332 Y-3.36704
G01 X3.44554 Y-3.36959
G01 X3.43840 Y-3.37132
G01 X3.43256 Y-3.37224
G01 X3.42503 Y-3.37289
G01 X3.37600 Y-3.37292
G01 X3.36958 Y-3.37249
G01 X3.36436 Y-3.37180
G01 X3.36082 Y-3.37108
G01 X3.36073 Y-3.37129
G01 X3.36082 Y-3.37108
G01 X3.35600 Y-3.36775
G01 X3.35096 Y-3.36366
G01 X3.34696 Y-3.35987
G01 X3.34246 Y-3.35500
G01 X3.33773 Y-3.34891
G01 X3.33468 Y-3.34434
G01 X3.33114 Y-3.33811
G01 X3.32853 Y-3.33270
G01 X3.20018 Y-3.20435
G01 X3.19970 Y-3.20455
G01 X3.20018 Y-3.20435
G01 X3.20018 Y-2.98660
G01 X3.19875 Y-2.98211
G01 X3.19730 Y-2.97680
G01 X3.19540 Y-2.96747
G01 X3.19450 Y-2.96039
G01 X3.19414 Y-2.95539
G01 X3.19399 Y-2.94994
G01 X3.19413 Y-2.94487
G01 X3.19453 Y-2.93930
G01 X3.19582 Y-2.93006
G01 X3.19744 Y-2.92267
G01 X3.20018 Y-2.91335
G01 X3.20018 Y-2.82398
G01 X3.19970 Y-2.82378
G01 X3.20018 Y-2.82398
G01 X3.22398 Y-2.80018
G01 X3.22378 Y-2.79970
G01 X3.22398 Y-2.80018
G01 X3.57295 Y-2.80018
G01 X3.57735 Y-2.79988
G01 X3.58187 Y-2.79891
G01 X3.58541 Y-2.79766
G01 X3.58915 Y-2.79578
G01 X3.59228 Y-2.79370
G01 X3.59534 Y-2.79105
G01 X3.72837 Y-2.65803
G01 X3.72817 Y-2.65755
G01 X3.72837 Y-2.65803
G01 X3.72956 Y-2.65803
G01 X3.73141 Y-2.65619
G01 X3.72956 Y-2.65803
G01 X3.72956 Y-2.69490
G01 X3.72981 Y-2.69773
G01 X3.73028 Y-2.69970
G01 X3.73115 Y-2.70197
G01 X3.73213 Y-2.70375
G01 X3.73358 Y-2.70570
G01 X3.73530 Y-2.70742
G01 X3.73691 Y-2.70865
G01 X3.73867 Y-2.70967
G01 X3.74091 Y-2.71060
G01 X3.74367 Y-2.71126
G01 X3.74610 Y-2.71143
G01 X3.88390 Y-2.71143
G01 X3.88592 Y-2.71131
G01 X3.88792 Y-2.71094
G01 X3.88985 Y-2.71033
G01 X3.89169 Y-2.70948
G01 X3.89342 Y-2.70842
G01 X3.89500 Y-2.70715
G01 X3.89668 Y-2.70539
G01 X3.89787 Y-2.70375
G01 X3.89885 Y-2.70197
G01 X3.89960 Y-2.70009
G01 X3.90012 Y-2.69813
G01 X3.90039 Y-2.69612
G01 X3.90043 Y-2.58587
G01 X3.89996 Y-2.58567
G01 X3.90043 Y-2.58587
G01 X3.91456 Y-2.57174
G01 X3.91801 Y-2.56295
G01 X3.91456 Y-2.57174
G01 X3.91464 Y-2.57842
G01 X3.91497 Y-2.58042
G01 X3.91567 Y-2.58275
G01 X3.91671 Y-2.58495
G01 X3.91782 Y-2.58665
G01 X3.91941 Y-2.58849
G01 X3.92125 Y-2.59008
G01 X3.92295 Y-2.59119
G01 X3.92515 Y-2.59223
G01 X3.92748 Y-2.59293
G01 X3.92948 Y-2.59326
G01 X4.07052 Y-2.59326
G01 X4.07331 Y-2.59274
G01 X4.07597 Y-2.59175
G01 X4.07842 Y-2.59032
G01 X4.08059 Y-2.58849
G01 X4.08242 Y-2.58632
G01 X4.08367 Y-2.58423
G01 X4.08472 Y-2.58160
G01 X4.08531 Y-2.57882
G01 X4.08544 Y-2.57680
G01 X4.08544 Y-2.44015
G01 X4.08202 Y-2.43716
G01 X4.07750 Y-2.43434
G01 X4.07314 Y-2.43270
G01 X4.06870 Y-2.43215
G01 X3.93130 Y-2.43215
G01 X3.92686 Y-2.43270
G01 X3.92250 Y-2.43434
G01 X3.92177 Y-2.43480
G01 X3.92125 Y-2.43622
G01 X3.92093 Y-2.43780
G01 X3.92086 Y-2.48530
G01 X3.92155 Y-2.48565
G01 X3.92086 Y-2.48530
G01 X3.91920 Y-2.48626
G01 X3.91788 Y-2.48717
G01 X3.91519 Y-2.48942
G01 X3.85774 Y-2.54686
G01 X3.85794 Y-2.54734
G01 X3.85774 Y-2.54686
G01 X3.74610 Y-2.54686
G01 X3.74450 Y-2.54699
G01 X3.74294 Y-2.54736
G01 X3.74041 Y-2.54859
G01 X3.73858 Y-2.55015
G01 X3.73717 Y-2.55210
G01 X3.73625 Y-2.55432
G01 X3.73587 Y-2.55670
G01 X3.73586 Y-2.60028
G01 X3.73769 Y-2.60209
G01 X3.73586 Y-2.60028
G01 X3.71307 Y-2.60034
G01 X3.70909 Y-2.60097
G01 X3.70525 Y-2.60222
G01 X3.70171 Y-2.60402
G01 X3.69909 Y-2.60585
G01 X3.56229 Y-2.74241
G01 X3.56249 Y-2.74289
G01 X3.56229 Y-2.74241
G01 X3.21071 Y-2.74241
G01 X3.20729 Y-2.74264
G01 X3.20347 Y-2.74345
G01 X3.20018 Y-2.74466
G01 X3.19669 Y-2.74656
G01 X3.19376 Y-2.74879
G01 X3.14995 Y-2.79251
G01 X3.14769 Y-2.79510
G01 X3.14594 Y-2.79774
G01 X3.14400 Y-2.80188
G01 X3.14280 Y-2.80629
G01 X3.14241 Y-2.81071
G01 X3.14241 Y-3.21762
G01 X3.14270 Y-3.22141
G01 X3.14364 Y-3.22544
G01 X3.14448 Y-3.22772
G01 X3.14554 Y-3.22990
G01 X3.14760 Y-3.23311
G01 X3.14972 Y-3.23558
G01 X3.33113 Y-3.41700
G01 X3.33401 Y-3.41947
G01 X3.33749 Y-3.42164
G01 X3.34131 Y-3.42325
G01 X3.34570 Y-3.42427
G01 X3.34933 Y-3.42454
G01 X3.82431 Y-3.42439
G01 X3.82823 Y-3.42366
G01 X3.83204 Y-3.42231
G01 X3.83559 Y-3.42038
G01 X3.83852 Y-3.41816
G01 X3.86819 Y-3.38857
G01 X3.87122 Y-3.38491
G01 X3.87313 Y-3.38165
G01 X3.87440 Y-3.37853
G01 X3.87526 Y-3.37528
G01 X3.87568 Y-3.37199
G01 X3.87573 Y-3.34961
G01 X3.87396 Y-3.34783
G01 X3.87573 Y-3.34961
G01 X3.88820 Y-3.34957
G01 X3.88979 Y-3.34932
G01 X3.89169 Y-3.34867
G01 X3.89342 Y-3.34765
G01 X3.89492 Y-3.34632
G01 X3.89613 Y-3.34472
G01 X3.89686 Y-3.34329
G01 X3.89744 Y-3.34137
G01 X3.89763 Y-3.33977
G01 X3.89764 Y-3.32574
G01 X3.89581 Y-3.32390
G01 X3.89764 Y-3.32574
G01 X4.00236 Y-3.32574
G01 X4.00420 Y-3.32389
G01 X4.00236 Y-3.32574
G01 X4.00236 Y-3.33937
G01 X4.00275 Y-3.34215
G01 X4.00330 Y-3.34366
G01 X4.00409 Y-3.34506
G01 X4.00595 Y-3.34715
G01 X4.00831 Y-3.34867
G01 X4.00982 Y-3.34922
G01 X4.01140 Y-3.34953
G01 X4.08780 Y-3.34960
G01 X4.08979 Y-3.34932
G01 X4.09169 Y-3.34867
G01 X4.09342 Y-3.34765
G01 X4.09464 Y-3.34661
G01 X4.09591 Y-3.34506
G01 X4.09670 Y-3.34366
G01 X4.09725 Y-3.34215
G01 X4.09761 Y-3.34017
G01 X4.09764 Y-3.31265
G01 X4.10310 Y-3.25544
G01 X4.10235 Y-3.25356
G01 X4.10137 Y-3.25178
G01 X4.10044 Y-3.25046
G01 X4.09909 Y-3.24894
G01 X4.09625 Y-3.24666
G01 X4.09297 Y-3.24506
G01 X4.09023 Y-3.24434
G01 X4.08740 Y-3.24409
G01 X4.01260 Y-3.24409
G01 X4.01057 Y-3.24422
G01 X4.00858 Y-3.24459
G01 X4.00665 Y-3.24520
G01 X4.00480 Y-3.24605
G01 X4.00180 Y-3.24811
G01 X4.00035 Y-3.24953
G01 X3.99908 Y-3.25111
G01 X3.99732 Y-3.25430
G01 X3.99656 Y-3.25661
G01 X3.99614 Y-3.25901
G01 X3.99606 Y-3.26796
G01 X3.99781 Y-3.26976
G01 X3.99606 Y-3.26796
G01 X3.90394 Y-3.26796
G01 X3.90214 Y-3.26978
G01 X3.90394 Y-3.26796
G01 X3.90386 Y-3.25901
G01 X3.90344 Y-3.25661
G01 X3.90268 Y-3.25430
G01 X3.90092 Y-3.25111
G01 X3.89851 Y-3.24838
G01 X3.89692 Y-3.24711
G01 X3.89520 Y-3.24605
G01 X3.89181 Y-3.24469
G01 X3.88943 Y-3.24422
G01 X3.88740 Y-3.24409
G01 X3.81219 Y-3.24410
G01 X3.80898 Y-3.24450
G01 X3.80627 Y-3.24535
G01 X3.80375 Y-3.24666
G01 X3.80120 Y-3.24865
G01 X3.79908 Y-3.25111
G01 X3.79765 Y-3.25356
G01 X3.79666 Y-3.25622
G01 X3.79611 Y-3.25941
G01 X3.79606 Y-3.26182
G01 X3.79830 Y-3.26840
G01 X3.79981 Y-3.27379
G01 X3.80111 Y-3.27952
G01 X3.80199 Y-3.28461
G01 X3.80267 Y-3.29017
G01 X3.80299 Y-3.29434
G01 X3.80314 Y-3.29939
G01 X3.80305 Y-3.30434
G01 X3.80281 Y-3.30828
G01 X3.80206 Y-3.31499
G01 X3.80119 Y-3.32008
G01 X3.80031 Y-3.32419
G01 X3.79802 Y-3.33249
G01 X3.79391 Y-3.34402
G01 X3.79224 Y-3.34971
G01 X3.79446 Y-3.35324
G01 X3.79718 Y-3.35621
G01 X3.80038 Y-3.35866
G01 X3.80386 Y-3.36046
G01 X3.77738 Y-3.36046
G01 X3.77154 Y-3.36161
G01 X3.76362 Y-3.36274
G01 X3.75606 Y-3.36335
G01 X3.74963 Y-3.36350
G01 X3.74414 Y-3.36334
G01 X3.73555 Y-3.36265
G01 X3.72751 Y-3.36145
G01 X3.72261 Y-3.36046
G01 X3.71497 Y-3.36046
G01 X3.68291 Y-3.36611
G01 X3.67795 Y-3.36673
G01 X3.67256 Y-3.36702
G01 X3.45332 Y-3.36704
G01 X3.44554 Y-3.36959
G01 X3.43840 Y-3.37130
G01 X3.43256 Y-3.37224
G01 X3.42496 Y-3.37288
G01 X3.37600 Y-3.37291
G01 X3.36833 Y-3.37236
G01 X3.36429 Y-3.37178
G01 X3.36082 Y-3.37108
G01 X3.35710 Y-3.36857
G01 X3.35399 Y-3.36618
G01 X3.34796 Y-3.36086
G01 X3.34247 Y-3.35499
G01 X3.33773 Y-3.34891
G01 X3.33331 Y-3.34204
G01 X3.33111 Y-3.33804
G01 X3.32912 Y-3.33400
G01 X3.32628 Y-3.32728
G01 X3.32334 Y-3.31860
