( pcb2gcode 2.5.0 )
( Software-independent Gcode )

G94 ( Millimeters per minute feed rate. )
G21 ( Units == Millimeters. )

G90 ( Absolute coordinates. )
G00 S30000 ( RPM spindle speed. )
G64 P0.01016 ( set maximum deviation from commanded toolpath )
G01 F80.00000 ( Feedrate. )


G00 Z15.00000 (Retract to tool change height)
T1
M5      (Spindle stop.)
G04 P1.00000 (Wait for spindle to stop)
(MSG, Change tool bit to mill diameter 1.25000mm)
M6      (Tool change.)
M0      (Temporary machine stop.)
M3 ( Spindle on clockwise. )
G04 P1.00000 (Wait for spindle to get up to speed)
G04 P0 ( dwell for no time -- G64 should not smooth over this point )
G00 Z1.00000 ( retract )

G00 X39.20015 Y-13.33500 ( rapid move to begin. )
G01 F40.00000
( Mill infeed pass 1/2 )
G01 Z-0.03000
G04 P0 ( dwell for no time -- G64 should not smooth over this point )
G01 F80.00000
G01 X39.20015 Y-13.33500
G01 X36.84115 Y-13.33500
G01 X36.83000 Y-13.35768
G01 X36.84115 Y-13.33500
G01 X36.83000 Y-13.33500
G01 X36.83000 Y-20.32000
G01 X47.65787 Y-20.32000
G01 X47.82429 Y-20.26686
G01 X48.02134 Y-20.18642
G01 X48.14349 Y-20.12983
G01 X48.26000 Y-20.06539
G01 X48.14349 Y-20.12983
G01 X48.02134 Y-20.18642
G01 X47.82429 Y-20.26686
G01 X47.65787 Y-20.32000
G01 X48.26000 Y-20.32000
G01 X48.26000 Y-18.29049
G01 X48.29391 Y-18.20929
G01 X48.34407 Y-18.04393
G01 X48.37171 Y-17.89679
G01 X48.38443 Y-17.72569
G01 X48.37953 Y-17.57337
G01 X48.35667 Y-17.41246
G01 X48.31624 Y-17.25501
G01 X48.26000 Y-17.10583
G01 X48.26000 Y-16.38496
G01 X48.18723 Y-16.46616
G01 X48.10722 Y-16.52966
G01 X48.00859 Y-16.58343
G01 X47.90905 Y-16.61693
G01 X47.98903 Y-16.69473
G01 X48.09302 Y-16.81960
G01 X48.17892 Y-16.94805
G01 X48.26277 Y-17.11231
G01 X48.26000 Y-17.10583
G01 X48.26000 Y-16.38496
G01 X48.31118 Y-16.30462
G01 X48.34844 Y-16.22054
G01 X48.37298 Y-16.13192
G01 X48.38423 Y-16.04066
G01 X48.38423 Y-14.27932
G01 X48.37298 Y-14.18806
G01 X48.34494 Y-14.08984
G01 X48.30630 Y-14.00640
G01 X48.24954 Y-13.92146
G01 X48.17971 Y-13.84689
G01 X48.10722 Y-13.79032
G01 X48.01794 Y-13.74069
G01 X47.93160 Y-13.70901
G01 X47.85169 Y-13.69174
G01 X47.77021 Y-13.68506
G01 X46.05998 Y-13.68499
G01 X45.97842 Y-13.69035
G01 X45.90814 Y-13.70371
G01 X45.83029 Y-13.72873
G01 X45.75640 Y-13.76368
G01 X45.69595 Y-13.80195
G01 X45.64027 Y-13.84689
G01 X45.58340 Y-13.90564
G01 X45.53471 Y-13.97130
G01 X45.49864 Y-14.03525
G01 X40.66941 Y-14.03751
G01 X40.59489 Y-14.04201
G01 X40.49380 Y-14.05865
G01 X40.41765 Y-14.07678
G01 X40.30180 Y-14.11559
G01 X40.17261 Y-14.17777
G01 X40.11833 Y-14.20960
G01 X40.02771 Y-14.27345
G01 X39.98277 Y-14.31072
G01 X39.83756 Y-14.45151
G01 X39.76378 Y-14.53457
G01 X39.72766 Y-14.58277
G01 X39.65552 Y-14.69560
G01 X39.57935 Y-14.86502
G01 X39.53210 Y-15.04467
G01 X39.51508 Y-15.22966
G01 X39.51498 Y-17.61998
G01 X39.52077 Y-17.73098
G01 X39.53083 Y-17.80370
G01 X39.55730 Y-17.92554
G01 X39.60597 Y-18.06303
G01 X39.67094 Y-18.19140
G01 X39.74516 Y-18.30106
G01 X39.79583 Y-18.36255
G01 X39.95184 Y-18.52122
G01 X40.04490 Y-18.59968
G01 X40.17386 Y-18.68340
G01 X40.32392 Y-18.75295
G01 X40.47190 Y-18.79651
G01 X40.55278 Y-18.81203
G01 X40.70109 Y-18.82470
G01 X45.95627 Y-18.82498
G01 X46.08137 Y-18.91947
G01 X46.14426 Y-18.95991
G01 X46.27085 Y-19.02930
G01 X46.42404 Y-19.09262
G01 X46.59379 Y-19.14068
G01 X46.73625 Y-19.16407
G01 X46.80001 Y-19.17055
G01 X46.96371 Y-19.17393
G01 X47.16610 Y-19.15257
G01 X47.27456 Y-19.12920
G01 X47.37951 Y-19.09826
G01 X47.57321 Y-19.01746
G01 X47.75553 Y-18.90857
G01 X47.85180 Y-18.83514
G01 X47.92637 Y-18.76882
G01 X48.06752 Y-18.61401
G01 X48.18642 Y-18.43893
G01 X48.26000 Y-18.29049
G01 X48.26000 Y-19.30855
G01 X48.14476 Y-19.39841
G01 X48.06950 Y-19.45018
G01 X47.90458 Y-19.54908
G01 X47.78832 Y-19.60634
G01 X47.58931 Y-19.68706
G01 X47.46287 Y-19.72579
G01 X47.38738 Y-19.74454
G01 X47.27796 Y-19.76747
G01 X47.19764 Y-19.77941
G01 X47.01510 Y-19.79696
G01 X46.90201 Y-19.79930
G01 X46.72046 Y-19.79143
G01 X46.53092 Y-19.76481
G01 X46.42353 Y-19.74253
G01 X46.24895 Y-19.69313
G01 X46.05221 Y-19.61606
G01 X45.95315 Y-19.56897
G01 X45.82094 Y-19.49496
G01 X45.74944 Y-19.44997
G01 X45.75495 Y-19.42912
G01 X45.74944 Y-19.44997
G01 X40.71998 Y-19.44997
G01 X40.63764 Y-19.44726
G01 X40.49619 Y-19.43461
G01 X40.35402 Y-19.41098
G01 X40.17757 Y-19.36298
G01 X40.07195 Y-19.32546
G01 X39.90718 Y-19.24914
G01 X39.79502 Y-19.18510
G01 X39.65359 Y-19.08752
G01 X39.52938 Y-18.98190
G01 X39.35359 Y-18.80443
G01 X39.28720 Y-18.73014
G01 X39.18557 Y-18.59153
G01 X39.12641 Y-18.49826
G01 X39.04775 Y-18.34510
G01 X39.00228 Y-18.23570
G01 X38.94978 Y-18.07345
G01 X38.91415 Y-17.90621
G01 X38.89842 Y-17.78879
G01 X38.88999 Y-17.61998
G01 X38.89037 Y-15.20899
G01 X38.90107 Y-15.05450
G01 X38.91219 Y-14.96220
G01 X38.93012 Y-14.87099
G01 X38.96611 Y-14.73098
G01 X38.99164 Y-14.65240
G01 X39.02230 Y-14.57564
G01 X39.07269 Y-14.46246
G01 X39.12108 Y-14.37122
G01 X39.24490 Y-14.18354
G01 X39.36878 Y-14.03764
G01 X39.55580 Y-13.85425
G01 X39.67483 Y-13.75722
G01 X39.77358 Y-13.68829
G01 X39.84996 Y-13.64178
G01 X39.99250 Y-13.56916
G01 X40.07447 Y-13.53340
G01 X40.22621 Y-13.48179
G01 X40.33644 Y-13.45268
G01 X40.50695 Y-13.42314
G01 X40.63863 Y-13.41290
G01 X45.19211 Y-13.41039
G01 X45.20730 Y-13.45057
G01 X45.19211 Y-13.41039
G01 X45.27776 Y-13.33500
G01 X48.26000 Y-13.33500
G01 X48.26000 Y-13.93502
( Mill infeed pass 2/2 )
G00 Z1.00000 ( retract )
G00 X39.20015 Y-13.33500 ( rapid move to begin. )
G01 Z-0.06000
G04 P0 ( dwell for no time -- G64 should not smooth over this point )
G01 F80.00000
G01 X39.20015 Y-13.33500
G01 X36.84115 Y-13.33500
G01 X36.83000 Y-13.35768
G01 X36.84115 Y-13.33500
G01 X36.83000 Y-13.33500
G01 X36.83000 Y-20.32000
G01 X47.65787 Y-20.32000
G01 X47.82429 Y-20.26686
G01 X48.02134 Y-20.18642
G01 X48.14349 Y-20.12983
G01 X48.26000 Y-20.06539
G01 X48.14349 Y-20.12983
G01 X48.02134 Y-20.18642
G01 X47.82429 Y-20.26686
G01 X47.65787 Y-20.32000
G01 X48.26000 Y-20.32000
G01 X48.26000 Y-18.29049
G01 X48.29391 Y-18.20929
G01 X48.34407 Y-18.04393
G01 X48.37171 Y-17.89679
G01 X48.38443 Y-17.72569
G01 X48.37953 Y-17.57337
G01 X48.35667 Y-17.41246
G01 X48.31624 Y-17.25501
G01 X48.26000 Y-17.10583
G01 X48.26000 Y-16.38496
G01 X48.18723 Y-16.46616
G01 X48.10722 Y-16.52966
G01 X48.00859 Y-16.58343
G01 X47.90905 Y-16.61693
G01 X47.98903 Y-16.69473
G01 X48.09302 Y-16.81960
G01 X48.17892 Y-16.94805
G01 X48.26277 Y-17.11231
G01 X48.26000 Y-17.10583
G01 X48.26000 Y-16.38496
G01 X48.31118 Y-16.30462
G01 X48.34844 Y-16.22054
G01 X48.37298 Y-16.13192
G01 X48.38423 Y-16.04066
G01 X48.38423 Y-14.27932
G01 X48.37298 Y-14.18806
G01 X48.34494 Y-14.08984
G01 X48.30630 Y-14.00640
G01 X48.24954 Y-13.92146
G01 X48.17971 Y-13.84689
G01 X48.10722 Y-13.79032
G01 X48.01794 Y-13.74069
G01 X47.93160 Y-13.70901
G01 X47.85169 Y-13.69174
G01 X47.77021 Y-13.68506
G01 X46.05998 Y-13.68499
G01 X45.97842 Y-13.69035
G01 X45.90814 Y-13.70371
G01 X45.83029 Y-13.72873
G01 X45.75640 Y-13.76368
G01 X45.69595 Y-13.80195
G01 X45.64027 Y-13.84689
G01 X45.58340 Y-13.90564
G01 X45.53471 Y-13.97130
G01 X45.49864 Y-14.03525
G01 X40.66941 Y-14.03751
G01 X40.59489 Y-14.04201
G01 X40.49380 Y-14.05865
G01 X40.41765 Y-14.07678
G01 X40.30180 Y-14.11559
G01 X40.17261 Y-14.17777
G01 X40.11833 Y-14.20960
G01 X40.02771 Y-14.27345
G01 X39.98277 Y-14.31072
G01 X39.83756 Y-14.45151
G01 X39.76378 Y-14.53457
G01 X39.72766 Y-14.58277
G01 X39.65552 Y-14.69560
G01 X39.57935 Y-14.86502
G01 X39.53210 Y-15.04467
G01 X39.51508 Y-15.22966
G01 X39.51498 Y-17.61998
G01 X39.52077 Y-17.73098
G01 X39.53083 Y-17.80370
G01 X39.55730 Y-17.92554
G01 X39.60597 Y-18.06303
G01 X39.67094 Y-18.19140
G01 X39.74516 Y-18.30106
G01 X39.79583 Y-18.36255
G01 X39.95184 Y-18.52122
G01 X40.04490 Y-18.59968
G01 X40.17386 Y-18.68340
G01 X40.32392 Y-18.75295
G01 X40.47190 Y-18.79651
G01 X40.55278 Y-18.81203
G01 X40.70109 Y-18.82470
G01 X45.95627 Y-18.82498
G01 X46.08137 Y-18.91947
G01 X46.14426 Y-18.95991
G01 X46.27085 Y-19.02930
G01 X46.42404 Y-19.09262
G01 X46.59379 Y-19.14068
G01 X46.73625 Y-19.16407
G01 X46.80001 Y-19.17055
G01 X46.96371 Y-19.17393
G01 X47.16610 Y-19.15257
G01 X47.27456 Y-19.12920
G01 X47.37951 Y-19.09826
G01 X47.57321 Y-19.01746
G01 X47.75553 Y-18.90857
G01 X47.85180 Y-18.83514
G01 X47.92637 Y-18.76882
G01 X48.06752 Y-18.61401
G01 X48.18642 Y-18.43893
G01 X48.26000 Y-18.29049
G01 X48.26000 Y-19.30855
G01 X48.14476 Y-19.39841
G01 X48.06950 Y-19.45018
G01 X47.90458 Y-19.54908
G01 X47.78832 Y-19.60634
G01 X47.58931 Y-19.68706
G01 X47.46287 Y-19.72579
G01 X47.38738 Y-19.74454
G01 X47.27796 Y-19.76747
G01 X47.19764 Y-19.77941
G01 X47.01510 Y-19.79696
G01 X46.90201 Y-19.79930
G01 X46.72046 Y-19.79143
G01 X46.53092 Y-19.76481
G01 X46.42353 Y-19.74253
G01 X46.24895 Y-19.69313
G01 X46.05221 Y-19.61606
G01 X45.95315 Y-19.56897
G01 X45.82094 Y-19.49496
G01 X45.74944 Y-19.44997
G01 X45.75495 Y-19.42912
G01 X45.74944 Y-19.44997
G01 X40.71998 Y-19.44997
G01 X40.63764 Y-19.44726
G01 X40.49619 Y-19.43461
G01 X40.35402 Y-19.41098
G01 X40.17757 Y-19.36298
G01 X40.07195 Y-19.32546
G01 X39.90718 Y-19.24914
G01 X39.79502 Y-19.18510
G01 X39.65359 Y-19.08752
G01 X39.52938 Y-18.98190
G01 X39.35359 Y-18.80443
G01 X39.28720 Y-18.73014
G01 X39.18557 Y-18.59153
G01 X39.12641 Y-18.49826
G01 X39.04775 Y-18.34510
G01 X39.00228 Y-18.23570
G01 X38.94978 Y-18.07345
G01 X38.91415 Y-17.90621
G01 X38.89842 Y-17.78879
G01 X38.88999 Y-17.61998
G01 X38.89037 Y-15.20899
G01 X38.90107 Y-15.05450
G01 X38.91219 Y-14.96220
G01 X38.93012 Y-14.87099
G01 X38.96611 Y-14.73098
G01 X38.99164 Y-14.65240
G01 X39.02230 Y-14.57564
G01 X39.07269 Y-14.46246
G01 X39.12108 Y-14.37122
G01 X39.24490 Y-14.18354
G01 X39.36878 Y-14.03764
G01 X39.55580 Y-13.85425
G01 X39.67483 Y-13.75722
G01 X39.77358 Y-13.68829
G01 X39.84996 Y-13.64178
G01 X39.99250 Y-13.56916
G01 X40.07447 Y-13.53340
G01 X40.22621 Y-13.48179
G01 X40.33644 Y-13.45268
G01 X40.50695 Y-13.42314
G01 X40.63863 Y-13.41290
G01 X45.19211 Y-13.41039
G01 X45.20730 Y-13.45057
G01 X45.19211 Y-13.41039
G01 X45.27776 Y-13.33500
G01 X48.26000 Y-13.33500
G01 X48.26000 Y-13.93502
G04 P0 ( dwell for no time -- G64 should not smooth over this point )
G00 Z1.00000 ( retract )

G00 X45.27776 Y-13.33500 ( rapid move to begin. )
G01 F40.00000
( Mill infeed pass 1/2 )
G01 Z-0.03000
G04 P0 ( dwell for no time -- G64 should not smooth over this point )
G01 F80.00000
G01 X45.27776 Y-13.33500
G01 X39.20015 Y-13.33500
G01 X39.12022 Y-13.40587
G01 X38.95888 Y-13.56233
G01 X38.83315 Y-13.69957
G01 X38.72095 Y-13.84127
G01 X38.60277 Y-14.02034
G01 X38.55606 Y-14.10076
G01 X38.50891 Y-14.19268
G01 X38.41471 Y-14.41069
G01 X38.35999 Y-14.57752
G01 X38.30858 Y-14.78818
G01 X38.28103 Y-14.97203
G01 X38.26909 Y-15.11610
G01 X38.26510 Y-15.21932
G01 X38.26502 Y-17.63055
G01 X38.27242 Y-17.79796
G01 X38.28379 Y-17.91830
G01 X38.31892 Y-18.11840
G01 X38.34895 Y-18.24584
G01 X38.40787 Y-18.42948
G01 X38.45933 Y-18.56075
G01 X38.54359 Y-18.73448
G01 X38.61260 Y-18.85696
G01 X38.72641 Y-19.02546
G01 X38.81481 Y-19.13953
G01 X38.89733 Y-19.23166
G01 X39.08488 Y-19.42221
G01 X39.22248 Y-19.54327
G01 X39.34496 Y-19.63560
G01 X39.49685 Y-19.73570
G01 X39.62961 Y-19.80913
G01 X39.82385 Y-19.89922
G01 X39.99926 Y-19.96201
G01 X40.18603 Y-20.01350
G01 X40.32730 Y-20.04223
G01 X40.55026 Y-20.06727
G01 X40.68999 Y-20.07474
G01 X45.57702 Y-20.07497
G01 X45.58096 Y-20.05833
G01 X45.57702 Y-20.07497
G01 X45.68380 Y-20.13336
G01 X45.77580 Y-20.17740
G01 X45.99269 Y-20.26587
G01 X46.16630 Y-20.32000
( Mill infeed pass 2/2 )
G00 Z1.00000 ( retract )
G00 X45.27776 Y-13.33500 ( rapid move to begin. )
G01 Z-0.06000
G04 P0 ( dwell for no time -- G64 should not smooth over this point )
G01 F80.00000
G01 X45.27776 Y-13.33500
G01 X39.20015 Y-13.33500
G01 X39.12022 Y-13.40587
G01 X38.95888 Y-13.56233
G01 X38.83315 Y-13.69957
G01 X38.72095 Y-13.84127
G01 X38.60277 Y-14.02034
G01 X38.55606 Y-14.10076
G01 X38.50891 Y-14.19268
G01 X38.41471 Y-14.41069
G01 X38.35999 Y-14.57752
G01 X38.30858 Y-14.78818
G01 X38.28103 Y-14.97203
G01 X38.26909 Y-15.11610
G01 X38.26510 Y-15.21932
G01 X38.26502 Y-17.63055
G01 X38.27242 Y-17.79796
G01 X38.28379 Y-17.91830
G01 X38.31892 Y-18.11840
G01 X38.34895 Y-18.24584
G01 X38.40787 Y-18.42948
G01 X38.45933 Y-18.56075
G01 X38.54359 Y-18.73448
G01 X38.61260 Y-18.85696
G01 X38.72641 Y-19.02546
G01 X38.81481 Y-19.13953
G01 X38.89733 Y-19.23166
G01 X39.08488 Y-19.42221
G01 X39.22248 Y-19.54327
G01 X39.34496 Y-19.63560
G01 X39.49685 Y-19.73570
G01 X39.62961 Y-19.80913
G01 X39.82385 Y-19.89922
G01 X39.99926 Y-19.96201
G01 X40.18603 Y-20.01350
G01 X40.32730 Y-20.04223
G01 X40.55026 Y-20.06727
G01 X40.68999 Y-20.07474
G01 X45.57702 Y-20.07497
G01 X45.58096 Y-20.05833
G01 X45.57702 Y-20.07497
G01 X45.68380 Y-20.13336
G01 X45.77580 Y-20.17740
G01 X45.99269 Y-20.26587
G01 X46.16630 Y-20.32000
G04 P0 ( dwell for no time -- G64 should not smooth over this point )
G00 Z1.00000 ( retract )

G00 X41.76499 Y-16.57497 ( rapid move to begin. )
G01 F40.00000
( Mill infeed pass 1/2 )
G01 Z-0.03000
G04 P0 ( dwell for no time -- G64 should not smooth over this point )
G01 F80.00000
G01 X41.76499 Y-16.57497
G01 X41.76499 Y-16.28498
G01 X45.49874 Y-16.28498
G01 X45.55195 Y-16.37403
G01 X45.61804 Y-16.45194
G01 X45.69595 Y-16.51803
G01 X45.79275 Y-16.57497
G01 X41.76499 Y-16.57497
( Mill infeed pass 2/2 )
G01 Z-0.06000
G04 P0 ( dwell for no time -- G64 should not smooth over this point )
G01 F80.00000
G01 X41.76499 Y-16.57497
G01 X41.76499 Y-16.28498
G01 X45.49874 Y-16.28498
G01 X45.55195 Y-16.37403
G01 X45.61804 Y-16.45194
G01 X45.69595 Y-16.51803
G01 X45.79275 Y-16.57497
G01 X41.76499 Y-16.57497
G04 P0 ( dwell for no time -- G64 should not smooth over this point )
G00 Z1.00000 ( retract )

G00 X39.51498 Y-17.61998 ( rapid move to begin. )
G01 F40.00000
( Mill infeed pass 1/2 )
G01 Z-0.03000
G04 P0 ( dwell for no time -- G64 should not smooth over this point )
G01 F80.00000
G01 X39.51498 Y-17.61998
G01 X37.01499 Y-17.61998
G01 X36.83000 Y-19.50039
G01 X36.94511 Y-19.71982
G01 X37.06165 Y-19.91246
G01 X37.21842 Y-20.13989
G01 X37.35786 Y-20.32000
G01 X38.21496 Y-20.32000
G01 X37.94359 Y-20.04172
G01 X37.85657 Y-19.94220
G01 X37.77381 Y-19.83910
G01 X37.69550 Y-19.73260
G01 X37.57419 Y-19.55394
G01 X37.48961 Y-19.41302
G01 X37.41717 Y-19.27703
G01 X37.34036 Y-19.12021
G01 X37.27569 Y-18.96974
G01 X37.22228 Y-18.82577
G01 X37.15878 Y-18.63057
G01 X37.11456 Y-18.46227
G01 X37.07491 Y-18.27124
G01 X37.04966 Y-18.11978
G01 X37.03188 Y-17.96727
G01 X37.01872 Y-17.77284
G01 X37.01506 Y-17.64035
G01 X37.01501 Y-15.22966
G01 X37.02116 Y-15.04381
G01 X37.04133 Y-14.80896
G01 X37.06525 Y-14.63845
G01 X37.10076 Y-14.45964
G01 X37.15855 Y-14.23238
G01 X37.21628 Y-14.04882
G01 X37.27742 Y-13.88786
G01 X37.37615 Y-13.66406
G01 X37.45898 Y-13.50165
G01 X37.55702 Y-13.33500
G01 X38.32273 Y-13.33500
G01 X38.19731 Y-13.49924
G01 X38.05893 Y-13.71176
G01 X37.96645 Y-13.87942
G01 X37.87351 Y-14.08285
G01 X37.80742 Y-14.25179
G01 X37.75113 Y-14.43479
G01 X37.69642 Y-14.66205
G01 X37.66447 Y-14.86103
G01 X37.64544 Y-15.07480
G01 X37.64008 Y-15.21932
G01 X37.64051 Y-17.67162
G01 X37.65070 Y-17.86715
G01 X37.66530 Y-18.00883
G01 X37.68987 Y-18.15945
G01 X37.73023 Y-18.34957
G01 X37.76815 Y-18.48686
G01 X37.82695 Y-18.66125
G01 X37.87521 Y-18.78442
G01 X37.92990 Y-18.90484
G01 X38.00823 Y-19.05919
G01 X38.08349 Y-19.18970
G01 X38.15499 Y-19.29895
G01 X38.27478 Y-19.46524
G01 X38.35885 Y-19.56813
G01 X38.45537 Y-19.67375
G01 X38.61971 Y-19.84212
G01 X38.76883 Y-19.97807
G01 X38.87135 Y-20.06272
G01 X38.97823 Y-20.14184
G01 X39.13007 Y-20.24360
G01 X39.25877 Y-20.32000
( Mill infeed pass 2/2 )
G00 Z1.00000 ( retract )
G00 X39.51498 Y-17.61998 ( rapid move to begin. )
G01 Z-0.06000
G04 P0 ( dwell for no time -- G64 should not smooth over this point )
G01 F80.00000
G01 X39.51498 Y-17.61998
G01 X37.01499 Y-17.61998
G01 X36.83000 Y-19.50039
G01 X36.94511 Y-19.71982
G01 X37.06165 Y-19.91246
G01 X37.21842 Y-20.13989
G01 X37.35786 Y-20.32000
G01 X38.21496 Y-20.32000
G01 X37.94359 Y-20.04172
G01 X37.85657 Y-19.94220
G01 X37.77381 Y-19.83910
G01 X37.69550 Y-19.73260
G01 X37.57419 Y-19.55394
G01 X37.48961 Y-19.41302
G01 X37.41717 Y-19.27703
G01 X37.34036 Y-19.12021
G01 X37.27569 Y-18.96974
G01 X37.22228 Y-18.82577
G01 X37.15878 Y-18.63057
G01 X37.11456 Y-18.46227
G01 X37.07491 Y-18.27124
G01 X37.04966 Y-18.11978
G01 X37.03188 Y-17.96727
G01 X37.01872 Y-17.77284
G01 X37.01506 Y-17.64035
G01 X37.01501 Y-15.22966
G01 X37.02116 Y-15.04381
G01 X37.04133 Y-14.80896
G01 X37.06525 Y-14.63845
G01 X37.10076 Y-14.45964
G01 X37.15855 Y-14.23238
G01 X37.21628 Y-14.04882
G01 X37.27742 Y-13.88786
G01 X37.37615 Y-13.66406
G01 X37.45898 Y-13.50165
G01 X37.55702 Y-13.33500
G01 X38.32273 Y-13.33500
G01 X38.19731 Y-13.49924
G01 X38.05893 Y-13.71176
G01 X37.96645 Y-13.87942
G01 X37.87351 Y-14.08285
G01 X37.80742 Y-14.25179
G01 X37.75113 Y-14.43479
G01 X37.69642 Y-14.66205
G01 X37.66447 Y-14.86103
G01 X37.64544 Y-15.07480
G01 X37.64008 Y-15.21932
G01 X37.64051 Y-17.67162
G01 X37.65070 Y-17.86715
G01 X37.66530 Y-18.00883
G01 X37.68987 Y-18.15945
G01 X37.73023 Y-18.34957
G01 X37.76815 Y-18.48686
G01 X37.82695 Y-18.66125
G01 X37.87521 Y-18.78442
G01 X37.92990 Y-18.90484
G01 X38.00823 Y-19.05919
G01 X38.08349 Y-19.18970
G01 X38.15499 Y-19.29895
G01 X38.27478 Y-19.46524
G01 X38.35885 Y-19.56813
G01 X38.45537 Y-19.67375
G01 X38.61971 Y-19.84212
G01 X38.76883 Y-19.97807
G01 X38.87135 Y-20.06272
G01 X38.97823 Y-20.14184
G01 X39.13007 Y-20.24360
G01 X39.25877 Y-20.32000

G00 Z15.00000 (Retract to tool change height)
T2
M5      (Spindle stop.)
G04 P1.00000 (Wait for spindle to stop)
(MSG, Change tool bit to mill diameter 0.25000mm)
M6      (Tool change.)
M0      (Temporary machine stop.)
M3 ( Spindle on clockwise. )
G04 P1.00000 (Wait for spindle to get up to speed)
G04 P0 ( dwell for no time -- G64 should not smooth over this point )
G00 Z1.00000 ( retract )

G00 X41.35338 Y-16.98658 ( rapid move to begin. )
G01 F40.00000
( Mill infeed pass 1/2 )
G01 Z-0.03000
G04 P0 ( dwell for no time -- G64 should not smooth over this point )
G01 F80.00000
G01 X41.35338 Y-16.98658
G01 X41.38999 Y-16.94998
G01 X41.38999 Y-16.92082
G01 X41.38999 Y-16.94998
G01 X41.41915 Y-16.94998
G01 X41.66382 Y-17.07497
G01 X41.26499 Y-17.07497
G01 X41.26499 Y-15.78498
G01 X41.66370 Y-15.78498
G01 X41.41912 Y-15.90998
G01 X41.38999 Y-15.90998
G01 X41.38999 Y-15.93911
G01 X41.38999 Y-15.90998
G01 X41.35338 Y-15.87337
( Mill infeed pass 2/2 )
G00 Z1.00000 ( retract )
G00 X41.35338 Y-16.98658 ( rapid move to begin. )
G01 Z-0.06000
G04 P0 ( dwell for no time -- G64 should not smooth over this point )
G01 F80.00000
G01 X41.35338 Y-16.98658
G01 X41.38999 Y-16.94998
G01 X41.38999 Y-16.92082
G01 X41.38999 Y-16.94998
G01 X41.41915 Y-16.94998
G01 X41.66382 Y-17.07497
G01 X41.26499 Y-17.07497
G01 X41.26499 Y-15.78498
G01 X41.66370 Y-15.78498
G01 X41.41912 Y-15.90998
G01 X41.38999 Y-15.90998
G01 X41.38999 Y-15.93911
G01 X41.38999 Y-15.90998
G01 X41.35338 Y-15.87337
G04 P0 ( dwell for no time -- G64 should not smooth over this point )
G00 Z1.00000 ( retract )

G00 X45.60009 Y-14.53520 ( rapid move to begin. )
G01 F40.00000
( Mill infeed pass 1/2 )
G01 Z-0.03000
G04 P0 ( dwell for no time -- G64 should not smooth over this point )
G01 F80.00000
G01 X45.60009 Y-14.53520
G01 X45.93499 Y-14.53505
G01 X45.93554 Y-14.29860
G01 X45.82599 Y-14.42649
G01 X45.84466 Y-14.44559
( Mill infeed pass 2/2 )
G00 Z1.00000 ( retract )
G00 X45.60009 Y-14.53520 ( rapid move to begin. )
G01 Z-0.06000
G04 P0 ( dwell for no time -- G64 should not smooth over this point )
G01 F80.00000
G01 X45.60009 Y-14.53520
G01 X45.93499 Y-14.53505
G01 X45.93554 Y-14.29860
G01 X45.82599 Y-14.42649
G01 X45.84466 Y-14.44559
G04 P0 ( dwell for no time -- G64 should not smooth over this point )
G00 Z1.00000 ( retract )

G00 X45.84469 Y-15.87442 ( rapid move to begin. )
G01 F40.00000
( Mill infeed pass 1/2 )
G01 Z-0.03000
G04 P0 ( dwell for no time -- G64 should not smooth over this point )
G01 F80.00000
G01 X45.84469 Y-15.87442
G01 X45.82597 Y-15.89362
G01 X45.59998 Y-15.78498
G01 X45.93499 Y-15.78498
G01 X45.93557 Y-16.02148
G01 X45.89389 Y-17.07497
G01 X46.16450 Y-17.07497
G01 X46.21108 Y-17.02016
G01 X46.30036 Y-16.93939
G01 X46.41243 Y-16.86151
G01 X46.52678 Y-16.80345
G01 X46.63994 Y-16.76336
G01 X46.78152 Y-16.73372
G01 X46.90123 Y-16.72504
G01 X47.02109 Y-16.73159
G01 X47.15045 Y-16.75526
G01 X47.23798 Y-16.78198
G01 X47.33478 Y-16.82257
G01 X47.43585 Y-16.87919
G01 X47.50567 Y-16.92923
G01 X47.54453 Y-16.25999
G01 X46.19404 Y-16.25999
G01 X46.23257 Y-16.83339
G01 X46.35337 Y-16.75127
G01 X46.48274 Y-16.68640
G01 X46.61946 Y-16.63908
G01 X46.76125 Y-16.61013
G01 X46.90560 Y-16.60004
G01 X47.05937 Y-16.61053
G01 X47.16864 Y-16.63088
G01 X47.27448 Y-16.66243
G01 X47.40935 Y-16.72026
G01 X47.45467 Y-16.38498
G01 X46.26620 Y-16.38498
G01 X46.27758 Y-16.47342
G01 X46.29785 Y-16.50360
G01 X46.58685 Y-16.41980
G01 X46.29785 Y-16.50360
G01 X46.27758 Y-16.47342
G01 X46.29889 Y-16.63860
G01 X46.43308 Y-16.57165
G01 X46.58533 Y-16.51881
G01 X46.73341 Y-16.48780
G01 X46.88418 Y-16.47546
G01 X47.05408 Y-16.48353
G01 X47.19249 Y-16.50815
G01 X47.32058 Y-16.54594
G01 X47.40031 Y-16.57871
G01 X47.41931 Y-16.47396
G01 X47.26650 Y-16.43027
G01 X47.41931 Y-16.47396
G01 X47.40031 Y-16.57871
G01 X47.32058 Y-16.54594
G01 X47.19249 Y-16.50815
G01 X47.05408 Y-16.48353
G01 X46.88418 Y-16.47546
G01 X46.73341 Y-16.48780
G01 X46.58533 Y-16.51881
G01 X46.43308 Y-16.57165
G01 X46.29889 Y-16.63860
G01 X46.27758 Y-16.47342
G01 X46.05025 Y-16.13459
G01 X47.74174 Y-16.13499
( Mill infeed pass 2/2 )
G00 Z1.00000 ( retract )
G00 X45.84469 Y-15.87442 ( rapid move to begin. )
G01 Z-0.06000
G04 P0 ( dwell for no time -- G64 should not smooth over this point )
G01 F80.00000
G01 X45.84469 Y-15.87442
G01 X45.82597 Y-15.89362
G01 X45.59998 Y-15.78498
G01 X45.93499 Y-15.78498
G01 X45.93557 Y-16.02148
G01 X45.89389 Y-17.07497
G01 X46.16450 Y-17.07497
G01 X46.21108 Y-17.02016
G01 X46.30036 Y-16.93939
G01 X46.41243 Y-16.86151
G01 X46.52678 Y-16.80345
G01 X46.63994 Y-16.76336
G01 X46.78152 Y-16.73372
G01 X46.90123 Y-16.72504
G01 X47.02109 Y-16.73159
G01 X47.15045 Y-16.75526
G01 X47.23798 Y-16.78198
G01 X47.33478 Y-16.82257
G01 X47.43585 Y-16.87919
G01 X47.50567 Y-16.92923
G01 X47.54453 Y-16.25999
G01 X46.19404 Y-16.25999
G01 X46.23257 Y-16.83339
G01 X46.35337 Y-16.75127
G01 X46.48274 Y-16.68640
G01 X46.61946 Y-16.63908
G01 X46.76125 Y-16.61013
G01 X46.90560 Y-16.60004
G01 X47.05937 Y-16.61053
G01 X47.16864 Y-16.63088
G01 X47.27448 Y-16.66243
G01 X47.40935 Y-16.72026
G01 X47.45467 Y-16.38498
G01 X46.26620 Y-16.38498
G01 X46.27758 Y-16.47342
G01 X46.29785 Y-16.50360
G01 X46.58685 Y-16.41980
G01 X46.29785 Y-16.50360
G01 X46.27758 Y-16.47342
G01 X46.29889 Y-16.63860
G01 X46.43308 Y-16.57165
G01 X46.58533 Y-16.51881
G01 X46.73341 Y-16.48780
G01 X46.88418 Y-16.47546
G01 X47.05408 Y-16.48353
G01 X47.19249 Y-16.50815
G01 X47.32058 Y-16.54594
G01 X47.40031 Y-16.57871
G01 X47.41931 Y-16.47396
G01 X47.26650 Y-16.43027
G01 X47.41931 Y-16.47396
G01 X47.40031 Y-16.57871
G01 X47.32058 Y-16.54594
G01 X47.19249 Y-16.50815
G01 X47.05408 Y-16.48353
G01 X46.88418 Y-16.47546
G01 X46.73341 Y-16.48780
G01 X46.58533 Y-16.51881
G01 X46.43308 Y-16.57165
G01 X46.29889 Y-16.63860
G01 X46.27758 Y-16.47342
G01 X46.05025 Y-16.13459
G01 X47.74174 Y-16.13499
G04 P0 ( dwell for no time -- G64 should not smooth over this point )
G00 Z1.00000 ( retract )

G00 X46.05757 Y-18.32498 ( rapid move to begin. )
G01 F40.00000
( Mill infeed pass 1/2 )
G01 Z-0.03000
G04 P0 ( dwell for no time -- G64 should not smooth over this point )
G01 F80.00000
G01 X46.05757 Y-18.32498
G01 X46.16402 Y-18.32498
G01 X46.22211 Y-18.38957
( Mill infeed pass 2/2 )
G00 Z1.00000 ( retract )
G00 X46.05757 Y-18.32498 ( rapid move to begin. )
G01 Z-0.06000
G04 P0 ( dwell for no time -- G64 should not smooth over this point )
G01 F80.00000
G01 X46.05757 Y-18.32498
G01 X46.16402 Y-18.32498
G01 X46.22211 Y-18.38957

G04 P0 ( dwell for no time -- G64 should not smooth over this point )
G00 Z15.000000 ( retract )

M5 ( Spindle off. )
G04 P1.000000
M9 ( Coolant off. )
M2 ( Program end. )

